(simple mammoth roughing)
(T6  D=6.35 CR=0 - ZMIN=-27 - flat end mill)
G90 G94
G17
G21
(When using Fusion 360 for Personal Use, the feedrate of)
(rapid moves is reduced to match the feedrate of cutting)
(moves, which can increase machining time. Unrestricted rapid)
(moves are available with a Fusion 360 Subscription.)
G28 G91 Z0
G90

(Pocket1)
T6
S15000 M3
G54
G0 X114.532 Y-42.942
Z8
G1 Z5 F2000
Z4.835 F1500
X114.545 Y-42.935 Z4.696
X114.585 Y-42.913 Z4.565
X114.648 Y-42.877 Z4.446
X114.73 Y-42.827 Z4.346
X114.827 Y-42.764 Z4.27
X114.933 Y-42.688 Z4.22
X115.041 Y-42.603 Z4.2
G3 X111.205 Y-37.947 Z3.869 I-1.918 J2.328
X115.041 Y-42.603 Z3.538 I1.918 J-2.328
X111.205 Y-37.947 Z3.207 I-1.918 J2.328
X115.041 Y-42.603 Z2.876 I1.918 J-2.328
X111.205 Y-37.947 Z2.545 I-1.918 J2.328
X115.041 Y-42.603 Z2.215 I1.918 J-2.328
X111.205 Y-37.947 Z1.884 I-1.918 J2.328
X115.041 Y-42.603 Z1.553 I1.918 J-2.328
X111.205 Y-37.947 Z1.222 I-1.918 J2.328
X115.041 Y-42.603 Z0.891 I1.918 J-2.328
X111.205 Y-37.947 Z0.56 I-1.918 J2.328
X115.041 Y-42.603 Z0.229 I1.918 J-2.328
X111.205 Y-37.947 Z-0.102 I-1.918 J2.328
X115.041 Y-42.603 Z-0.433 I1.918 J-2.328
X111.205 Y-37.947 Z-0.764 I-1.918 J2.328
X115.041 Y-42.603 Z-1.094 I1.918 J-2.328
X111.205 Y-37.947 Z-1.425 I-1.918 J2.328
X115.041 Y-42.603 Z-1.756 I1.918 J-2.328
X111.205 Y-37.947 Z-2.087 I-1.918 J2.328
X115.041 Y-42.603 Z-2.418 I1.918 J-2.328
X111.205 Y-37.947 Z-2.749 I-1.918 J2.328
X115.041 Y-42.603 Z-3.08 I1.918 J-2.328
X111.205 Y-37.947 Z-3.411 I-1.918 J2.328
X115.041 Y-42.603 Z-3.742 I1.918 J-2.328
X113.123 Y-37.259 Z-4 I-1.918 J2.328
G1 X110.087 F2000
G3 X109.793 Y-38.206 I0 J-0.519
G2 X113.65 Y-41.199 I-23.777 J-34.625
G3 X114.641 Y-40.751 I0.394 J0.449
G1 Y-38.475
G3 X113.425 Y-37.259 I-1.217 J0
G1 X113.123
G2 X110.551 Y-35.544 I0 J2.786
G3 X107.98 Y-33.83 I-2.572 J-1.072
G1 X100.849
G3 X100.443 Y-34.796 I0 J-0.568
X105.863 Y-39.3 I24.806 J24.334
G2 X111.446 Y-43.599 I-30.598 J-45.515
X113.813 Y-45.899 I-21.492 J-24.482
X115.983 Y-48.386 I-38.194 J-35.51
X116.582 Y-49.185 I-9.104 J-7.448
G3 X117.16 Y-49.999 I25.119 J17.214
X118.07 Y-49.701 I0.406 J0.298
G1 Y-35.046
G3 X116.854 Y-33.83 I-1.217 J0
G1 X107.98
G2 X105.408 Y-32.115 I0 J2.786
G3 X102.836 Y-30.401 I-2.572 J-1.072
G1 X90.911
G3 X90.613 Y-31.314 I0 J-0.505
X94.065 Y-33.706 I51.819 J71.079
G2 X97.351 Y-36.32 I-12.878 J-19.561
X99.747 Y-38.782 I-31.921 J-33.467
G3 X102.338 Y-41.038 I10.662 J9.633
G2 X111.373 Y-48.458 I-36.024 J-53.067
X118.196 Y-57.952 I-24.459 J-24.778
X119.31 Y-60.737 I-18.247 J-8.916
X120.169 Y-63.612 I-87.076 J-27.569
G3 X120.812 Y-64.099 I0.643 J0.18
G1 X120.832
G3 X121.499 Y-63.432 I0 J0.668
G1 Y-31.617
G3 X120.283 Y-30.401 I-1.217 J0
G1 X102.836
G2 X100.264 Y-28.686 I0 J2.786
G3 X97.693 Y-26.972 I-2.572 J-1.072
G1 X75.789
G3 X75.69 Y-27.747 I0 J-0.394
G2 X80.864 Y-29.455 I-10.618 J-40.852
X85.725 Y-31.916 I-11.996 J-29.734
X90.529 Y-35.123 I-43.332 J-70.108
X94.974 Y-38.812 I-24.458 J-33.992
X96.708 Y-40.638 I-17.528 J-18.377
G3 X98.387 Y-42.515 I47.38 J40.713
X99.696 Y-43.608 I5.003 J4.663
G2 X105.585 Y-47.698 I-52.997 J-82.574
X110.759 Y-52.66 I-17.867 J-23.813
X117.042 Y-65.027 I-25.078 J-20.517
X117.18 Y-65.655 I-8.044 J-2.104
G3 X117.306 Y-66.286 I16.607 J2.997
X118.852 Y-67.528 I1.546 J0.34
G1 X123.712
G3 X124.928 Y-66.312 I0 J1.217
G1 Y-28.188
G3 X123.712 Y-26.972 I-1.217 J0
G1 X97.693
X97.622 Y-26.976 Z-3.992
X97.553 Y-26.987 Z-3.984
X97.488 Y-27.006 Z-3.961
X97.426 Y-27.03 Z-3.937
X97.372 Y-27.058 Z-3.899
X97.322 Y-27.091 Z-3.861
X97.245 Y-27.156 Z-3.761
X97.195 Y-27.212 Z-3.641
X97.167 Y-27.25 Z-3.506
X97.158 Y-27.264 Z-3.365
Z5
X29.804 Y-32.998
Z4.835
X29.817 Y-32.991 Z4.696 F1500
X29.857 Y-32.969 Z4.565
X29.92 Y-32.933 Z4.446
X30.002 Y-32.883 Z4.346
X30.099 Y-32.819 Z4.27
X30.205 Y-32.744 Z4.22
X30.313 Y-32.659 Z4.2
G3 X26.477 Y-28.003 Z3.869 I-1.918 J2.328
X30.313 Y-32.659 Z3.538 I1.918 J-2.328
X26.477 Y-28.003 Z3.207 I-1.918 J2.328
X30.313 Y-32.659 Z2.876 I1.918 J-2.328
X26.477 Y-28.003 Z2.545 I-1.918 J2.328
X30.313 Y-32.659 Z2.215 I1.918 J-2.328
X26.477 Y-28.003 Z1.884 I-1.918 J2.328
X30.313 Y-32.659 Z1.553 I1.918 J-2.328
X26.477 Y-28.003 Z1.222 I-1.918 J2.328
X30.313 Y-32.659 Z0.891 I1.918 J-2.328
X26.477 Y-28.003 Z0.56 I-1.918 J2.328
X30.313 Y-32.659 Z0.229 I1.918 J-2.328
X26.477 Y-28.003 Z-0.102 I-1.918 J2.328
X30.313 Y-32.659 Z-0.433 I1.918 J-2.328
X26.477 Y-28.003 Z-0.764 I-1.918 J2.328
X30.313 Y-32.659 Z-1.094 I1.918 J-2.328
X26.477 Y-28.003 Z-1.425 I-1.918 J2.328
X30.313 Y-32.659 Z-1.756 I1.918 J-2.328
X26.477 Y-28.003 Z-2.087 I-1.918 J2.328
X30.313 Y-32.659 Z-2.418 I1.918 J-2.328
X26.477 Y-28.003 Z-2.749 I-1.918 J2.328
X30.313 Y-32.659 Z-3.08 I1.918 J-2.328
X26.477 Y-28.003 Z-3.411 I-1.918 J2.328
X30.313 Y-32.659 Z-3.742 I1.918 J-2.328
X28.395 Y-27.314 Z-4 I-1.918 J2.328
G1 X28.211 F2000
G3 X27.315 Y-28.211 I0 J-0.896
G1 Y-29.354
G3 X28.312 Y-29.831 I0.613 J0
G2 X30.533 Y-28.207 I18.297 J-22.689
G3 X30.264 Y-27.314 I-0.268 J0.406
G1 X28.395
G2 X26.258 Y-26.096 I0 J2.484
G3 X23.885 Y-26.745 I-1.098 J-0.65
G1 Y-38.401
G3 X24.762 Y-38.669 I0.479 J0
G2 X33.282 Y-30.447 I23.467 J-15.795
X44.31 Y-26.135 I17.101 J-27.478
X52.835 Y-25.255 I9.376 J-49.073
X61.349 Y-26.233 I0.557 J-32.691
X67.003 Y-28.158 I-8.854 J-35.286
G3 X72.673 Y-30.038 I13.248 J30.464
G2 X82.235 Y-33.656 I-8.889 J-37.934
X90.795 Y-39.248 I-28.421 J-52.857
X93.602 Y-41.859 I-13.864 J-17.72
G3 X96.191 Y-44.686 I275.094 J249.314
X97.952 Y-46.156 I6.564 J6.073
G2 X104.865 Y-51.269 I-33.096 J-51.973
X110.569 Y-57.704 I-20.171 J-23.625
X113.206 Y-62.999 I-19.868 J-13.199
X114.642 Y-68.737 I-30.162 J-10.594
X114.681 Y-69.077 I-4.467 J-0.687
G3 X114.715 Y-69.418 I6.943 J0.534
X116.074 Y-70.615 I1.359 J0.172
G1 X126.822
G3 X128.015 Y-69.423 I0 J1.192
G1 Y-25.077
G3 X126.822 Y-23.885 I-1.192 J0
G1 X25.078
G3 X23.885 Y-25.077 I0 J-1.192
G1 Y-26.745
X23.889 Y-26.816 Z-3.992
X23.901 Y-26.886 Z-3.984
X23.919 Y-26.95 Z-3.961
X23.944 Y-27.012 Z-3.937
X23.972 Y-27.066 Z-3.899
X24.005 Y-27.116 Z-3.861
X24.07 Y-27.193 Z-3.761
X24.126 Y-27.243 Z-3.641
X24.164 Y-27.271 Z-3.506
X24.177 Y-27.28 Z-3.365
Z5
X18.806 Y-71.641
Z4.835
X18.813 Y-71.654 Z4.696 F1500
X18.834 Y-71.694 Z4.565
X18.87 Y-71.757 Z4.446
X18.92 Y-71.839 Z4.346
X18.984 Y-71.936 Z4.27
X19.06 Y-72.042 Z4.22
X19.145 Y-72.15 Z4.2
G3 X23.801 Y-68.314 Z3.869 I2.328 J1.918
X19.145 Y-72.15 Z3.538 I-2.328 J-1.918
X23.801 Y-68.314 Z3.207 I2.328 J1.918
X19.145 Y-72.15 Z2.876 I-2.328 J-1.918
X23.801 Y-68.314 Z2.545 I2.328 J1.918
X19.145 Y-72.15 Z2.215 I-2.328 J-1.918
X23.801 Y-68.314 Z1.884 I2.328 J1.918
X19.145 Y-72.15 Z1.553 I-2.328 J-1.918
X23.801 Y-68.314 Z1.222 I2.328 J1.918
X19.145 Y-72.15 Z0.891 I-2.328 J-1.918
X23.801 Y-68.314 Z0.56 I2.328 J1.918
X19.145 Y-72.15 Z0.229 I-2.328 J-1.918
X23.801 Y-68.314 Z-0.102 I2.328 J1.918
X19.145 Y-72.15 Z-0.433 I-2.328 J-1.918
X23.801 Y-68.314 Z-0.764 I2.328 J1.918
X19.145 Y-72.15 Z-1.094 I-2.328 J-1.918
X23.801 Y-68.314 Z-1.425 I2.328 J1.918
X19.145 Y-72.15 Z-1.756 I-2.328 J-1.918
X23.801 Y-68.314 Z-2.087 I2.328 J1.918
X19.145 Y-72.15 Z-2.418 I-2.328 J-1.918
X23.801 Y-68.314 Z-2.749 I2.328 J1.918
X19.145 Y-72.15 Z-3.08 I-2.328 J-1.918
X23.801 Y-68.314 Z-3.411 I2.328 J1.918
X19.145 Y-72.15 Z-3.742 I-2.328 J-1.918
X24.489 Y-70.232 Z-4 I2.328 J1.918
X24.047 Y-70.232 I-0.221 J0 F2000
X24.489 Y-70.232 I0.221 J0
G2 X25.329 Y-67.504 I4.851 J0
G3 X25.593 Y-64.661 I-2.44 J1.66
G2 X24.207 Y-60.676 I24.89 J10.889
X24.19 Y-47.859 I24.513 J6.441
X30.583 Y-36.75 I23.431 J-6.09
X42.372 Y-30.007 I18.513 J-18.689
X55.904 Y-28.847 I10.087 J-38.155
X62.249 Y-30.082 I-2.694 J-30.743
X68.246 Y-32.493 I-11.15 J-36.402
G3 X69.394 Y-32.909 I2.308 J4.575
G2 X74.892 Y-34.225 I-96.757 J-416.373
X80.16 Y-36.276 I-5.231 J-21.235
X86.058 Y-39.91 I-32.298 J-59.014
X91.311 Y-44.426 I-18.534 J-26.872
X92.727 Y-45.965 I-71.974 J-67.643
G1 X93.873 Y-47.238
G3 X95.856 Y-48.892 I6.78 J6.107
G2 X102.363 Y-53.606 I-28.869 J-46.705
X107.713 Y-59.602 I-18.273 J-21.69
X110.051 Y-64.226 I-18.297 J-12.155
X111.339 Y-69.245 I-24.688 J-9.011
X111.486 Y-71.048 I-12.58 J-1.933
X111.494 Y-72.858 I-150.706 J-1.533
G3 X112.681 Y-74.047 I1.187 J-0.002
G1 X130.231
G3 X131.447 Y-72.831 I0 J1.217
G1 Y-21.669
G3 X130.231 Y-20.453 I-1.217 J0
G1 X21.669
G3 X20.453 Y-21.669 I0 J-1.217
G1 Y-72.831
G3 X21.669 Y-74.047 I1.217 J0
G1 X30.446
G3 X30.912 Y-73.057 I0 J0.605
G2 X26.884 Y-67.232 I31.483 J26.079
X25.593 Y-64.661 I23.599 J13.46
X26.24 Y-61.53 I2.534 J1.109
G3 X27.231 Y-58.49 I-2.255 J2.417
G2 X27.116 Y-57.845 I24.56 J4.713
X28.12 Y-46.904 I21.497 J3.544
X34.423 Y-37.906 I19.751 J-7.129
X44.889 Y-32.939 I14.883 J-17.849
X56.458 Y-32.337 I7.928 J-40.951
X61.71 Y-33.453 I-1.928 J-22.001
X66.66 Y-35.534 I-13.074 J-38.028
G3 X68.663 Y-36.26 I4.09 J8.157
G1 X73.724 Y-37.449
G2 X78.514 Y-39.283 I-4.359 J-18.552
X84.467 Y-43.084 I-25.153 J-45.958
X89.769 Y-47.75 I-24.405 J-33.075
X91.123 Y-49.216 I-42.09 J-40.252
G3 X92.516 Y-50.643 I16.801 J15
X94.697 Y-52.184 I6.628 J7.067
G2 X96.944 Y-53.626 I-6.558 J-12.693
X101.216 Y-57.245 I-44.593 J-56.977
X104.857 Y-61.499 I-15.606 J-17.041
X107.646 Y-68.314 I-15.591 J-10.358
X107.922 Y-75.673 I-23.735 J-4.575
X107.874 Y-75.998 I-5.259 J0.61
G3 X107.823 Y-76.323 I7.12 J-1.278
X108.833 Y-77.476 I1.01 J-0.134
G1 X133.66
G3 X134.876 Y-76.26 I0 J1.217
G1 Y-18.24
G3 X133.66 Y-17.024 I-1.217 J0
G1 X18.24
G3 X17.024 Y-18.24 I0 J-1.217
G1 Y-76.26
G3 X18.24 Y-77.476 I1.217 J0
G1 X39.22
G3 X39.524 Y-76.562 I0 J0.508
G2 X31.507 Y-68.405 I22.625 J30.255
X27.231 Y-58.49 I20.284 J14.628
X28.566 Y-55.514 I2.791 J0.536
G3 X30.287 Y-52.743 I-1.819 J3.05
G2 X32.931 Y-44.907 I16.861 J-1.325
X39.918 Y-38.399 I16.319 J-10.515
X45.785 Y-36.375 I8.855 J-16.155
X51.955 Y-35.712 I8.993 J-54.704
X58.853 Y-36.317 I1.278 J-25.061
X65.349 Y-38.714 I-6.09 J-26.503
G3 X67.631 Y-39.542 I4.223 J8.089
G2 X73.321 Y-40.948 I-22.294 J-102.412
X78.692 Y-43.295 I-5.542 J-20.003
X89.758 Y-52.702 I-25.393 J-41.085
G3 X91.635 Y-54.217 I5.236 J4.562
G2 X93.69 Y-55.48 I-12.763 J-23.092
X99.037 Y-59.79 I-23.512 J-34.636
X103.096 Y-65.33 I-13.381 J-14.061
X104.769 Y-72.548 I-14.809 J-7.236
X103.371 Y-79.824 I-19.512 J-0.021
G3 X104.102 Y-80.905 I0.732 J-0.293
G1 X137.089
G3 X138.305 Y-79.689 I0 J1.217
G1 Y-14.811
G3 X137.089 Y-13.595 I-1.217 J0
G1 X14.811
G3 X13.595 Y-14.811 I0 J-1.217
G1 Y-79.689
G3 X14.811 Y-80.905 I1.217 J0
G1 X47.999
G3 X48.598 Y-79.866 I0 J0.692
G1 X48.402 Y-79.528
G2 X48.261 Y-79.279 I13.349 J7.733
G3 X48.002 Y-78.988 I-0.784 J-0.435
G2 X45.961 Y-77.339 I14.194 J19.653
G3 X43.989 Y-75.608 I-65.189 J-72.293
X42.342 Y-74.474 I-6.25 J-7.318
G2 X40.695 Y-73.341 I5.199 J9.319
X33.325 Y-64.866 I22.837 J27.303
X30.235 Y-54.068 I17.324 J10.798
X30.287 Y-52.743 I16.913 J0
X32.408 Y-50.231 I2.808 J-0.221
G3 X34.938 Y-48.134 I-0.931 J3.699
G2 X35.664 Y-46.763 I13.095 J-6.058
X40.51 Y-41.988 I11.698 J-7.026
X46.884 Y-39.608 I10.177 J-17.526
X55.637 Y-39.248 I5.584 J-29.226
X63.993 Y-41.878 I-2.37 J-22.123
G3 X66.646 Y-42.839 I4.399 J7.995
G2 X71.92 Y-44.062 I-14.704 J-75.426
X76.889 Y-46.212 I-4.861 J-18.054
X82.035 Y-49.85 I-26.795 J-43.352
X86.56 Y-54.238 I-21.33 J-26.52
G3 X90.356 Y-57.58 I13.674 J11.706
G2 X94.556 Y-60.4 I-131.356 J-200.126
X101.205 Y-71.345 I-8.836 J-12.861
X96.859 Y-83.392 I-14.049 J-1.738
G3 X97.233 Y-84.334 I0.374 J-0.397
G1 X140.518
G3 X141.734 Y-83.118 I0 J1.217
G1 Y-11.382
G3 X140.518 Y-10.166 I-1.217 J0
G1 X11.382
G3 X10.166 Y-11.382 I0 J-1.217
G1 Y-83.118
G3 X11.382 Y-84.334 I1.217 J0
G1 X55.374
G3 X55.909 Y-83.322 I0 J0.647
X55.623 Y-82.923 I-8.354 J-5.691
G2 X55.334 Y-82.525 I10.722 J8.095
G3 X55.156 Y-82.336 I-0.735 J-0.514
G2 X52.946 Y-80.138 I8.57 J10.822
X51.22 Y-77.544 I13.917 J11.134
G3 X50.077 Y-76.256 I-3.369 J-1.839
G2 X48.112 Y-74.668 I11.998 J16.855
G3 X46.22 Y-72.996 I-50.186 J-54.878
X44.557 Y-71.853 I-6.268 J-7.34
G2 X42.895 Y-70.711 I5.199 J9.346
X34.857 Y-60.072 I18.987 J22.699
X34.938 Y-48.134 I13.176 J5.88
X37.957 Y-46.448 I2.671 J-1.235
G3 X41.301 Y-45.566 I0.557 J4.669
G2 X42.409 Y-44.858 I5.861 J-7.963
X47.03 Y-43.138 I8.202 J-14.963
X51.928 Y-42.578 I5.301 J-24.692
X55.397 Y-42.656 I0.724 J-45.49
X58.793 Y-43.36 I-0.728 J-12.046
X60.722 Y-44.101 I-20.085 J-55.226
X62.574 Y-45.016 I-5.144 J-12.732
G3 X65.498 Y-46.114 I4.556 J7.695
G2 X70.104 Y-47.128 I-12.99 J-69.978
X74.511 Y-48.806 I-5.119 J-20.062
X76.438 Y-50.16 I-4.047 J-7.81
G3 X78.358 Y-51.526 I6.256 J6.761
G2 X81.844 Y-54.319 I-5.713 J-10.705
G3 X84.781 Y-57.684 I236.501 J203.416
X86.039 Y-58.856 I6.695 J5.928
G2 X86.329 Y-59.088 I-5.21 J-6.803
G3 X87.882 Y-60.133 I5.741 J6.856
G2 X94.52 Y-64.864 I-14.531 J-27.411
X97.93 Y-72.268 I-7.346 J-7.871
X96.793 Y-77.811 I-11.619 J-0.504
X93.102 Y-82.1 I-9.828 J4.724
X91.939 Y-82.712 I-3.276 J4.812
G1 X90.661 Y-83.21
G3 X89.853 Y-83.772 I0.765 J-1.964
G2 X88.085 Y-85.498 I-13.302 J11.855
X86.05 Y-86.901 I-7.957 J9.369
G1 X86.021 Y-86.915
X85.992 Y-86.93
G3 X86.203 Y-87.764 I0.211 J-0.39
G1 X143.971
G3 X145.164 Y-86.571 I0 J1.192
G1 Y-7.929
G3 X143.971 Y-6.736 I-1.192 J0
G1 X7.929
G3 X6.736 Y-7.929 I0 J-1.192
G1 Y-86.571
G3 X7.929 Y-87.764 I1.192 J0
G1 X64.256
G3 X64.486 Y-86.906 I0 J0.46
G2 X62.246 Y-85.4 I9.903 J17.151
X60.297 Y-83.532 I7.951 J10.244
X59.231 Y-82.137 I13.561 J11.475
G1 X58.112 Y-80.513
G3 X57.33 Y-79.683 I-3.098 J-2.135
G2 X55.561 Y-77.923 I6.421 J8.221
X54.195 Y-75.836 I11.09 J8.75
G3 X52.125 Y-73.504 I-5.91 J-3.161
G2 X51.1 Y-72.667 I5.09 J7.281
X50.177 Y-71.719 I11.586 J12.21
G3 X48.935 Y-70.578 I-6.646 J-5.983
X47.009 Y-69.341 I-8.87 J-11.691
G2 X45.113 Y-68.058 I5.327 J9.918
X39.841 Y-62.391 I19.929 J23.825
X37.161 Y-55.129 I11.734 J8.455
X38.264 Y-49.216 I11.362 J0.94
X41.301 Y-45.566 I8.898 J-4.313
X44.585 Y-45.625 I1.603 J-2.178
G3 X47.797 Y-46.31 I2.297 J2.894
G2 X49.134 Y-46.012 I5.508 J-21.529
X51.769 Y-45.714 I3.269 J-17.109
X54.42 Y-45.782 I0.78 J-21.421
X57.703 Y-46.441 I-1.321 J-15.079
X60.776 Y-47.77 I-5.147 J-16.122
G3 X65.34 Y-49.424 I7.426 J13.363
G2 X69.464 Y-50.306 I-17.742 J-93.087
X73.36 Y-51.922 I-3.047 J-12.85
X75.831 Y-53.563 I-23.883 J-38.641
X78.207 Y-55.337 I-38.223 J-53.665
X80.418 Y-57.534 I-8.134 J-10.396
G3 X82.394 Y-59.944 I72.593 J57.536
X83.954 Y-61.396 I6.956 J5.905
G2 X84.172 Y-61.566 I-2.779 J-3.789
X84.382 Y-61.744 I-9.525 J-11.506
G3 X86.238 Y-62.979 I5.948 J6.92
G2 X88.305 Y-64.311 I-5.138 J-10.242
G3 X90.339 Y-65.694 I9.321 J11.527
G2 X94.605 Y-71.472 I-4.321 J-7.655
X92.567 Y-78.359 I-7.279 J-1.591
X91.096 Y-79.424 I-4.177 J4.222
X89.439 Y-80.163 I-7.673 J14.984
G3 X87.423 Y-81.563 I1.831 J-4.786
G2 X86.086 Y-82.971 I-19.139 J16.846
X84.525 Y-84.127 I-5.034 J5.163
X80.114 Y-85.63 I-6.47 J11.769
X75.477 Y-86.077 I-6.181 J39.834
X69.464 Y-85.58 I-0.958 J25.023
X64.089 Y-82.841 I2.299 J11.156
X62.327 Y-80.835 I8.129 J8.916
X60.808 Y-78.639 I242.311 J169.28
G3 X59.362 Y-77.104 I-5.642 J-3.866
G2 X57.791 Y-75.444 I4.614 J5.939
X56.677 Y-73.449 I9.796 J6.778
G3 X54.638 Y-71.211 I-4.33 J-1.898
G2 X53.513 Y-70.419 I3.087 J5.573
X52.545 Y-69.442 I6.684 J7.589
G3 X51.006 Y-68.027 I-6.905 J-5.966
X47.989 Y-66.078 I-19.158 J-26.351
G2 X45.204 Y-63.808 I5.399 J9.467
X40.952 Y-57.355 I20.989 J18.459
X41.794 Y-49.673 I6.642 J3.159
X45.131 Y-47.175 I6.255 J-4.877
X47.797 Y-46.31 I8.174 J-20.665
X51.037 Y-47.609 I0.733 J-2.863
G3 X54.042 Y-49.383 I3.208 J2.002
G1 X54.104 Y-49.387
X54.957 Y-49.462
X55.051 Y-49.473
X55.143 Y-49.488
X55.395 Y-49.536
X55.496 Y-49.559
X56.268 Y-49.752
X56.359 Y-49.777
X56.448 Y-49.808
X57.441 Y-50.168
X57.714 Y-50.257
X57.821 Y-50.284
X57.909 Y-50.309
X57.996 Y-50.339
X58.67 Y-50.585
X58.811 Y-50.644
X58.982 Y-50.723
X59.083 Y-50.774
X59.181 Y-50.831
X59.685 Y-51.145
X59.76 Y-51.194
X59.938 Y-51.317
X59.993 Y-51.358
X60.327 Y-51.608
X60.381 Y-51.65
X60.548 Y-51.785
X60.636 Y-51.861
X60.718 Y-51.942
X60.842 Y-52.071
X60.944 Y-52.16
X61.353 Y-52.364
X61.854 Y-52.446
X63.156 Y-52.568
X63.231 Y-52.576
X63.914 Y-52.668
X64.003 Y-52.683
X64.685 Y-52.809
X64.785 Y-52.831
X65.467 Y-52.997
X65.521 Y-53.011
X66.858 Y-53.38
X67.466 Y-53.528
X68.102 Y-53.647
X68.211 Y-53.672
X68.894 Y-53.844
X69.047 Y-53.89
X69.729 Y-54.126
X69.875 Y-54.184
X70.127 Y-54.297
X70.261 Y-54.363
X70.673 Y-54.588
X71.337 Y-54.932
X71.457 Y-55.001
X71.723 Y-55.165
X71.839 Y-55.243
X72.938 Y-56.044
X73.024 Y-56.111
X73.788 Y-56.741
X73.83 Y-56.776
X74.186 Y-57.088
X74.447 Y-57.259
X75.109 Y-57.613
X75.167 Y-57.645
X75.508 Y-57.843
G2 X75.718 Y-57.985 I-0.923 J-1.589
G1 X75.977 Y-58.188
X76.046 Y-58.245
X76.113 Y-58.305
X76.254 Y-58.44
X76.324 Y-58.511
X76.607 Y-58.811
X76.68 Y-58.895
X76.749 Y-58.982
X76.847 Y-59.117
X76.908 Y-59.204
X76.957 Y-59.28
X77.572 Y-59.883
X78.566 Y-60.806
X78.64 Y-60.88
X78.711 Y-60.957
X79.382 Y-61.742
X79.74 Y-62.145
G2 X79.893 Y-62.344 I-1.375 J-1.219
G1 X80.028 Y-62.545
X80.356 Y-62.977
X80.683 Y-63.319
X81.878 Y-64.15
X81.953 Y-64.206
X82.026 Y-64.265
X82.607 Y-64.764
X82.653 Y-64.805
X83.294 Y-65.395
X83.368 Y-65.441
X83.58 Y-65.559
X84.163 Y-65.803
X84.274 Y-65.853
X84.686 Y-66.058
X84.737 Y-66.085
X85.007 Y-66.229
X85.09 Y-66.277
X85.17 Y-66.328
X85.961 Y-66.865
X86.062 Y-66.939
X86.349 Y-67.163
X86.418 Y-67.221
X86.485 Y-67.281
X86.812 Y-67.593
X86.845 Y-67.619
X86.925 Y-67.685
X87.357 Y-68.064
X87.669 Y-68.308
X87.926 Y-68.468
X87.98 Y-68.503
X88.132 Y-68.605
X88.36 Y-68.717
X88.453 Y-68.766
X88.568 Y-68.831
X88.705 Y-68.917
X88.847 Y-69.014
X88.935 Y-69.078
X89.019 Y-69.148
X89.445 Y-69.522
X89.559 Y-69.632
X89.66 Y-69.737
X89.755 Y-69.844
X89.841 Y-69.949
X89.908 Y-70.036
X89.97 Y-70.127
X90.393 Y-70.793
X90.538 Y-71.012
X90.602 Y-71.115
X90.659 Y-71.222
X90.732 Y-71.371
X90.77 Y-71.455
X90.804 Y-71.541
X90.86 Y-71.69
X90.889 Y-71.775
X90.914 Y-71.862
X90.953 Y-72.011
X90.974 Y-72.104
X90.991 Y-72.197
X91.017 Y-72.368
X91.03 Y-72.467
X91.037 Y-72.567
X91.044 Y-72.738
G2 X91.035 Y-73.02 I-1.836 J-0.08
G1 X91.002 Y-73.313
X91.007 Y-73.434
G2 X90.996 Y-73.711 I-1.836 J-0.065
G1 X90.956 Y-74.052
G2 X90.876 Y-74.415 I-1.825 J0.212
G1 X90.794 Y-74.663
G2 X90.664 Y-74.964 I-1.745 J0.575
G1 X90.53 Y-75.212
G2 X90.364 Y-75.465 I-1.615 J0.876
G1 X90.219 Y-75.651
X90.143 Y-75.742
X90.062 Y-75.828
X89.928 Y-75.961
X89.802 Y-76.074
X89.668 Y-76.185
X89.535 Y-76.284
X89.267 Y-76.467
G2 X89.019 Y-76.608 I-1.034 J1.519
G1 X88.862 Y-76.683
X88.763 Y-76.726
X88.663 Y-76.764
X88.496 Y-76.82
X88.274 Y-76.915
X88.198 Y-76.945
X87.857 Y-77.074
G2 X87.511 Y-77.167 I-0.648 J1.719
G1 X87.064 Y-77.242
X86.877 Y-77.314
X86.227 Y-77.592
X86.102 Y-77.641
X85.83 Y-77.734
X85.806 Y-77.786
X85.745 Y-77.905
X85.68 Y-78.023
X85.609 Y-78.14
X85.321 Y-78.579
X85.122 Y-78.899
X85.032 Y-79.031
X84.928 Y-79.17
X84.82 Y-79.302
X84.442 Y-79.72
X84.368 Y-79.797
X84.29 Y-79.87
X83.645 Y-80.435
X83.572 Y-80.496
X83.495 Y-80.553
X83.153 Y-80.796
X83.066 Y-80.853
X82.976 Y-80.906
X82.806 Y-81
X82.695 Y-81.056
X82.581 Y-81.104
X81.387 Y-81.564
X81.308 Y-81.593
X80.785 Y-81.767
X80.688 Y-81.797
X80.588 Y-81.821
X79.746 Y-82.001
X79.711 Y-82.008
X79.029 Y-82.141
X78.927 Y-82.157
X78.824 Y-82.168
X78.141 Y-82.222
X78.106 Y-82.225
X77.465 Y-82.263
X76.824 Y-82.33
X76.795 Y-82.333
X75.43 Y-82.454
X75.338 Y-82.46
X74.656 Y-82.486
X74.532 Y-82.487
X73.849 Y-82.467
X73.726 Y-82.459
X73.044 Y-82.393
X72.963 Y-82.383
X72.281 Y-82.287
X72.195 Y-82.273
X71.555 Y-82.151
X70.915 Y-82.06
X70.824 Y-82.045
X70.142 Y-81.913
X70.073 Y-81.898
X69.22 Y-81.698
X69.133 Y-81.676
X69.047 Y-81.649
X68.876 Y-81.591
X68.779 Y-81.555
X68.685 Y-81.514
X68.344 Y-81.353
X68.208 Y-81.282
X67.521 Y-80.886
X67.448 Y-80.841
X67.376 Y-80.792
X66.697 Y-80.31
X66.608 Y-80.243
X66.524 Y-80.17
X66.305 Y-79.97
X66.187 Y-79.853
X65.724 Y-79.347
X65.64 Y-79.249
X65.534 Y-79.116
X65.027 Y-78.549
X64.931 Y-78.432
X64.359 Y-77.675
X64.276 Y-77.555
X64.203 Y-77.441
X63.863 Y-76.989
X63.831 Y-76.944
X63.666 Y-76.71
X63.611 Y-76.627
X63.56 Y-76.542
X63.345 Y-76.153
X63.017 Y-75.651
X62.835 Y-75.438
X62.607 Y-75.276
X62.51 Y-75.203
X61.772 Y-74.605
X61.495 Y-74.395
G2 X61.302 Y-74.226 I1.109 J1.465
G1 X61.142 Y-74.066
X61.056 Y-73.973
X60.728 Y-73.594
X60.653 Y-73.501
X60.584 Y-73.403
X60.415 Y-73.148
X60.359 Y-73.057
X60.161 Y-72.716
X60.107 Y-72.615
X59.873 Y-72.146
X59.822 Y-72.035
X59.778 Y-71.92
X59.706 Y-71.706
X59.685 Y-71.641
X59.48 Y-70.959
X59.457 Y-70.873
X59.309 Y-70.279
X59.305 Y-70.267
X58.935 Y-69.872
X58.295 Y-69.233
X58.103 Y-69.053
X57.94 Y-68.949
X57.692 Y-68.807
X57.442 Y-68.677
X56.841 Y-68.435
X56.791 Y-68.415
X56.463 Y-68.272
G2 X56.198 Y-68.129 I0.735 J1.684
G1 X56.034 Y-68.022
G2 X55.822 Y-67.861 I1.001 J1.541
G1 X55.631 Y-67.694
X55.557 Y-67.625
X55.487 Y-67.553
X55.188 Y-67.225
X55.117 Y-67.142
X55.051 Y-67.056
X54.816 Y-66.728
G2 X54.651 Y-66.447 I1.494 J1.07
G1 X54.435 Y-65.993
X54.338 Y-65.937
X54.058 Y-65.814
X53.995 Y-65.785
X53.654 Y-65.62
X53.564 Y-65.573
X53.476 Y-65.521
X53.135 Y-65.306
G2 X52.921 Y-65.149 I0.98 J1.555
G1 X52.239 Y-64.566
X52.169 Y-64.503
X51.994 Y-64.338
X51.668 Y-64.093
X51.094 Y-63.687
X50.886 Y-63.573
X50.159 Y-63.222
G2 X49.859 Y-63.039 I0.8 J1.654
G1 X49.602 Y-62.847
X49.524 Y-62.785
X48.123 Y-61.614
G2 X47.922 Y-61.418 I1.179 J1.409
G1 X47.291 Y-60.7
X46.725 Y-60.088
X46.621 Y-59.966
X46.093 Y-59.284
X46.073 Y-59.258
X45.819 Y-58.918
X45.763 Y-58.838
X45.535 Y-58.497
X45.503 Y-58.447
X45.185 Y-57.935
X45.141 Y-57.862
X45.101 Y-57.786
X44.986 Y-57.554
X44.682 Y-57.017
X44.631 Y-56.92
X44.548 Y-56.749
X44.507 Y-56.66
X44.472 Y-56.569
X44.41 Y-56.399
X44.36 Y-56.239
X44.149 Y-55.436
X44.129 Y-55.353
X44.113 Y-55.268
X44.077 Y-55.049
G2 X44.053 Y-54.744 I1.813 J0.299
G1 Y-54.536
X44.032 Y-54.428
G2 X43.996 Y-54.065 I1.802 J0.36
G1 X43.997 Y-53.724
G2 X44.05 Y-53.288 I1.837 J-0.003
G1 X44.142 Y-52.914
G2 X44.252 Y-52.596 I1.784 J-0.439
G1 X44.325 Y-52.434
X44.372 Y-52.338
X44.424 Y-52.245
X44.522 Y-52.083
X44.582 Y-51.989
X44.648 Y-51.899
X44.774 Y-51.737
X44.85 Y-51.646
X44.93 Y-51.561
X45.094 Y-51.399
X45.21 Y-51.293
X45.432 Y-51.108
G2 X45.725 Y-50.908 I1.177 J-1.411
G1 X46.533 Y-50.466
X46.682 Y-50.392
X46.808 Y-50.338
X46.922 Y-50.293
X47.354 Y-50.138
X47.449 Y-50.107
X47.545 Y-50.081
X47.866 Y-50.004
X48.699 Y-49.784
X48.823 Y-49.756
X49.814 Y-49.567
X49.922 Y-49.55
X50.031 Y-49.539
X50.575 Y-49.501
X50.653 Y-49.497
X51.335 Y-49.479
X51.385 Y-49.478
X52.038
X52.656 Y-49.458
X53.645 Y-49.389
X53.729 Y-49.385
X53.9 Y-49.381
X54.042 Y-49.383
X54.113 Z-3.992
X54.183 Y-49.375 Z-3.984
X54.249 Y-49.36 Z-3.961
X54.312 Y-49.338 Z-3.937
X54.367 Y-49.313 Z-3.899
X54.419 Y-49.283 Z-3.861
X54.499 Y-49.223 Z-3.761
X54.552 Y-49.169 Z-3.641
X54.582 Y-49.133 Z-3.506
X54.591 Y-49.12 Z-3.365
Z5
X53.956 Y-86.305
Z-3.365
G19 G2 Y-86.94 Z-4 J-0.635 K0
G1 Y-90.412
G17 G3 X54.591 Y-91.047 I0.635 J0
G1 X147.23
G3 X148.447 Y-89.83 I0 J1.217
G1 Y-4.67
G3 X147.23 Y-3.453 I-1.217 J0
G1 X40.422
X4.67
G3 X3.453 Y-4.67 I0 J-1.217
G1 Y-89.83
G3 X4.67 Y-91.047 I1.217 J0
G1 X54.591
G2 X57.178 Y-92.771 I0 J-2.802
G3 X59.764 Y-94.495 I2.586 J1.078
G1 X151.895
Y-0.005
X53.944
X0.005
Y-94.495
X59.764
X59.834 Y-94.491 Z-3.992
X59.904 Y-94.48 Z-3.984
X59.968 Y-94.461 Z-3.961
X60.031 Y-94.436 Z-3.937
X60.084 Y-94.408 Z-3.899
X60.134 Y-94.376 Z-3.861
X60.211 Y-94.311 Z-3.761
X60.261 Y-94.254 Z-3.641
X60.289 Y-94.217 Z-3.506
X60.298 Y-94.203 Z-3.365
Z5
X26.017 Y-72.083
Z0.835
X26.009 Y-72.069 Z0.696 F1500
X25.988 Y-72.03 Z0.565
X25.952 Y-71.967 Z0.446
X25.902 Y-71.884 Z0.346
X25.838 Y-71.787 Z0.27
X25.762 Y-71.681 Z0.22
X25.677 Y-71.573 Z0.2
G3 X21.021 Y-75.409 Z-0.131 I-2.328 J-1.918
X25.677 Y-71.573 Z-0.462 I2.328 J1.918
X21.021 Y-75.409 Z-0.793 I-2.328 J-1.918
X25.677 Y-71.573 Z-1.124 I2.328 J1.918
X21.021 Y-75.409 Z-1.455 I-2.328 J-1.918
X25.677 Y-71.573 Z-1.785 I2.328 J1.918
X21.021 Y-75.409 Z-2.116 I-2.328 J-1.918
X25.677 Y-71.573 Z-2.447 I2.328 J1.918
X21.021 Y-75.409 Z-2.778 I-2.328 J-1.918
X25.677 Y-71.573 Z-3.109 I2.328 J1.918
X21.021 Y-75.409 Z-3.44 I-2.328 J-1.918
X25.677 Y-71.573 Z-3.771 I2.328 J1.918
X21.021 Y-75.409 Z-4.102 I-2.328 J-1.918
X25.677 Y-71.573 Z-4.433 I2.328 J1.918
X21.021 Y-75.409 Z-4.764 I-2.328 J-1.918
X25.677 Y-71.573 Z-5.094 I2.328 J1.918
X21.021 Y-75.409 Z-5.425 I-2.328 J-1.918
X25.677 Y-71.573 Z-5.756 I2.328 J1.918
X21.021 Y-75.409 Z-6.087 I-2.328 J-1.918
X25.677 Y-71.573 Z-6.418 I2.328 J1.918
X21.021 Y-75.409 Z-6.749 I-2.328 J-1.918
X25.677 Y-71.573 Z-7.08 I2.328 J1.918
X21.021 Y-75.409 Z-7.411 I-2.328 J-1.918
X25.677 Y-71.573 Z-7.742 I2.328 J1.918
X20.333 Y-73.491 Z-8 I-2.328 J-1.918
G1 Y-73.499 F2000
G3 X21.001 Y-74.167 I0.668 J0
G1 X21.08
G3 X21.599 Y-73.154 I0 J0.639
G2 X21.228 Y-72.622 I17.989 J12.95
G3 X20.333 Y-72.896 I-0.405 J-0.274
G1 Y-73.491
G2 X19.401 Y-75.51 I-2.652 J0
G3 X20.169 Y-77.596 I0.768 J-0.902
G1 X28.655
G3 X29.022 Y-76.668 I0 J0.537
G2 X24.556 Y-71.574 I23.631 J25.224
X21.428 Y-65.564 I19.494 J13.966
G3 X20.945 Y-64.788 I-1.988 J-0.699
G2 X19.236 Y-62.799 I14.312 J14.026
X17.768 Y-60.627 I20.899 J15.703
G3 X16.904 Y-60.868 I-0.399 J-0.241
G1 Y-76.404
G3 X18.096 Y-77.596 I1.192 J0
G1 X20.169
X20.24 Y-77.592 Z-7.992
X20.309 Y-77.581 Z-7.984
X20.374 Y-77.563 Z-7.961
X20.436 Y-77.538 Z-7.937
X20.489 Y-77.51 Z-7.899
X20.54 Y-77.477 Z-7.861
X20.616 Y-77.412 Z-7.761
X20.667 Y-77.356 Z-7.641
X20.695 Y-77.318 Z-7.506
X20.703 Y-77.304 Z-7.365
Z5
X62.094 Y-28.15
Z0.835
X62.107 Y-28.143 Z0.696 F1500
X62.146 Y-28.122 Z0.565
X62.209 Y-28.086 Z0.446
X62.292 Y-28.036 Z0.346
X62.389 Y-27.972 Z0.27
X62.495 Y-27.896 Z0.22
X62.603 Y-27.811 Z0.2
G3 X58.767 Y-23.155 Z-0.131 I-1.918 J2.328
X62.603 Y-27.811 Z-0.462 I1.918 J-2.328
X58.767 Y-23.155 Z-0.793 I-1.918 J2.328
X62.603 Y-27.811 Z-1.124 I1.918 J-2.328
X58.767 Y-23.155 Z-1.455 I-1.918 J2.328
X62.603 Y-27.811 Z-1.785 I1.918 J-2.328
X58.767 Y-23.155 Z-2.116 I-1.918 J2.328
X62.603 Y-27.811 Z-2.447 I1.918 J-2.328
X58.767 Y-23.155 Z-2.778 I-1.918 J2.328
X62.603 Y-27.811 Z-3.109 I1.918 J-2.328
X58.767 Y-23.155 Z-3.44 I-1.918 J2.328
X62.603 Y-27.811 Z-3.771 I1.918 J-2.328
X58.767 Y-23.155 Z-4.102 I-1.918 J2.328
X62.603 Y-27.811 Z-4.433 I1.918 J-2.328
X58.767 Y-23.155 Z-4.764 I-1.918 J2.328
X62.603 Y-27.811 Z-5.094 I1.918 J-2.328
X58.767 Y-23.155 Z-5.425 I-1.918 J2.328
X62.603 Y-27.811 Z-5.756 I1.918 J-2.328
X58.767 Y-23.155 Z-6.087 I-1.918 J2.328
X62.603 Y-27.811 Z-6.418 I1.918 J-2.328
X58.767 Y-23.155 Z-6.749 I-1.918 J2.328
X62.603 Y-27.811 Z-7.08 I1.918 J-2.328
X58.767 Y-23.155 Z-7.411 I-1.918 J2.328
X62.603 Y-27.811 Z-7.742 I1.918 J-2.328
X60.685 Y-22.467 Z-8 I-1.918 J2.328
G1 X57.301 F2000
G3 X57.254 Y-23.196 I0 J-0.366
G2 X60.528 Y-23.799 I-4.103 J-31.49
G3 X60.883 Y-23.788 I0.157 J0.649
G2 X62.774 Y-23.242 I14.01 J-45.026
G3 X62.674 Y-22.467 I-0.1 J0.381
G1 X60.685
G18 G3 X60.05 Z-7.365 I0 K0.635
G1 Z5
X119.583 Y-38.63
Z0.835
X119.596 Y-38.623 Z0.696 F1500
X119.636 Y-38.601 Z0.565
X119.699 Y-38.566 Z0.446
X119.781 Y-38.515 Z0.346
X119.878 Y-38.452 Z0.27
X119.984 Y-38.376 Z0.22
X120.092 Y-38.291 Z0.2
G17 G3 X116.256 Y-33.635 Z-0.131 I-1.918 J2.328
X120.092 Y-38.291 Z-0.462 I1.918 J-2.328
X116.256 Y-33.635 Z-0.793 I-1.918 J2.328
X120.092 Y-38.291 Z-1.124 I1.918 J-2.328
X116.256 Y-33.635 Z-1.455 I-1.918 J2.328
X120.092 Y-38.291 Z-1.785 I1.918 J-2.328
X116.256 Y-33.635 Z-2.116 I-1.918 J2.328
X120.092 Y-38.291 Z-2.447 I1.918 J-2.328
X116.256 Y-33.635 Z-2.778 I-1.918 J2.328
X120.092 Y-38.291 Z-3.109 I1.918 J-2.328
X116.256 Y-33.635 Z-3.44 I-1.918 J2.328
X120.092 Y-38.291 Z-3.771 I1.918 J-2.328
X116.256 Y-33.635 Z-4.102 I-1.918 J2.328
X120.092 Y-38.291 Z-4.433 I1.918 J-2.328
X116.256 Y-33.635 Z-4.764 I-1.918 J2.328
X120.092 Y-38.291 Z-5.094 I1.918 J-2.328
X116.256 Y-33.635 Z-5.425 I-1.918 J2.328
X120.092 Y-38.291 Z-5.756 I1.918 J-2.328
X116.256 Y-33.635 Z-6.087 I-1.918 J2.328
X120.092 Y-38.291 Z-6.418 I1.918 J-2.328
X116.256 Y-33.635 Z-6.749 I-1.918 J2.328
X120.092 Y-38.291 Z-7.08 I1.918 J-2.328
X116.256 Y-33.635 Z-7.411 I-1.918 J2.328
X120.092 Y-38.291 Z-7.742 I1.918 J-2.328
X118.174 Y-32.947 Z-8 I-1.918 J2.328
G1 X117.877 F2000
G3 X117.374 Y-33.956 I0 J-0.63
G2 X118.05 Y-34.885 I-27.777 J-20.93
G3 X118.953 Y-34.6 I0.406 J0.286
G1 Y-33.614
G3 X118.286 Y-32.947 I-0.668 J0
G1 X118.174
G2 X115.602 Y-31.232 I0 J2.786
G3 X113.031 Y-29.518 I-2.572 J-1.072
G1 X109.761
G3 X109.408 Y-30.457 I0 J-0.536
G2 X116.948 Y-39.361 I-25.639 J-29.352
X121.234 Y-50.213 I-28.346 J-17.469
X121.545 Y-52.593 I-16.792 J-3.405
X121.678 Y-54.989 I-266.865 J-16.003
G3 X122.382 Y-54.971 I0.352 J0.018
G1 Y-30.734
G3 X121.165 Y-29.518 I-1.217 J0
G1 X113.031
G2 X110.48 Y-27.817 I0 J2.763
G3 X107.93 Y-26.117 I-2.55 J-1.063
G1 X97.023
G3 X96.88 Y-26.928 I0 J-0.418
G2 X102.553 Y-29.539 I-12.911 J-35.52
X107.621 Y-33.188 I-13.992 J-24.776
X115.139 Y-43.055 I-22.499 J-24.94
X118.306 Y-55.05 I-26.943 J-13.529
X118.314 Y-55.519 I-7.114 J-0.363
G3 X118.318 Y-55.989 I10.702 J-0.161
X118.962 Y-57.721 I2.873 J0.083
G2 X122.276 Y-62.615 I-25.963 J-21.151
X124.624 Y-68.038 I-26.296 J-14.602
G3 X125.096 Y-68.383 I0.472 J0.151
G1 X125.287
G3 X125.783 Y-67.887 I0 J0.496
G1 Y-27.334
G3 X124.566 Y-26.117 I-1.217 J0
G1 X107.93
G2 X105.561 Y-24.538 I0 J2.566
G3 X103.192 Y-22.958 I-2.369 J-0.987
G1 X79.551
G3 X79.416 Y-23.747 I0 J-0.406
X82.888 Y-24.787 I12.586 J35.701
G2 X86.327 Y-25.931 I-5.597 J-22.565
X88.501 Y-27.042 I-6.488 J-15.381
X90.569 Y-28.336 I-46.144 J-76.024
G3 X91.58 Y-28.739 I1.527 J2.367
G2 X108.2 Y-38.25 I-5.327 J-28.586
X115.16 Y-56.089 I-21.457 J-18.649
G3 X116.507 Y-59.709 I5.997 J0.171
G2 X119.824 Y-64.719 I-23.518 J-19.173
X121.998 Y-70.321 I-23.063 J-12.173
G3 X123.578 Y-71.542 I1.58 J0.411
G1 X127.749
G3 X128.941 Y-70.349 I0 J1.192
G1 Y-24.151
G3 X127.749 Y-22.958 I-1.192 J0
G1 X103.192
G2 X100.817 Y-21.375 I0 J2.573
G3 X98.442 Y-19.792 I-2.375 J-0.989
G1 X20.985
G3 X19.792 Y-20.984 I0 J-1.192
G1 Y-25.55
G3 X20.769 Y-26.016 I0.599 J0
G2 X26.517 Y-22.455 I16.983 J-21.001
X33.015 Y-20.587 I9.473 J-20.709
X43.742 Y-21.495 I3.288 J-24.955
X53.779 Y-25.389 I-22.714 J-73.425
G3 X54.801 Y-25.652 I1.2 J2.548
G2 X57.429 Y-25.923 I-2.135 J-33.671
X60.022 Y-26.429 I-3.645 J-25.559
G3 X61.555 Y-26.38 I0.681 J2.733
G2 X65.943 Y-25.258 I11.988 J-37.733
X70.462 Y-24.942 I3.534 J-18.07
X76.386 Y-26.041 I-1.243 J-23.227
G3 X82.156 Y-27.78 I45.513 J140.503
G2 X85.696 Y-29.168 I-5.072 J-18.153
X88.981 Y-31.081 I-16.467 J-32.057
G3 X90.849 Y-31.824 I2.752 J4.2
G2 X106.173 Y-40.692 I-4.581 J-25.59
X111.995 Y-57.414 I-19.058 J-16.009
G3 X113.081 Y-60.496 I4.549 J-0.13
G2 X116.051 Y-64.39 I-34.408 J-29.322
X118.325 Y-68.728 I-17.712 J-12.049
X119 Y-71.09 I-12.782 J-4.932
X119.423 Y-73.509 I-78.137 J-14.923
G3 X120.828 Y-74.708 I1.405 J0.224
G1 X130.915
G3 X132.108 Y-73.516 I0 J1.192
G1 Y-20.984
G3 X130.915 Y-19.792 I-1.192 J0
G1 X98.442
G2 X96.276 Y-18.348 I0 J2.347
G3 X94.11 Y-16.904 I-2.166 J-0.903
G1 X18.096
G3 X16.904 Y-18.096 I0 J-1.192
G1 Y-33.689
G3 X17.756 Y-33.919 I0.457 J0
G2 X29.57 Y-24.416 I18.261 J-10.607
X44.729 Y-24.73 I7.122 J-22.217
X52.667 Y-28.059 I-32.701 J-89.114
G3 X54.516 Y-28.529 I2.14 J4.543
G2 X59.512 Y-29.279 I-1.606 J-27.717
G3 X62.286 Y-29.18 I1.214 J4.873
G2 X67.797 Y-27.984 I8.592 J-26.305
X73.431 Y-28.213 I2.071 J-18.484
X77.428 Y-29.309 I-5.321 J-27.256
G3 X81.378 Y-30.562 I19.95 J56.009
G2 X84.436 Y-31.769 I-4.282 J-15.327
X87.279 Y-33.419 I-16.293 J-31.344
G3 X90.48 Y-34.693 I4.844 J7.517
G2 X104.223 Y-42.844 I-4.273 J-22.863
X109.072 Y-58.069 I-16.834 J-13.747
G3 X110.392 Y-61.816 I5.01 J-0.341
G2 X114.345 Y-67.277 I-20.94 J-19.321
X116.603 Y-73.629 I-17.773 J-9.896
X116.753 Y-75.025 I-10.111 J-1.789
X116.798 Y-76.429 I-111.014 J-4.244
G3 X117.995 Y-77.596 I1.198 J0.031
G1 X133.804
G3 X134.996 Y-76.404 I0 J1.192
G1 Y-18.096
G3 X133.804 Y-16.904 I-1.192 J0
G1 X94.11
G2 X91.573 Y-15.213 I0 J2.748
G3 X89.037 Y-13.522 I-2.536 J-1.057
G1 X14.739
G3 X13.522 Y-14.739 I0 J-1.217
G1 Y-79.761
G3 X14.739 Y-80.978 I1.217 J0
G1 X37.315
G3 X37.716 Y-80.019 I0 J0.564
G2 X36.388 Y-78.623 I39.827 J39.226
X35.131 Y-77.162 I21.657 J19.907
G3 X34.585 Y-76.68 I-1.675 J-1.349
G2 X32.308 Y-75.148 I18.247 J29.57
X30.242 Y-73.34 I9.323 J12.736
X26.936 Y-69.167 I20.295 J19.475
X24.598 Y-64.384 I18.578 J12.046
G3 X23.403 Y-62.464 I-4.841 J-1.681
G2 X18.568 Y-54.273 I13.887 J13.718
X17.963 Y-44.78 I20.588 J6.078
X18.653 Y-40.685 I292.285 J-47.091
X19.906 Y-36.726 I15.447 J-2.712
X30.02 Y-27.715 I15.605 J-7.334
X43.565 Y-27.902 I6.506 J-19.369
X51.102 Y-31.06 I-31.226 J-85.096
G3 X54.408 Y-31.91 I3.887 J8.256
G2 X56.468 Y-32.119 I-1.763 J-27.667
X58.5 Y-32.512 I-2.712 J-19.482
G3 X63.46 Y-32.354 I2.201 J8.856
G2 X68.07 Y-31.356 I7.606 J-23.979
X72.784 Y-31.529 I1.807 J-15.062
X76.649 Y-32.596 I-5.025 J-25.74
G3 X80.469 Y-33.816 I18.526 J51.414
G2 X83.131 Y-34.887 I-3.512 J-12.571
X85.594 Y-36.358 I-14.885 J-27.726
G3 X89.686 Y-37.986 I5.956 J9.015
G2 X101.661 Y-45.012 I-3.423 J-19.551
X105.659 Y-58.307 I-14.138 J-11.501
G3 X107.556 Y-63.742 I6.806 J-0.673
G2 X110.389 Y-67.111 I-22.231 J-21.566
X112.492 Y-70.978 I-13.753 J-9.985
X113.437 Y-75.362 I-13.474 J-5.199
X113.184 Y-79.84 I-19.855 J-1.122
G3 X114.144 Y-80.978 I0.96 J-0.164
G1 X137.161
G3 X138.378 Y-79.761 I0 J1.217
G1 Y-14.739
G3 X137.161 Y-13.522 I-1.217 J0
G1 X89.037
G2 X86.465 Y-11.807 I0 J2.786
G3 X83.893 Y-10.093 I-2.572 J-1.072
G1 X11.31
G3 X10.093 Y-11.31 I0 J-1.217
G1 Y-83.19
G3 X11.31 Y-84.407 I1.217 J0
G1 X47.697
G3 X48.183 Y-83.389 I0 J0.625
G2 X47.29 Y-82.231 I23.649 J19.144
G3 X46.721 Y-81.806 I-0.971 J-0.708
G2 X42.845 Y-79.923 I6.433 J18.172
X39.578 Y-77.113 I7.909 J12.497
X38.662 Y-76.05 I197.581 J171.264
X37.767 Y-74.969 I29.923 J25.657
G3 X36.432 Y-73.791 I-4.006 J-3.195
G2 X31.246 Y-69.298 I10.847 J17.76
X27.861 Y-63.329 I15.142 J12.53
G3 X25.791 Y-60.002 I-8.601 J-3.046
G2 X21.827 Y-53.192 I11.58 J11.3
X21.349 Y-45.326 I17.312 J5
X22.098 Y-41.023 I169.716 J-27.344
X23.678 Y-36.951 I11.662 J-2.184
X32.109 Y-30.71 I12.07 J-7.49
X42.588 Y-31.196 I4.469 J-16.861
X46.442 Y-32.727 I-26.87 J-73.225
X50.222 Y-34.435 I-41.752 J-97.426
G3 X53.834 Y-35.315 I3.92 J8.24
G2 X56.197 Y-35.552 I-0.605 J-17.942
X58.52 Y-36.052 I-4.285 J-25.557
G3 X63.995 Y-35.794 I2.329 J8.831
G2 X67.999 Y-34.787 I6.765 J-18.434
X72.127 Y-34.894 I1.747 J-12.303
X75.687 Y-35.888 I-4.464 J-22.865
G3 X79.205 Y-37.023 I16.084 J43.839
G2 X82 Y-38.152 I-3.649 J-13.061
X84.518 Y-39.808 I-8.286 J-15.343
G3 X88.016 Y-41.214 I4.141 J5.246
G2 X98.647 Y-46.678 I-1.558 J-16.106
X102.236 Y-58.079 I-11.221 J-9.798
G3 X102.376 Y-60.93 I9.072 J-0.982
G1 X102.426 Y-61.171
G2 X102.498 Y-61.544 I-11.673 J-2.442
G3 X104.332 Y-65.314 I7.51 J1.323
X106.02 Y-67.118 I44.242 J39.695
G2 X107.577 Y-69.037 I-9.691 J-9.451
X109.569 Y-73.252 I-13.1 J-8.772
X110.13 Y-77.881 I-12.983 J-3.92
X109.555 Y-80.707 I-9.734 J0.509
X108.398 Y-83.349 I-21.316 J7.763
G3 X109.042 Y-84.407 I0.645 J-0.333
G1 X140.59
G3 X141.807 Y-83.19 I0 J1.217
G1 Y-11.31
G3 X140.59 Y-10.093 I-1.217 J0
G1 X83.893
G2 X81.322 Y-8.378 I0 J2.786
G3 X78.75 Y-6.664 I-2.572 J-1.072
G1 X7.881
G3 X6.664 Y-7.881 I0 J-1.217
G1 Y-86.619
G3 X7.881 Y-87.836 I1.217 J0
G1 X54.862
G3 X55.223 Y-86.904 I0 J0.536
G2 X53.518 Y-85.267 I29.356 J32.293
X52.089 Y-83.384 I6.497 J6.412
G3 X51.064 Y-81.705 I-29.655 J-16.945
X49.964 Y-80.075 I-48.785 J-31.736
X48.1 Y-78.657 I-3.145 J-2.201
G2 X45.81 Y-77.76 I12.448 J35.165
X43.722 Y-76.461 I3.243 J7.54
X42.017 Y-74.74 I9.453 J11.067
X40.479 Y-72.869 I101.242 J84.802
G3 X38.178 Y-70.839 I-7.102 J-5.73
G2 X34.835 Y-68.101 I8.619 J13.932
X32.227 Y-64.656 I15.169 J14.196
X30.888 Y-61.516 I10.409 J6.295
G3 X28.888 Y-58.213 I-6.607 J-1.744
G2 X25.589 Y-53.486 I8.84 J9.683
X24.514 Y-47.822 I13.424 J5.481
X24.703 Y-46.397 I6.073 J-0.077
G3 X24.901 Y-44.972 I-6.257 J1.598
G2 X28.392 Y-36.77 I12.146 J-0.326
X36.673 Y-33.471 I7.898 J-7.781
X40.051 Y-34.082 I-0.412 J-11.936
X43.22 Y-35.4 I-7.642 J-22.832
G3 X45.154 Y-36.112 I4.097 J8.153
G2 X47.147 Y-36.777 I-3.012 J-12.339
X49.045 Y-37.68 I-10.63 J-24.792
G3 X52.73 Y-38.707 I4.238 J8.081
X54.516 Y-38.771 I2.177 J35.873
G2 X56.296 Y-38.937 I-0.118 J-10.899
X58.449 Y-39.413 I-4.491 J-25.395
G3 X60.605 Y-39.876 I5.785 J21.695
X64.335 Y-39.36 I1.03 J6.291
G2 X68.718 Y-38.164 I5.657 J-12.105
X73.232 Y-38.677 I1.046 J-10.917
X75.382 Y-39.454 I-14.527 J-43.582
G3 X77.562 Y-40.144 I6.393 J16.409
G2 X83.575 Y-43.491 I-3.129 J-12.697
G3 X86.235 Y-44.579 I2.682 J2.762
G2 X88.551 Y-44.726 I-0.119 J-20.22
X90.807 Y-45.265 I-1.228 J-10.125
X97.037 Y-50.273 I-4.233 J-11.645
X98.782 Y-58.074 I-9.974 J-6.326
G3 X98.916 Y-61.138 I9.054 J-1.139
G2 X99.074 Y-61.888 I-73.318 J-15.827
X99.195 Y-62.644 I-8.519 J-1.748
G3 X101.221 Y-66.985 I7.512 J0.863
G2 X103.919 Y-69.868 I-217.2 J-206.013
X106.006 Y-73.219 I-7.727 J-7.138
X106.21 Y-80.241 I-9.848 J-3.8
X102.06 Y-85.908 I-10.572 J3.389
X101.064 Y-86.51 I-4.633 J6.534
X100.012 Y-87.008 I-8.945 J17.547
G3 X100.185 Y-87.836 I0.173 J-0.396
G1 X144.019
G3 X145.236 Y-86.619 I0 J1.217
G1 Y-7.881
G3 X144.019 Y-6.664 I-1.217 J0
G1 X78.75
G2 X76.342 Y-5.058 I0 J2.609
G3 X73.933 Y-3.453 I-2.408 J-1.003
G1 X4.67
G3 X3.453 Y-4.67 I0 J-1.217
G1 Y-89.83
G3 X4.67 Y-91.047 I1.217 J0
G1 X147.23
G3 X148.447 Y-89.83 I0 J1.217
G1 Y-4.67
G3 X147.23 Y-3.453 I-1.217 J0
G1 X73.933
G2 X71.347 Y-1.729 I0 J2.802
G3 X68.761 Y-0.005 I-2.586 J-1.078
G1 X0.005
Y-94.495
X151.895
Y-0.005
X68.761
X68.691 Y-0.009 Z-7.992
X68.621 Y-0.02 Z-7.984
X68.557 Y-0.039 Z-7.961
X68.494 Y-0.064 Z-7.937
X68.441 Y-0.092 Z-7.899
X68.391 Y-0.124 Z-7.861
X68.314 Y-0.189 Z-7.761
X68.264 Y-0.246 Z-7.641
X68.236 Y-0.283 Z-7.506
X68.227 Y-0.297 Z-7.365
Z5
X68.413 Y-36.556
Z1
Z-7.365
Y-36.564 Z-7.464
X68.414 Y-36.588 Z-7.561
X68.415 Y-36.626 Z-7.653
X68.416 Y-36.678 Z-7.738
X68.417 Y-36.742 Z-7.814
X68.419 Y-36.818 Z-7.879
X68.421 Y-36.903 Z-7.931
X68.423 Y-36.995 Z-7.969
X68.425 Y-37.092 Z-7.992
X68.428 Y-37.191 Z-8
X68.506 Y-40.663
G3 X69.155 Y-41.283 I0.635 J0.014
G2 X73.113 Y-42.02 I0.222 J-9.805
G3 X77.256 Y-43.375 I11.138 J27.035
G2 X80.149 Y-44.757 I-1.895 J-7.69
X82.402 Y-47.038 I-6.836 J-9.006
G3 X84.581 Y-47.929 I1.824 J1.35
G2 X88.312 Y-47.9 I1.962 J-12.405
X91.723 Y-49.414 I-0.963 J-6.77
X94.684 Y-52.908 I-8.475 J-10.184
X95.631 Y-57.39 I-6.265 J-3.665
G3 X95.856 Y-62.192 I15.04 J-1.702
G2 X96.155 Y-64.399 I-15.207 J-3.182
G3 X96.803 Y-66.53 I4.822 J0.303
X98.943 Y-69.186 I9.853 J5.745
G2 X101.296 Y-71.656 I-17.278 J-18.822
X103.32 Y-75.641 I-7.712 J-6.424
X102.805 Y-80.081 I-6.139 J-1.537
X100.746 Y-82.763 I-8.473 J4.373
X97.906 Y-84.596 I-6.935 J7.628
X93.783 Y-85.456 I-4.149 J9.586
G3 X89.655 Y-86.289 I0.027 J-10.779
X85.247 Y-88.398 I18.583 J-44.48
G2 X80.576 Y-89.83 I-5.87 J10.819
X73.922 Y-90.354 I-17.195 J175.741
X67.268 Y-89.829 I-1.443 J24.135
X63.826 Y-88.54 I2.814 J12.749
G3 X60.565 Y-86.844 I-43.718 J-80.085
G2 X57.509 Y-84.8 I6.283 J12.7
X55.101 Y-82.023 I8.883 J10.137
X54.684 Y-81.276 I5.214 J3.399
G3 X54.291 Y-80.516 I-10.351 J-4.874
X53.521 Y-79.421 I-5.952 J-3.368
G2 X52.9 Y-78.659 I13.59 J11.701
X52.342 Y-77.85 I7.461 J5.743
G3 X50.048 Y-75.953 I-3.934 J-2.421
X48.059 Y-75.245 I-17.734 J-46.701
G2 X46.178 Y-74.285 I2.21 J6.655
X44.161 Y-72.358 I5.841 J8.132
X42.444 Y-70.159 I204.746 J161.657
G3 X42.118 Y-69.814 I-1.885 J-1.456
G2 X41.766 Y-69.496 I6.952 J8.03
G3 X40.023 Y-68.201 I-6.275 J-6.625
G2 X38.109 Y-66.835 I5.839 J10.204
X36.576 Y-65.053 I5.535 J6.311
G3 X35.291 Y-63.289 I-15.398 J-9.866
G2 X34.163 Y-61.42 I5.79 J4.771
X33.86 Y-60.32 I4.114 J1.726
G3 X33.668 Y-59.194 I-20 J-2.832
X32.131 Y-56.772 I-3.908 J-0.781
G2 X28.978 Y-53.248 I6.945 J9.385
X27.717 Y-48.691 I8.078 J4.689
X27.858 Y-47.001 I8.718 J0.123
G3 X28.098 Y-45.322 I-21.616 J3.949
G2 X28.673 Y-42.063 I23.125 J-2.402
X30.295 Y-39.179 I6.098 J-1.531
X33.908 Y-37.122 I5.455 J-5.38
X38.059 Y-36.872 I2.751 J-11.108
X40.042 Y-37.424 I-0.85 J-6.9
X41.891 Y-38.328 I-11.995 J-26.876
G3 X44.02 Y-39.14 I4.292 J8.052
G2 X45.598 Y-39.649 I-2.722 J-11.151
X47.118 Y-40.313 I-11.057 J-27.363
G3 X53.692 Y-41.955 I7.432 J15.779
G2 X57.548 Y-42.456 I-1.196 J-24.294
G1 X61.624 Y-43.321
G3 X64.61 Y-42.863 I0.887 J4.179
G2 X66.623 Y-41.839 I12.931 J-22.931
X68.815 Y-41.297 I2.544 J-5.582
X69.155 Y-41.283 I0.562 J-9.791
X72.806 Y-43.82 I0.085 J-3.772
G3 X76.09 Y-46.816 I4.398 J1.523
G1 X76.39 Y-46.89
X76.444 Y-46.904
X76.786 Y-46.999
X76.897 Y-47.034
X77.005 Y-47.076
X77.347 Y-47.22
X77.415 Y-47.251
X77.746 Y-47.407
X77.828 Y-47.448
X77.908 Y-47.493
X78.073 Y-47.592
X78.174 Y-47.657
X78.271 Y-47.728
X78.797 Y-48.146
G2 X79.032 Y-48.368 I-1.141 J-1.44
G1 X79.378 Y-48.76
X79.479 Y-48.884
X79.732 Y-49.225
G2 X79.93 Y-49.564 I-1.477 J-1.093
G1 X80.083 Y-49.905
G2 X80.211 Y-50.306 I-1.676 J-0.754
G1 X80.344 Y-50.988
X80.361 Y-51.09
X80.373 Y-51.192
X80.374 Y-51.214
X80.93 Y-51.276
X81.016 Y-51.288
X81.101 Y-51.304
X82.388 Y-51.572
X82.559 Y-51.592
X82.741 Y-51.596
X83.511 Y-51.554
X83.92 Y-51.513
X84.551 Y-51.425
X85.557 Y-51.266
G2 X85.814 Y-51.244 I0.287 J-1.815
G1 X86.155 Y-51.238
X86.21
X86.892 Y-51.247
G2 X87.144 Y-51.268 I-0.024 J-1.837
G1 X87.314 Y-51.293
X87.469 Y-51.324
X87.64 Y-51.365
X87.739 Y-51.392
X87.837 Y-51.424
X88.483 Y-51.659
X88.58 Y-51.697
X88.674 Y-51.741
X88.863 Y-51.835
G2 X89.079 Y-51.962 I-0.819 J-1.645
G1 X89.268 Y-52.091
X89.339 Y-52.142
X89.408 Y-52.196
X89.96 Y-52.656
X90.015 Y-52.704
X90.146 Y-52.821
X90.214 Y-52.887
X90.778 Y-53.451
X90.866 Y-53.545
X90.984 Y-53.681
X91.052 Y-53.764
X91.116 Y-53.851
X91.301 Y-54.124
X91.355 Y-54.207
X91.404 Y-54.293
X91.549 Y-54.566
X91.581 Y-54.627
X91.932 Y-55.348
G2 X92.031 Y-55.597 I-1.652 J-0.804
G1 X92.082 Y-55.758
X92.109 Y-55.852
X92.131 Y-55.948
X92.164 Y-56.108
G2 X92.198 Y-56.38 I-1.801 J-0.365
G1 X92.215 Y-56.702
G2 X92.203 Y-57.025 I-1.835 J-0.094
G1 X92.103 Y-57.819
X92.086 Y-57.924
X91.981 Y-58.494
X91.961 Y-58.587
X91.936 Y-58.68
X91.665 Y-59.597
X91.646 Y-59.707
X91.643 Y-59.793
X91.658 Y-59.931
X91.759 Y-60.459
X91.916 Y-61.006
X92.139 Y-61.634
X92.169 Y-61.725
X92.372 Y-62.406
X92.409 Y-62.555
X92.552 Y-63.237
X92.568 Y-63.325
X92.58 Y-63.414
X92.654 Y-64.096
X92.658 Y-64.126
X92.72 Y-64.808
X92.727 Y-64.919
X92.747 Y-65.55
X92.788 Y-66.016
X92.927 Y-66.672
X93.044 Y-66.919
X93.077 Y-66.993
X93.343 Y-67.626
X93.638 Y-68.228
X93.719 Y-68.38
X93.918 Y-68.67
X94.45 Y-69.364
X94.929 Y-69.951
X94.982 Y-70.019
X95.139 Y-70.231
X95.427 Y-70.581
X95.685 Y-70.855
X95.997 Y-71.158
X96.047 Y-71.209
X96.386 Y-71.564
X96.424 Y-71.605
X97.304 Y-72.586
X97.941 Y-73.242
G2 X98.119 Y-73.456 I-1.319 J-1.279
G1 X98.304 Y-73.716
X98.515 Y-73.972
X98.699 Y-74.192
G2 X98.855 Y-74.407 I-1.406 J-1.182
G1 X98.961 Y-74.577
X99.015 Y-74.672
X99.064 Y-74.769
X99.154 Y-74.877
X99.241 Y-74.99
X99.309 Y-75.084
X99.37 Y-75.182
X99.504 Y-75.41
G2 X99.633 Y-75.678 I-1.585 J-0.93
G1 X99.721 Y-75.906
G2 X99.816 Y-76.247 I-1.714 J-0.661
G1 X99.877 Y-76.588
G2 X99.902 Y-77.004 I-1.809 J-0.32
G1 X99.885 Y-77.345
G2 X99.817 Y-77.752 I-1.835 J0.096
G1 X99.723 Y-78.082
G2 X99.589 Y-78.421 I-1.767 J0.503
G1 X99.407 Y-78.774
X99.388 Y-78.808
X99.018 Y-79.49
G2 X98.797 Y-79.81 I-1.614 J0.877
G1 X98.666 Y-79.962
X98.588 Y-80.048
X98.504 Y-80.129
X98.334 Y-80.282
X98.252 Y-80.352
X98.166 Y-80.417
X98.001 Y-80.534
X97.925 Y-80.585
X97.847 Y-80.632
X97.517 Y-80.82
X97.42 Y-80.871
X97.321 Y-80.917
X97.134 Y-80.995
X97.073 Y-81.02
X96.941 Y-81.07
X96.468 Y-81.275
G2 X96.204 Y-81.366 I-0.73 J1.686
G1 X95.729 Y-81.49
X95.423 Y-81.584
X95.324 Y-81.611
X95.223 Y-81.633
X94.741 Y-81.723
X94.529 Y-81.77
X94.431 Y-81.789
X94.331 Y-81.803
X93.236 Y-81.923
X91.897 Y-82.109
X91.833 Y-82.117
X91.169 Y-82.185
X90.585 Y-82.257
X90.011 Y-82.38
X89.811 Y-82.43
X88.829 Y-82.729
X88.259 Y-82.947
X87.642 Y-83.227
X86.304 Y-83.863
X85.318 Y-84.351
X85.276 Y-84.371
X83.545 Y-85.172
X83.499 Y-85.192
X82.816 Y-85.485
X82.734 Y-85.519
X82.011 Y-85.788
X81.963 Y-85.805
X81.642 Y-85.915
X81.491 Y-85.96
X81.17 Y-86.04
X81.101 Y-86.055
X80.419 Y-86.198
X80.321 Y-86.215
X80.223 Y-86.227
X79.616 Y-86.287
X79.008 Y-86.397
X78.845 Y-86.42
X76.115 Y-86.666
X76.088 Y-86.668
X75.405 Y-86.719
X75.327 Y-86.724
X74.644 Y-86.746
X74.599
X73.234 Y-86.757
X73.193 Y-86.756
X72.511 Y-86.746
X72.426 Y-86.743
X71.744 Y-86.701
X71.712 Y-86.699
X70.397 Y-86.596
X69.98 Y-86.586
X69.891 Y-86.581
X69.333 Y-86.54
X69.262 Y-86.534
X69.091 Y-86.514
X68.996 Y-86.501
X68.901 Y-86.483
X68.048 Y-86.295
X67.945 Y-86.269
X67.844 Y-86.237
X67.162 Y-86.001
G2 X66.897 Y-85.886 I0.6 J1.737
G1 X65.262 Y-85.013
X64.96 Y-84.859
X64.364 Y-84.626
X64.315 Y-84.606
X63.632 Y-84.316
X63.576 Y-84.291
X62.893 Y-83.974
X62.816 Y-83.936
X62.17 Y-83.599
X61.525 Y-83.297
X61.444 Y-83.257
X61.364 Y-83.212
X60.872 Y-82.92
G2 X60.638 Y-82.755 I0.938 J1.58
G1 X59.766 Y-82.032
X59.695 Y-81.97
X59.627 Y-81.905
X59.023 Y-81.289
X58.833 Y-81.11
X58.753 Y-81.031
X58.679 Y-80.947
X58.282 Y-80.468
X58.216 Y-80.385
X58.156 Y-80.298
X58.034 Y-80.111
X57.978 Y-80.019
X57.296 Y-78.825
X57.257 Y-78.753
X57.086 Y-78.421
G2 X56.986 Y-78.189 I1.634 J0.84
G1 X56.913 Y-77.98
X56.886 Y-77.928
X56.847 Y-77.876
X56.587 Y-77.638
X56.511 Y-77.564
X56.209 Y-77.253
X56.131 Y-77.168
X56.056 Y-77.081
X55.997 Y-77.008
X55.471 Y-76.326
X55.393 Y-76.218
X55.312 Y-76.094
X55.241 Y-75.979
X54.928 Y-75.421
X54.863 Y-75.292
X54.512 Y-74.532
X54.417 Y-74.35
X54.324 Y-74.201
X54.151 Y-74.002
X53.965 Y-73.825
X53.57 Y-73.47
X53.506 Y-73.41
X53.162 Y-73.071
X52.649 Y-73.043
G2 X52.375 Y-73.007 I0.101 J1.835
G1 X51.693 Y-72.865
G2 X51.415 Y-72.784 I0.375 J1.799
G1 X50.752 Y-72.532
X49.711 Y-72.163
X49.562 Y-72.103
X49.259 Y-71.965
X49.128 Y-71.899
X48.616 Y-71.615
X48.525 Y-71.56
X48.437 Y-71.501
X48.266 Y-71.378
X48.145 Y-71.283
X47.985 Y-71.146
X47.901 Y-71.07
X47.379 Y-70.566
X47.267 Y-70.448
X47.114 Y-70.271
X47.088 Y-70.24
X46.575 Y-69.622
X45.787 Y-68.828
G2 X45.617 Y-68.63 I1.304 J1.294
G1 X45.49 Y-68.46
G2 X45.347 Y-68.235 I1.474 J1.097
G1 X45.259 Y-68.072
X44.66 Y-67.444
X44.205 Y-67.054
G2 X43.933 Y-66.763 I1.195 J1.396
G1 X43.485 Y-66.168
X43.429 Y-66.11
X43.424 Y-66.105
X43.305 Y-66.029
X43.105 Y-65.909
X42.38 Y-65.549
X42.3 Y-65.507
X42.064 Y-65.375
X41.829 Y-65.258
X41.742 Y-65.212
X41.659 Y-65.162
X41.525 Y-65.076
X41.453 Y-65.028
X41.383 Y-64.976
X40.701 Y-64.443
G2 X40.506 Y-64.267 I1.131 J1.448
G1 X40.118 Y-63.863
G2 X39.888 Y-63.568 I1.326 J1.272
G1 X39.603 Y-63.114
X39.298 Y-62.647
X39.057 Y-62.347
X38.855 Y-62.115
X38.242 Y-61.455
G2 X38.016 Y-61.155 I1.346 J1.251
G1 X37.604 Y-60.473
G2 X37.482 Y-60.233 I1.572 J0.951
G1 X37.408 Y-60.059
G2 X37.31 Y-59.749 I1.694 J0.711
G1 X37.196 Y-59.242
X37.188 Y-59.205
X37.05 Y-58.524
X37.033 Y-58.425
X37.021 Y-58.326
X36.959 Y-57.645
X36.952 Y-57.541
X36.932 Y-56.969
X36.896 Y-56.737
G2 X36.874 Y-56.464 I1.816 J0.282
G1 X36.872 Y-56.123
X36.873 Y-56.065
X36.886 Y-55.573
X36.394 Y-55.384
X36.287 Y-55.338
X36.183 Y-55.287
X35.938 Y-55.154
X35.847 Y-55.102
X35.602 Y-54.951
X35.512 Y-54.891
X35.339 Y-54.77
X34.259 Y-54.055
X34.169 Y-53.991
X34.083 Y-53.922
X33.817 Y-53.696
X33.77 Y-53.654
X33.087 Y-53.031
X33.012 Y-52.958
X32.941 Y-52.881
X32.723 Y-52.631
X32.62 Y-52.501
X32.56 Y-52.418
X32.476 Y-52.292
X32.072 Y-51.623
X32.06 Y-51.604
X31.952 Y-51.42
X31.91 Y-51.345
X31.871 Y-51.267
X31.792 Y-51.096
X31.751 Y-51.003
X31.716 Y-50.908
X31.658 Y-50.737
X31.623 Y-50.62
X31.595 Y-50.501
X31.515 Y-50.094
X31.493 Y-50.024
X31.458 Y-49.898
X31.417 Y-49.727
X31.396 Y-49.631
X31.381 Y-49.534
X31.358 Y-49.364
X31.348 Y-49.258
X31.343 Y-49.151
X31.336 Y-48.64
Y-48.59
X31.344 Y-47.909
G2 X31.368 Y-47.64 I1.837 J-0.023
G1 X31.477 Y-46.958
X31.495 Y-46.865
X31.593 Y-46.406
X31.702 Y-45.696
X31.732 Y-45.155
X31.731 Y-44.524
G2 X31.773 Y-44.133 I1.837 J0.001
G1 X31.804 Y-43.991
X31.846 Y-43.834
X31.89 Y-43.692
X31.927 Y-43.584
X31.993 Y-43.412
X32.109 Y-43.001
G2 X32.214 Y-42.719 I1.768 J-0.499
G1 X32.294 Y-42.548
X32.342 Y-42.453
X32.396 Y-42.361
X32.502 Y-42.19
X32.559 Y-42.104
X32.621 Y-42.021
X32.738 Y-41.873
X32.803 Y-41.795
X32.872 Y-41.721
X33.018 Y-41.572
X33.092 Y-41.501
X33.171 Y-41.434
X33.543 Y-41.133
X33.665 Y-41.042
X33.789 Y-40.958
X33.87 Y-40.906
X33.953 Y-40.859
X34.139 Y-40.759
X34.235 Y-40.711
X34.333 Y-40.669
X34.504 Y-40.601
X34.597 Y-40.567
X34.692 Y-40.538
X34.862 Y-40.491
X34.957 Y-40.468
X35.052 Y-40.45
X35.223 Y-40.422
X35.342 Y-40.406
X35.462 Y-40.399
X35.573 Y-40.395
X35.857 Y-40.341
X35.969 Y-40.323
X36.081 Y-40.312
X36.252 Y-40.3
X36.344 Y-40.297
X36.437
X36.607 Y-40.303
X36.723 Y-40.311
X36.838 Y-40.326
X37.094 Y-40.368
X37.157 Y-40.379
X37.335 Y-40.389
X37.451 Y-40.4
X37.622 Y-40.421
X37.712 Y-40.435
X37.802 Y-40.453
X37.973 Y-40.491
X38.094 Y-40.523
X38.743 Y-40.717
X38.85 Y-40.752
X39.053 Y-40.827
X39.153 Y-40.867
X39.836 Y-41.164
X39.89 Y-41.188
X40.192 Y-41.332
X40.304 Y-41.39
X40.684 Y-41.603
X40.761 Y-41.648
X41.466 Y-42.09
X41.737 Y-42.2
X41.906 Y-42.246
X42.153 Y-42.293
X42.81 Y-42.4
X42.95 Y-42.428
X43.633 Y-42.595
X43.717 Y-42.618
X43.801 Y-42.645
X44.088 Y-42.745
X44.171 Y-42.776
X44.253 Y-42.811
X44.623 Y-42.981
X45.28 Y-43.26
X45.345 Y-43.289
X45.882 Y-43.542
X45.987 Y-43.596
X46.088 Y-43.656
X46.333 Y-43.813
X46.367 Y-43.83
X46.609 Y-43.933
X46.87 Y-44.031
X47.006 Y-44.089
X47.392 Y-44.271
X47.473 Y-44.311
X47.899 Y-44.538
X48.021 Y-44.609
X48.69 Y-45.034
X48.948 Y-45.179
X49.027 Y-45.178
X50.05 Y-45.195
X50.094 Y-45.196
X50.777 Y-45.224
X50.911 Y-45.234
X51.545 Y-45.306
X52.824 Y-45.384
X53.469 Y-45.397
X53.589 Y-45.403
X54.272 Y-45.462
X54.435 Y-45.483
X55.117 Y-45.604
X55.241 Y-45.63
X55.924 Y-45.8
X55.951 Y-45.807
X56.634 Y-45.989
X56.658 Y-45.995
X57.311 Y-46.178
X57.718 Y-46.278
X57.768 Y-46.286
X58.351 Y-46.349
X58.978 Y-46.379
X59.139 Y-46.394
X59.481 Y-46.44
X59.539 Y-46.449
X60.562 Y-46.622
X60.637 Y-46.636
X61.32 Y-46.781
X61.416 Y-46.804
X61.511 Y-46.833
X61.56 Y-46.849
X62.734 Y-47.151
X63.322 Y-47.284
X63.858 Y-47.362
X64.39 Y-47.395
X64.459 Y-47.321
X64.775 Y-47.002
X64.863 Y-46.919
X64.956 Y-46.841
X65.425 Y-46.479
X65.43 Y-46.474
X65.828 Y-46.169
X65.93 Y-46.097
X66.062 Y-46.008
X66.177 Y-45.938
X67.03 Y-45.457
X67.141 Y-45.399
X67.255 Y-45.349
X67.426 Y-45.282
X67.508 Y-45.252
X67.591 Y-45.225
X68.444 Y-44.978
X68.545 Y-44.952
X68.647 Y-44.931
X68.818 Y-44.902
X68.919 Y-44.888
X69.021 Y-44.879
X69.192 Y-44.869
X69.293 Y-44.866
X69.395 Y-44.869
X69.566 Y-44.878
X69.662 Y-44.886
X69.757 Y-44.898
X70.098 Y-44.953
X70.161 Y-44.964
X70.843 Y-45.097
X70.959 Y-45.123
X71.072 Y-45.157
X71.755 Y-45.385
X71.896 Y-45.438
X72.182 Y-45.561
X72.259 Y-45.596
X72.432 Y-45.679
X73.184 Y-45.962
X73.245 Y-45.986
X73.896 Y-46.257
X74.302 Y-46.409
X74.396 Y-46.436
X74.467 Y-46.457
X75.059 Y-46.648
X75.203 Y-46.678
X75.438 Y-46.7
X75.517 Y-46.709
X75.738 Y-46.74
X75.833 Y-46.755
X75.928 Y-46.776
X76.09 Y-46.816
X76.16 Y-46.829 Z-7.992
X76.23 Y-46.834 Z-7.984
X76.297 Y-46.832 Z-7.961
X76.364 Y-46.823 Z-7.937
X76.422 Y-46.808 Z-7.899
X76.479 Y-46.789 Z-7.861
X76.569 Y-46.744 Z-7.761
X76.631 Y-46.701 Z-7.641
X76.667 Y-46.671 Z-7.506
X76.679 Y-46.66 Z-7.365
Z5
X17.048 Y-17.969
Z-3.165 F1500
X17.04 Y-17.982 Z-3.304
X17.018 Y-18.021 Z-3.435
X16.982 Y-18.084 Z-3.554
X16.937 Y-18.17 Z-3.654
X16.886 Y-18.274 Z-3.73
X16.834 Y-18.393 Z-3.78
X16.785 Y-18.522 Z-3.8
G3 X22.466 Y-20.552 Z-4.131 I2.84 J-1.015
X16.785 Y-18.522 Z-4.462 I-2.84 J1.015
X22.466 Y-20.552 Z-4.793 I2.84 J-1.015
X16.785 Y-18.522 Z-5.124 I-2.84 J1.015
X22.466 Y-20.552 Z-5.455 I2.84 J-1.015
X16.785 Y-18.522 Z-5.785 I-2.84 J1.015
X22.466 Y-20.552 Z-6.116 I2.84 J-1.015
X16.785 Y-18.522 Z-6.447 I-2.84 J1.015
X22.466 Y-20.552 Z-6.778 I2.84 J-1.015
X16.785 Y-18.522 Z-7.109 I-2.84 J1.015
X22.466 Y-20.552 Z-7.44 I2.84 J-1.015
X16.785 Y-18.522 Z-7.771 I-2.84 J1.015
X22.466 Y-20.552 Z-8.102 I2.84 J-1.015
X16.785 Y-18.522 Z-8.433 I-2.84 J1.015
X22.466 Y-20.552 Z-8.764 I2.84 J-1.015
X16.785 Y-18.522 Z-9.094 I-2.84 J1.015
X22.466 Y-20.552 Z-9.425 I2.84 J-1.015
X16.785 Y-18.522 Z-9.756 I-2.84 J1.015
X22.466 Y-20.552 Z-10.087 I2.84 J-1.015
X16.785 Y-18.522 Z-10.418 I-2.84 J1.015
X22.466 Y-20.552 Z-10.749 I2.84 J-1.015
X16.785 Y-18.522 Z-11.08 I-2.84 J1.015
X22.466 Y-20.552 Z-11.411 I2.84 J-1.015
X16.785 Y-18.522 Z-11.742 I-2.84 J1.015
X21.172 Y-22.126 Z-12 I2.84 J-1.015
G2 X36.742 Y-19.618 I10.936 J-18.306 F2000
G3 X39.635 Y-20.208 I18.293 J82.285
G2 X42.529 Y-20.798 I-31.24 J-160.528
G3 X44.126 Y-20.223 I0.336 J1.573
G2 X46.224 Y-17.941 I16.353 J-12.93
G3 X45.851 Y-16.99 I-0.373 J0.402
G1 X18.207
G3 X16.99 Y-18.207 I0 J-1.217
G1 Y-24.03
G3 X17.969 Y-24.47 I0.588 J0
G2 X21.172 Y-22.126 I14.14 J-15.962
G1 X21.231 Y-22.087 Z-11.992
X21.285 Y-22.042 Z-11.984
X21.332 Y-21.994 Z-11.961
X21.373 Y-21.941 Z-11.937
X21.405 Y-21.89 Z-11.899
X21.432 Y-21.836 Z-11.861
X21.466 Y-21.741 Z-11.761
X21.481 Y-21.667 Z-11.641
X21.486 Y-21.62 Z-11.506
X21.487 Y-21.604 Z-11.365
Z5
X20.707 Y-82.925
Z-3.165 F1500
X20.715 Y-82.912 Z-3.304
X20.737 Y-82.873 Z-3.435
X20.772 Y-82.809 Z-3.554
X20.816 Y-82.723 Z-3.654
X20.865 Y-82.618 Z-3.73
X20.916 Y-82.498 Z-3.78
X20.963 Y-82.369 Z-3.8
G3 X15.256 Y-80.414 Z-4.131 I-2.854 J0.977
X20.963 Y-82.369 Z-4.462 I2.854 J-0.977
X15.256 Y-80.414 Z-4.793 I-2.854 J0.977
X20.963 Y-82.369 Z-5.124 I2.854 J-0.977
X15.256 Y-80.414 Z-5.455 I-2.854 J0.977
X20.963 Y-82.369 Z-5.785 I2.854 J-0.977
X15.256 Y-80.414 Z-6.116 I-2.854 J0.977
X20.963 Y-82.369 Z-6.447 I2.854 J-0.977
X15.256 Y-80.414 Z-6.778 I-2.854 J0.977
X20.963 Y-82.369 Z-7.109 I2.854 J-0.977
X15.256 Y-80.414 Z-7.44 I-2.854 J0.977
X20.963 Y-82.369 Z-7.771 I2.854 J-0.977
X15.256 Y-80.414 Z-8.102 I-2.854 J0.977
X20.963 Y-82.369 Z-8.433 I2.854 J-0.977
X15.256 Y-80.414 Z-8.764 I-2.854 J0.977
X20.963 Y-82.369 Z-9.094 I2.854 J-0.977
X15.256 Y-80.414 Z-9.425 I-2.854 J0.977
X20.963 Y-82.369 Z-9.756 I2.854 J-0.977
X15.256 Y-80.414 Z-10.087 I-2.854 J0.977
X20.963 Y-82.369 Z-10.418 I2.854 J-0.977
X15.256 Y-80.414 Z-10.749 I-2.854 J0.977
X20.963 Y-82.369 Z-11.08 I2.854 J-0.977
X15.256 Y-80.414 Z-11.411 I-2.854 J0.977
X20.963 Y-82.369 Z-11.742 I2.854 J-0.977
X16.529 Y-78.823 Z-12 I-2.854 J0.977
X16.129 Y-79.07 I143.719 J-233.51 F2000
G2 X14.063 Y-80.111 I-7.025 J11.371
X12.716 Y-80.519 I-3.034 J7.593
X11.332 Y-80.776 I-6.136 J29.105
G3 X10.132 Y-82.185 I0.228 J-1.409
G1 Y-83.151
G3 X11.349 Y-84.368 I1.217 J0
G1 X23.94
G3 X24.238 Y-83.465 I0 J0.501
G2 X21.688 Y-81.103 I9.314 J12.61
X19.677 Y-78.268 I13.8 J11.922
G3 X18.101 Y-77.862 I-0.986 J-0.567
X16.529 Y-78.823 I142.147 J-234.471
G2 X13.333 Y-78.553 I-1.415 J2.299
G3 X10.283 Y-77.562 I-2.675 J-3.047
G2 X9.874 Y-77.591 I-0.861 J9.264
X7.86 Y-77.583 I-0.93 J19.144
G3 X6.703 Y-78.676 I-0.062 J-1.093
G1 Y-86.58
G3 X7.92 Y-87.797 I1.217 J0
G1 X43.681
G3 X44.222 Y-86.782 I0 J0.652
G2 X43.792 Y-86.073 I7.425 J4.989
X43.4 Y-85.344 I68.158 J37.14
G3 X41.631 Y-84.528 I-1.42 J-0.754
G2 X36.21 Y-84.893 I-3.914 J17.668
X30.976 Y-83.437 I1.21 J14.48
X26.942 Y-81.291 I34.612 J69.944
X23.548 Y-78.233 I5.296 J9.291
X22.013 Y-75.524 I11.893 J8.529
X20.933 Y-72.603 I25.947 J11.247
G3 X19.681 Y-72.301 I-0.716 J-0.221
G2 X16.105 Y-75.312 I-17.107 J16.689
X11.863 Y-77.276 I-7.905 J11.509
X10.283 Y-77.562 I-2.441 J8.978
X7.31 Y-75.817 I-0.273 J2.94
G3 X4.994 Y-73.263 I-5.01 J-2.216
G2 X4.295 Y-72.858 I18.32 J32.432
G3 X3.274 Y-73.439 I-0.345 J-0.581
G1 Y-90.009
G3 X4.491 Y-91.226 I1.217 J0
G1 X52.854
G3 X53.124 Y-90.334 I0 J0.487
G2 X50.428 Y-88.521 I236.25 J354.245
X48.023 Y-86.337 I6.471 J9.545
X46.708 Y-84.364 I8.742 J7.249
X45.719 Y-82.21 I19.971 J10.478
G3 X43.861 Y-80.955 I-1.848 J-0.734
X41.141 Y-81.306 I0.055 J-11.152
G2 X38.42 Y-81.657 I-2.72 J10.374
X33.828 Y-80.886 I0 J14.057
X29.6 Y-78.934 I7.648 J22.127
X26.867 Y-76.716 I5.981 J10.161
X24.996 Y-73.734 I7.318 J6.671
G3 X24.512 Y-72.54 I-179.35 J-72.003
G2 X24.113 Y-71.315 I8.111 J3.319
G3 X23.955 Y-70.716 I-18.361 J-4.518
X23.148 Y-69.398 I-2.765 J-0.786
G2 X22.546 Y-68.774 I5.532 J5.946
G3 X21.934 Y-68.159 I-4.799 J-4.164
X21.67 Y-67.963 I-1.31 J-1.495
G2 X21.395 Y-67.782 I2.891 J4.673
G3 X19.578 Y-67.901 I-0.835 J-1.185
X17.499 Y-69.952 I28.914 J-31.381
G2 X15.227 Y-71.785 I-7.938 J7.513
X11.425 Y-73.694 I-13.836 J22.823
X7.196 Y-74.16 I-2.938 J7.242
X5.685 Y-73.644 I0.81 J4.836
X4.994 Y-73.263 I17.628 J32.813
G1 X4.93 Y-73.233 Z-11.992
X4.863 Y-73.21 Z-11.984
X4.798 Y-73.195 Z-11.961
X4.731 Y-73.187 Z-11.937
X4.671 Y-73.186 Z-11.899
X4.611 Y-73.191 Z-11.861
X4.513 Y-73.212 Z-11.761
X4.441 Y-73.237 Z-11.641
X4.399 Y-73.257 Z-11.506
X4.385 Y-73.265 Z-11.365
Z5
X132.442 Y-66.92
Z-3.165 F1500
X132.429 Y-66.911 Z-3.304
X132.393 Y-66.885 Z-3.435
X132.333 Y-66.843 Z-3.554
X132.252 Y-66.791 Z-3.654
X132.153 Y-66.731 Z-3.73
X132.038 Y-66.669 Z-3.78
X131.915 Y-66.609 Z-3.8
G3 X129.395 Y-72.09 Z-4.131 I-1.26 J-2.74
X131.915 Y-66.609 Z-4.462 I1.26 J2.74
X129.395 Y-72.09 Z-4.793 I-1.26 J-2.74
X131.915 Y-66.609 Z-5.124 I1.26 J2.74
X129.395 Y-72.09 Z-5.455 I-1.26 J-2.74
X131.915 Y-66.609 Z-5.785 I1.26 J2.74
X129.395 Y-72.09 Z-6.116 I-1.26 J-2.74
X131.915 Y-66.609 Z-6.447 I1.26 J2.74
X129.395 Y-72.09 Z-6.778 I-1.26 J-2.74
X131.915 Y-66.609 Z-7.109 I1.26 J2.74
X129.395 Y-72.09 Z-7.44 I-1.26 J-2.74
X131.915 Y-66.609 Z-7.771 I1.26 J2.74
X129.395 Y-72.09 Z-8.102 I-1.26 J-2.74
X131.915 Y-66.609 Z-8.433 I1.26 J2.74
X129.395 Y-72.09 Z-8.764 I-1.26 J-2.74
X131.915 Y-66.609 Z-9.094 I1.26 J2.74
X129.395 Y-72.09 Z-9.425 I-1.26 J-2.74
X131.915 Y-66.609 Z-9.756 I1.26 J2.74
X129.395 Y-72.09 Z-10.087 I-1.26 J-2.74
X131.915 Y-66.609 Z-10.418 I1.26 J2.74
X129.395 Y-72.09 Z-10.749 I-1.26 J-2.74
X131.915 Y-66.609 Z-11.08 I1.26 J2.74
X129.395 Y-72.09 Z-11.411 I-1.26 J-2.74
X131.915 Y-66.609 Z-11.742 I1.26 J2.74
X127.94 Y-70.663 Z-12 I-1.26 J-2.74
X128.221 Y-71.241 I86.878 J42.045 F2000
G2 X128.624 Y-72.162 I-9.942 J-4.893
X128.879 Y-72.94 I-7.651 J-2.938
G3 X129.105 Y-73.727 I31.89 J8.711
X130.255 Y-74.584 I1.151 J0.345
G1 X130.767
G3 X131.983 Y-73.367 I0 J1.217
G1 Y-65.779
G3 X131.053 Y-65.442 I-0.526 J0
G2 X128.184 Y-68.374 I-19.69 J16.401
G3 X127.782 Y-70.336 I1.093 J-1.246
X127.94 Y-70.663 I87.036 J41.718
G1 X127.973 Y-70.726 Z-11.992
X128.013 Y-70.784 Z-11.984
X128.057 Y-70.835 Z-11.961
X128.106 Y-70.881 Z-11.937
X128.154 Y-70.917 Z-11.899
X128.205 Y-70.949 Z-11.861
X128.296 Y-70.991 Z-11.761
X128.368 Y-71.013 Z-11.641
X128.414 Y-71.022 Z-11.506
X128.43 Y-71.024 Z-11.365
Z5
X130.308 Y-18.476
Z-3.165 F1500
X130.293 Y-18.474 Z-3.304
X130.249 Y-18.469 Z-3.435
X130.176 Y-18.462 Z-3.554
X130.08 Y-18.456 Z-3.654
X129.964 Y-18.453 Z-3.73
X129.834 Y-18.455 Z-3.78
X129.697 Y-18.463 Z-3.8
G3 X130.184 Y-24.476 Z-4.131 I0.244 J-3.006
X129.697 Y-18.463 Z-4.462 I-0.244 J3.006
X130.184 Y-24.476 Z-4.793 I0.244 J-3.006
X129.697 Y-18.463 Z-5.124 I-0.244 J3.006
X130.184 Y-24.476 Z-5.455 I0.244 J-3.006
X129.697 Y-18.463 Z-5.785 I-0.244 J3.006
X130.184 Y-24.476 Z-6.116 I0.244 J-3.006
X129.697 Y-18.463 Z-6.447 I-0.244 J3.006
X130.184 Y-24.476 Z-6.778 I0.244 J-3.006
X129.697 Y-18.463 Z-7.109 I-0.244 J3.006
X130.184 Y-24.476 Z-7.44 I0.244 J-3.006
X129.697 Y-18.463 Z-7.771 I-0.244 J3.006
X130.184 Y-24.476 Z-8.102 I0.244 J-3.006
X129.697 Y-18.463 Z-8.433 I-0.244 J3.006
X130.184 Y-24.476 Z-8.764 I0.244 J-3.006
X129.697 Y-18.463 Z-9.094 I-0.244 J3.006
X130.184 Y-24.476 Z-9.425 I0.244 J-3.006
X129.697 Y-18.463 Z-9.756 I-0.244 J3.006
X130.184 Y-24.476 Z-10.087 I0.244 J-3.006
X129.697 Y-18.463 Z-10.418 I-0.244 J3.006
X130.184 Y-24.476 Z-10.749 I0.244 J-3.006
X129.697 Y-18.463 Z-11.08 I-0.244 J3.006
X130.184 Y-24.476 Z-11.411 I0.244 J-3.006
X129.697 Y-18.463 Z-11.742 I-0.244 J3.006
X128.217 Y-23.945 Z-12 I0.244 J-3.006
G2 X128.513 Y-24.165 I-3.266 J-4.691 F2000
G3 X128.886 Y-24.45 I6.834 J8.578
X129.898 Y-23.935 I0.375 J0.514
G1 Y-22.899
G3 X129.001 Y-22.002 I-0.896 J0
G1 X126.75
G3 X126.51 Y-22.877 I0 J-0.47
G2 X127.329 Y-23.371 I-34.524 J-58.089
X128.135 Y-23.888 I-12.432 J-20.259
G1 X128.217 Y-23.945
G2 X128.933 Y-25.8 I-1.014 J-1.457
G3 X129.496 Y-27.707 I1.972 J-0.454
G2 X130.038 Y-28.264 I-9.059 J-9.341
X131.186 Y-29.527 I-202.408 J-185.199
G3 X132.129 Y-29.165 I0.401 J0.363
G1 Y-20.988
G3 X130.912 Y-19.771 I-1.217 J0
G1 X86.008
G3 X85.821 Y-20.611 I0 J-0.441
G2 X89.259 Y-22.334 I-32.358 J-68.854
X92.549 Y-24.324 I-16.732 J-31.38
G3 X94.68 Y-24.49 I1.211 J1.778
G2 X100.331 Y-22.447 I13.51 J-28.53
X106.216 Y-21.237 I15.33 J-59.627
X113.651 Y-20.964 I4.878 J-31.423
X120.92 Y-22.548 I-2.237 J-27.731
X128.805 Y-27.083 I-9.017 J-24.801
X129.496 Y-27.707 I-8.368 J-9.965
X130.144 Y-30.718 I-1.93 J-1.99
G3 X130.523 Y-33.774 I2.981 J-1.181
G2 X133.117 Y-38.488 I-18.037 J-12.996
X133.488 Y-54.758 I-21.496 J-8.629
X123.536 Y-67.636 I-24.295 J8.491
G3 X123.217 Y-69.266 I0.654 J-0.974
G2 X124.463 Y-71.254 I-29.623 J-19.945
X125.477 Y-73.371 I-12.671 J-7.37
X125.975 Y-75.088 I-9.953 J-3.821
G1 X126.315 Y-76.776
G3 X127.826 Y-78.013 I1.511 J0.304
G1 X134.22
G3 X135.413 Y-76.821 I0 J1.192
G1 Y-17.679
G3 X134.22 Y-16.487 I-1.192 J0
G1 X74.893
G3 X74.57 Y-17.394 I0 J-0.511
G2 X75.875 Y-18.503 I-26.982 J-33.052
X77.095 Y-19.706 I-10.613 J-11.985
X77.68 Y-20.441 I-5.171 J-4.712
G3 X78.246 Y-21.191 I9.194 J6.352
X79.468 Y-21.92 I1.627 J1.34
G2 X86.237 Y-24.274 I-4.881 J-24.943
X92.249 Y-28.175 I-16.547 J-32.085
G3 X94.375 Y-28.344 I1.188 J1.485
G2 X100.456 Y-25.834 I13.067 J-23.033
X106.89 Y-24.459 I15.376 J-56.221
X122.452 Y-26.897 I3.968 J-25.557
X130.523 Y-33.774 I-9.965 J-19.872
X130.553 Y-36.417 I-1.864 J-1.343
G3 X130.283 Y-39.047 I2.276 J-1.562
G2 X131.925 Y-48.316 I-19.728 J-8.273
X129.128 Y-57.62 I-19.975 J0.931
X122.631 Y-64.843 I-21.516 J12.82
X121.002 Y-65.958 I-13.833 J18.461
G3 X119.347 Y-67.031 I29.838 J-47.859
X119.107 Y-68.594 I0.601 J-0.892
G2 X121.151 Y-71.295 I-51.436 J-41.043
X122.758 Y-74.277 I-10.808 J-7.749
X123.483 Y-76.967 I-12.626 J-4.847
X123.82 Y-79.732 I-35.332 J-5.711
G3 X125.131 Y-80.939 I1.311 J0.108
G1 X137.122
G3 X138.339 Y-79.722 I0 J1.217
G1 Y-14.778
G3 X137.122 Y-13.561 I-1.217 J0
G1 X14.778
G3 X13.561 Y-14.778 I0 J-1.217
G1 Y-37.335
G3 X14.467 Y-37.445 I0.46 J0
X14.935 Y-35.318 I-43.375 J10.644
G2 X15.567 Y-33.233 I10.438 J-2.028
X22.197 Y-25.405 I15.719 J-6.592
X32.047 Y-22.539 I9.924 J-15.744
X36.156 Y-23.033 I0.067 J-16.781
G3 X40.228 Y-23.774 I7.893 J31.8
G2 X41.834 Y-24.092 I-1.22 J-10.388
G1 X43.534 Y-24.569
G3 X45.856 Y-23.693 I0.566 J2.016
G2 X55.888 Y-16.068 I15.621 J-10.139
X68.468 Y-16.786 I5.342 J-16.977
X72.517 Y-19.334 I-6.835 J-15.351
X75.8 Y-22.813 I-14.114 J-16.604
G3 X78.968 Y-24.804 I4.2 J3.168
G2 X85.868 Y-27.304 I-4.803 J-24.022
X91.787 Y-31.643 I-13.078 J-24.05
G3 X94.263 Y-31.873 I1.382 J1.434
G2 X97.157 Y-30.092 I31.114 J-47.319
X100.292 Y-28.781 I6.764 J-11.769
X112.121 Y-27.241 I11.327 J-40.823
X123.513 Y-30.781 I-0.248 J-20.899
X130.02 Y-38.444 I-10.267 J-15.312
X130.283 Y-39.047 I-19.464 J-8.875
X129.564 Y-42.343 I-2.709 J-1.136
G3 X128.366 Y-45.498 I2.554 J-2.774
G2 X127.426 Y-53.057 I-17.004 J-1.723
X119.874 Y-62.645 I-18.309 J6.652
G3 X116.442 Y-64.955 I155.639 J-234.968
G1 X114.091 Y-66.562
G3 X113.961 Y-68.033 I0.539 J-0.789
G2 X116.861 Y-71.105 I-39.316 J-40.01
X119.182 Y-74.635 I-11.638 J-10.183
X120.379 Y-78.85 I-11.825 J-5.636
X120.301 Y-83.231 I-17.263 J-1.884
G3 X121.285 Y-84.368 I0.984 J-0.143
G1 X140.551
G3 X141.768 Y-83.151 I0 J1.217
G1 Y-11.349
G3 X140.551 Y-10.132 I-1.217 J0
G1 X11.349
G3 X10.132 Y-11.349 I0 J-1.217
G1 Y-40.786
G3 X11.289 Y-41.773 I0.999 J0
G2 X13.633 Y-41.561 I2.739 J-17.178
X15.985 Y-41.643 I0.464 J-20.419
G3 X17.347 Y-40.586 I0.117 J1.256
G2 X18.274 Y-36.016 I55.868 J-8.944
X20.267 Y-31.8 I11.37 J-2.797
X33.575 Y-26.036 I11.687 J-8.741
X35.824 Y-26.541 I-1.085 J-10.11
G3 X38.091 Y-26.957 I2.488 J7.167
G2 X40.424 Y-27.231 I-0.389 J-13.355
X42.705 Y-27.788 I-6.987 J-33.584
G3 X44.344 Y-28.161 I4.568 J16.279
G2 X45.983 Y-28.535 I-3.745 J-20.235
G3 X47.595 Y-27.737 I0.355 J1.31
G2 X57.973 Y-19.062 I13.365 J-5.445
X71.046 Y-22.533 I3.103 J-14.667
X72.757 Y-24.364 I-9.12 J-10.24
X74.223 Y-26.396 I-27.863 J-21.636
G3 X76.623 Y-27.881 I2.831 J1.892
G2 X79.621 Y-28.442 I-3.336 J-26.164
X82.474 Y-29.523 I-3.068 J-12.398
X86.452 Y-31.777 I-31.551 J-60.313
X89.973 Y-34.695 I-8.384 J-13.699
G3 X92.476 Y-35.942 I2.845 J2.577
G1 X92.756 Y-35.967
G3 X95.239 Y-35.341 I0.357 J3.822
X97.462 Y-33.83 I-74.796 J112.463
G2 X99.832 Y-32.561 I6.684 J-9.629
X103.797 Y-31.424 I7.775 J-19.639
X107.865 Y-30.735 I27.229 J-148.503
X119.31 Y-32.417 I3.004 J-19.347
X127.223 Y-40.854 I-6.866 J-14.37
X128.366 Y-45.498 I-15.861 J-6.367
X126.696 Y-48.399 I-2.852 J-0.289
G3 X124.513 Y-50.937 I1.634 J-3.613
G2 X124.152 Y-52.037 I-13.167 J3.709
X117.981 Y-59.787 I-15.048 J5.652
G3 X113.342 Y-63.062 I52.686 J-79.54
G2 X108.294 Y-65.66 I-10.127 J13.473
G3 X108.014 Y-67.222 I0.27 J-0.855
G2 X114.923 Y-74.19 I-23.41 J-30.12
X116.78 Y-83.825 I-8.752 J-6.683
X115.601 Y-86.762 I-13.866 J3.858
G3 X116.218 Y-87.797 I0.617 J-0.333
G1 X143.98
G3 X145.197 Y-86.58 I0 J1.217
G1 Y-7.92
G3 X143.98 Y-6.703 I-1.217 J0
G1 X7.92
G3 X6.703 Y-7.92 I0 J-1.217
G1 Y-45.375
G3 X7.777 Y-46.125 I0.799 J0
G2 X12.354 Y-45.038 I6.888 J-18.82
X17.055 Y-45.224 I1.755 J-15.115
X17.985 Y-45.458 I-1.793 J-9.087
G3 X18.914 Y-45.692 I2.691 J8.725
X20.118 Y-44.781 I0.195 J0.993
G2 X21.539 Y-36.938 I40.339 J-3.258
X26.531 Y-30.724 I9.865 J-2.814
X31.419 Y-29.452 I5.038 J-9.333
X36.423 Y-30.131 I0.242 J-17.009
G3 X39.326 Y-30.614 I3.477 J11.923
G2 X42.219 Y-31.156 I-0.49 J-10.603
G3 X44.171 Y-31.627 I3.652 J10.859
G2 X46.135 Y-32.039 I-2.574 J-17.157
X47.429 Y-32.516 I-2.044 J-7.541
G3 X48.707 Y-33.034 I5.21 J11.027
X49.884 Y-32.305 I0.289 J0.849
G2 X51.313 Y-27.818 I13.443 J-1.81
X54.43 Y-24.289 I8.744 J-4.583
X62.437 Y-22.297 I6.628 J-9.556
X69.773 Y-26.073 I-1.401 J-11.737
X71.176 Y-27.88 I-10.733 J-9.78
X72.309 Y-29.868 I-15.079 J-9.906
G3 X74.554 Y-31.207 I2.148 J1.049
G2 X77.808 Y-31.468 I0.55 J-13.556
X80.884 Y-32.561 I-2.321 J-11.409
X84.937 Y-34.909 I-25.22 J-48.211
X88.354 Y-38.112 I-6.849 J-10.73
G3 X90.745 Y-39.286 I2.318 J1.7
G2 X91.633 Y-39.309 I0.219 J-8.61
X92.518 Y-39.389 I-2.792 J-35.819
G3 X95.239 Y-39.119 I0.7 J6.803
G1 X95.251 Y-39.116
G3 X97.017 Y-38.277 I-2.021 J6.533
X98.993 Y-36.914 I-39.336 J59.146
G2 X101.1 Y-35.766 I5.742 J-8.031
X104.7 Y-34.741 I6.918 J-17.473
X108.391 Y-34.124 I28.136 J-156.841
X117.613 Y-35.397 I2.487 J-16.023
X124.041 Y-42.131 I-5.208 J-11.405
X124.513 Y-50.937 I-12.695 J-5.096
X121.825 Y-53.078 I-2.833 J0.798
G3 X118.743 Y-54.6 I0.211 J-4.307
G2 X116.241 Y-56.826 I-9.043 J7.648
G3 X110.914 Y-60.623 I52.72 J-79.592
G2 X104.729 Y-62.755 I-6.291 J8.214
G3 X103.761 Y-63.932 I0.01 J-0.995
X104.045 Y-65.422 I179.97 J33.532
G2 X104.205 Y-66.931 I-8.535 J-1.664
G3 X105.633 Y-69.717 I3.554 J0.063
G2 X108.468 Y-72.006 I-28.704 J-38.459
X110.989 Y-74.639 I-13.312 J-15.266
X113.119 Y-78.08 I-13.297 J-10.61
X113.711 Y-82.085 I-6.456 J-3
X112.64 Y-85.237 I-8.928 J1.273
X110.406 Y-87.705 I-6.561 J3.695
X107.278 Y-89.05 I-4.781 J6.81
X103.89 Y-89.378 I-3.273 J16.146
X99.233 Y-89.317 I2.664 J379.405
G3 X94.606 Y-89.845 I-0.339 J-17.555
G2 X94.019 Y-89.935 I-0.767 J3.045
G3 X93.427 Y-89.981 I0.819 J-14.264
G1 X93.358 Y-89.993
X93.291 Y-90.015
X93.227 Y-90.046
G3 X92.928 Y-90.222 I26.245 J-45.124
G2 X92.624 Y-90.39 I-3.125 J5.292
G3 X92.827 Y-91.226 I0.203 J-0.393
G1 X147.409
G3 X148.626 Y-90.009 I0 J1.217
G1 Y-4.491
G3 X147.409 Y-3.274 I-1.217 J0
G1 X4.491
G3 X3.274 Y-4.491 I0 J-1.217
G1 Y-51.124
G3 X4.368 Y-51.956 I0.863 J0
G1 X4.864 Y-51.818
G2 X5.311 Y-51.704 I2.942 J-10.591
G3 X5.905 Y-51.367 I-0.273 J1.17
G2 X10.945 Y-48.482 I7.44 J-7.153
X16.752 Y-48.558 I2.754 J-11.518
G1 X19.055 Y-49.172
G2 X21.306 Y-50.13 I-2.233 J-8.369
X22.072 Y-50.654 I-4.333 J-7.162
G3 X22.818 Y-51.205 I15.168 J19.746
X23.607 Y-50.653 I0.296 J0.416
G2 X23.164 Y-47.44 I11.851 J3.269
X23.464 Y-44.211 I16.751 J0.076
X24.741 Y-38.353 I116.412 J-22.313
X28.407 Y-33.608 I7.175 J-1.756
X33.746 Y-32.948 I3.516 J-6.514
G3 X39.036 Y-33.926 I10.05 J39.562
G2 X41.21 Y-34.347 I-1.74 J-14.821
G3 X43.373 Y-34.818 I5.72 J21.045
G2 X45.751 Y-35.53 I-1.597 J-9.66
G3 X48.063 Y-36.438 I11.439 J25.744
X49.307 Y-36.645 I1.244 J3.632
G2 X50.679 Y-36.655 I0 J-96.914
X52.049 Y-36.753 I-0.168 J-11.888
X52.419 Y-36.812 I-0.841 J-6.45
G3 X52.789 Y-36.874 I1.532 J8.082
X53.526 Y-36.031 I0.094 J0.661
G2 X54.433 Y-29.21 I8.33 J2.363
X60.304 Y-25.621 I6.372 J-3.827
X67.004 Y-28.276 I0.565 J-8.355
X70.816 Y-34.393 I-13.889 J-12.902
G3 X72.296 Y-35.11 I1.122 J0.43
G2 X73.746 Y-34.692 I10.305 J-33.031
X75.249 Y-34.547 I1.191 J-4.498
X78.777 Y-35.477 I-0.646 J-9.608
X82.042 Y-37.105 I-56.203 J-116.855
X84.465 Y-38.805 I-5.021 J-9.729
X86.255 Y-41.163 I-5.815 J-6.271
G3 X88.362 Y-42.586 I2.35 J1.21
G2 X88.785 Y-42.633 I-1.036 J-11.203
X89.205 Y-42.701 I-0.907 J-6.937
G3 X90.332 Y-42.75 I0.728 J3.769
G2 X91.353 Y-42.731 I0.621 J-5.947
X92.37 Y-42.823 I-1.497 J-22.313
G3 X95.962 Y-42.485 I0.99 J8.749
G1 X96.362 Y-42.361
G3 X98.777 Y-41.224 I-2.638 J8.735
G2 X101.472 Y-39.468 I95.683 J-143.869
X104.48 Y-38.331 I4.211 J-6.595
X109.864 Y-37.509 I152.013 J-977.057
X115.283 Y-38.052 I1.64 J-10.938
X121.543 Y-47.144 I-3.25 J-8.938
X118.743 Y-54.6 I-11.842 J0.192
X115.387 Y-55.335 I-2.158 J1.825
G3 X111.966 Y-55.65 I-1.441 J-3.08
G1 X111.82 Y-55.755
X111.749 Y-55.803
X110.994 Y-56.292
X110.958 Y-56.315
X110.423 Y-56.644
X109.85 Y-57.077
X109.205 Y-57.62
X109.136 Y-57.675
X109.064 Y-57.728
X108.381 Y-58.198
X108.335 Y-58.229
X107.482 Y-58.78
X107.397 Y-58.831
X107.311 Y-58.877
X107.14 Y-58.963
G2 X106.9 Y-59.063 I-0.825 J1.642
G1 X106.307 Y-59.262
X106.143 Y-59.309
X105.712 Y-59.41
X105.619 Y-59.43
X105.526 Y-59.444
X105.355 Y-59.466
X105.248 Y-59.477
X105.14 Y-59.481
X103.3 Y-59.5
X103.164 Y-59.519
X103.067 Y-59.531
X102.969 Y-59.537
X102.667 Y-59.548
X102.081 Y-59.594
X101.455 Y-59.683
X101.343 Y-59.695
X100.841 Y-59.735
X100.391 Y-59.862
X99.948 Y-60.019
X99.938 Y-60.033
X99.863 Y-60.127
X99.713 Y-60.301
X99.757 Y-60.672
X99.766 Y-60.778
X99.769 Y-60.885
X99.77 Y-61.513
X99.797 Y-61.98
X99.888 Y-62.358
X100.104 Y-62.873
X100.201 Y-63.084
X100.244 Y-63.186
X100.281 Y-63.291
X100.329 Y-63.438
X100.361 Y-63.55
X100.386 Y-63.664
X100.695 Y-65.322
X100.885 Y-66.346
X100.902 Y-66.457
X100.912 Y-66.57
X100.933 Y-66.911
G2 X100.928 Y-67.19 I-1.834 J-0.112
G1 X100.866 Y-67.872
X100.855 Y-67.963
X100.84 Y-68.054
X100.718 Y-68.683
X100.755 Y-68.75
X100.801 Y-68.838
X100.843 Y-68.929
X101.103 Y-69.545
G2 X101.185 Y-69.783 I-1.692 J-0.716
G1 X101.3 Y-70.211
X101.349 Y-70.343
X101.806 Y-70.803
X102.139 Y-71.126
X102.377 Y-71.335
X103.002 Y-71.833
X103.718 Y-72.367
X103.747 Y-72.389
X104.372 Y-72.875
X104.456 Y-72.945
X104.559 Y-73.035
X104.626 Y-73.097
X104.69 Y-73.162
X105.229 Y-73.738
X105.325 Y-73.829
X105.928 Y-74.333
X105.999 Y-74.396
X106.066 Y-74.462
X106.58 Y-74.99
X106.833 Y-75.228
X106.948 Y-75.346
X107.322 Y-75.767
X107.968 Y-76.437
X108.163 Y-76.632
X108.233 Y-76.707
X108.299 Y-76.785
X108.843 Y-77.466
X108.916 Y-77.565
X109.53 Y-78.449
X109.582 Y-78.528
X109.731 Y-78.768
X109.782 Y-78.856
X109.828 Y-78.946
X109.885 Y-79.066
X109.942 Y-79.198
X109.988 Y-79.318
G2 X110.074 Y-79.613 I-1.715 J-0.659
G1 X110.28 Y-80.636
X110.299 Y-80.75
X110.311 Y-80.865
X110.323 Y-81.036
X110.328 Y-81.134
X110.327 Y-81.232
X110.321 Y-81.403
X110.315 Y-81.501
X110.304 Y-81.599
X110.28 Y-81.77
X110.259 Y-81.887
X110.231 Y-82.003
X110.103 Y-82.463
X110.04 Y-82.752
G2 X109.964 Y-83.011 I-1.796 J0.39
G1 X109.899 Y-83.182
X109.858 Y-83.281
X109.811 Y-83.379
X109.723 Y-83.549
X109.679 Y-83.629
X109.632 Y-83.706
X109.561 Y-83.815
X109.506 Y-83.894
X109.447 Y-83.971
X109.307 Y-84.143
X109.226 Y-84.236
X109.139 Y-84.324
X108.955 Y-84.497
G2 X108.753 Y-84.662 I-1.259 J1.339
G1 X108.429 Y-84.889
X108.337 Y-84.95
X108.131 Y-85.076
X108.035 Y-85.131
X107.936 Y-85.181
X107.765 Y-85.259
G2 X107.53 Y-85.349 I-0.768 J1.669
G1 X107.274 Y-85.426
X107.167 Y-85.455
X106.756 Y-85.6
X106.641 Y-85.637
X106.523 Y-85.665
X105.67 Y-85.845
X105.527 Y-85.869
X105.372 Y-85.889
X105.28 Y-85.899
X105.187 Y-85.904
X103.976 Y-85.936
X103.914 Y-85.937
X103.231 Y-85.932
X103.144 Y-85.93
X101.112 Y-85.818
X99.818 Y-85.769
X99.221 Y-85.782
X98.638 Y-85.814
X98.026 Y-85.895
X97.974 Y-85.901
X97.292 Y-85.971
X97.26 Y-85.974
X96.578 Y-86.033
X96.544 Y-86.036
X95.862 Y-86.082
X95.829 Y-86.084
X95.773 Y-86.086
X95.528 Y-86.144
X94.212 Y-86.533
X94.14 Y-86.553
X93.799 Y-86.639
G2 X93.532 Y-86.685 I-0.449 J1.782
G1 X92.394 Y-86.798
X92.281 Y-86.833
X92.155 Y-86.888
X91.203 Y-87.441
G2 X90.936 Y-87.569 I-0.924 J1.588
G1 X90.254 Y-87.83
X90.206 Y-87.847
X89.524 Y-88.087
X89.44 Y-88.114
X88.818 Y-88.3
X88.299 Y-88.494
X87.715 Y-88.797
X87.625 Y-88.841
X87.533 Y-88.88
X86.168 Y-89.41
X86.084 Y-89.44
X85.402 Y-89.667
X85.372 Y-89.677
X84.653 Y-89.903
X83.371 Y-90.344
X83.302 Y-90.366
X82.524 Y-90.599
X82.458 Y-90.618
X81.211 Y-90.942
X79.869 Y-91.327
X79.858 Y-91.33
X79.176 Y-91.521
G2 X78.875 Y-91.579 I-0.496 J1.769
G1 X78.193 Y-91.652
X78.059 Y-91.662
X77.377 Y-91.685
X77.316 Y-91.686
X75.965
X75.381 Y-91.696
X74.874 Y-91.75
X74.297 Y-91.872
X73.63 Y-92.024
X73.522 Y-92.046
X72.499 Y-92.216
G2 X72.205 Y-92.241 I-0.302 J1.813
G1 X71.522 Y-92.244
X71.358 Y-92.237
X71.016 Y-92.208
X70.898 Y-92.194
X70.781 Y-92.172
X70.099 Y-92.023
X70.001 Y-91.999
X69.905 Y-91.969
X69.203 Y-91.733
X68.97 Y-91.697
X68.423 Y-91.687
X67.072 Y-91.681
G2 X66.724 Y-91.647 I0.008 J1.837
G1 X66.042 Y-91.512
X65.985 Y-91.5
X65.168 Y-91.312
X65.121 Y-91.301
X64.616 Y-91.171
X64.054 Y-91.054
X62.769 Y-90.901
X62.627 Y-90.879
X61.944 Y-90.743
X61.89 Y-90.732
X61.238 Y-90.581
X59.903 Y-90.32
X59.761 Y-90.286
X59.079 Y-90.096
G2 X58.782 Y-89.984 I0.495 J1.77
G1 X58.618 Y-89.906
X58.525 Y-89.859
X58.361 Y-89.769
X58.285 Y-89.724
X58.211 Y-89.676
X58.034 Y-89.556
X57.923 Y-89.474
X57.828 Y-89.398
X57.234 Y-89.027
X57.196 Y-89.002
X56.56 Y-88.582
X56.246 Y-88.401
X55.979 Y-88.258
X55.887 Y-88.206
X55.205 Y-87.79
X55.142 Y-87.75
X52.673 Y-86.103
X52.564 Y-86.024
X52.434 Y-85.923
X52.352 Y-85.855
X52.274 Y-85.783
X51.461 Y-84.984
X51.443 Y-84.965
X50.76 Y-84.274
X50.653 Y-84.156
X50.537 Y-84.016
X50.436 Y-83.882
X50.387 Y-83.81
X49.969 Y-83.305
X49.874 Y-83.18
X49.796 Y-83.067
X49.741 Y-82.983
X49.691 Y-82.896
X49.322 Y-82.214
X49.295 Y-82.161
X48.954 Y-81.48
X48.889 Y-81.336
X48.629 Y-80.681
X48.335 Y-80.003
X48.316 Y-79.957
X48.051 Y-79.299
X48.001 Y-79.16
X47.591 Y-77.846
X47.459 Y-77.494
X46.792 Y-77.306
X46.73 Y-77.288
X46.657 Y-77.264
X46.036 Y-77.398
X45.757 Y-77.479
X45.646 Y-77.508
X45.475 Y-77.546
X45.373 Y-77.566
X45.27 Y-77.58
X44.758 Y-77.635
X44.67 Y-77.642
X43.987 Y-77.683
X43.888 Y-77.686
X43.23 Y-77.689
X42.601 Y-77.709
X41.948 Y-77.75
X41.895 Y-77.753
X41.3 Y-77.773
X40.804 Y-77.838
X40.218 Y-77.98
X40.108 Y-78.003
X39.425 Y-78.125
X39.271 Y-78.145
X38.589 Y-78.208
X38.503 Y-78.214
X38.417 Y-78.216
X37.735 Y-78.215
G2 X37.391 Y-78.182 I0.003 J1.838
G1 X36.027 Y-77.92
X35.958 Y-77.905
X35.275 Y-77.747
X35.162 Y-77.716
X35.051 Y-77.679
X34.369 Y-77.426
X34.305 Y-77.401
X34.134 Y-77.33
X34.023 Y-77.279
X33.174 Y-76.859
X32.195 Y-76.4
X31.745 Y-76.198
G2 X31.512 Y-76.072 I0.753 J1.676
G1 X31.346 Y-75.967
X30.72 Y-75.627
X30.637 Y-75.579
X30.557 Y-75.527
X30.307 Y-75.355
X30.19 Y-75.269
X29.759 Y-74.919
G2 X29.532 Y-74.701 I1.156 J1.429
G1 X29.241 Y-74.368
X29.184 Y-74.3
X29.13 Y-74.229
X28.917 Y-73.932
X28.835 Y-73.807
X28.691 Y-73.566
X28.547 Y-73.362
G2 X28.41 Y-73.133 I1.504 J1.056
G1 X28.324 Y-72.963
X28.26 Y-72.82
X28.123 Y-72.479
X28.099 Y-72.417
X27.86 Y-71.754
X27.612 Y-71.267
X27.579 Y-71.2
X27.422 Y-70.859
G2 X27.307 Y-70.529 I1.669 J0.769
G1 X27.239 Y-70.253
X27.12 Y-69.887
G2 X27.056 Y-69.626 I1.748 J0.568
G1 X27.013 Y-69.375
X26.994 Y-69.22
X26.937 Y-68.538
X26.931 Y-68.399
X26.928 Y-68.012
X26.708 Y-67.907
X26.647 Y-67.876
X26.306 Y-67.696
X26.214 Y-67.644
X26.125 Y-67.587
X25.784 Y-67.354
G2 X25.574 Y-67.188 I1.037 J1.517
G1 X25.381 Y-67.009
X25.265 Y-66.892
X24.681 Y-66.248
X24.106 Y-65.679
X23.732 Y-65.39
X23.395 Y-65.186
X23.286 Y-65.115
X23.032 Y-64.936
X22.988 Y-64.904
X22.306 Y-64.392
X22.238 Y-64.339
X22.172 Y-64.282
X21.49 Y-63.661
X21.415 Y-63.589
X21.344 Y-63.512
X20.701 Y-62.779
X20.622 Y-62.682
X20.55 Y-62.581
X20.511 Y-62.521
X20.456 Y-62.434
X19.862 Y-62.913
X19.226 Y-63.549
X19.181 Y-63.592
X18.522 Y-64.208
X18.453 Y-64.269
X18.381 Y-64.327
X18.21 Y-64.495
X17.999 Y-64.751
X17.766 Y-65.06
X17.701 Y-65.142
X17.631 Y-65.22
X17.449 Y-65.411
X17.375 Y-65.485
X17.297 Y-65.554
X16.4 Y-66.305
X16.282 Y-66.397
X15.66 Y-66.837
X15.472 Y-66.994
X14.918 Y-67.591
X14.871 Y-67.64
X14.472 Y-68.038
X14.442 Y-68.067
X14.146 Y-68.351
G2 X13.875 Y-68.564 I-1.269 J1.329
G1 X13.49 Y-68.814
X13.443 Y-68.843
X12.731 Y-69.275
X12.695 Y-69.296
X12.067 Y-69.658
X11.408 Y-70.064
X11.283 Y-70.134
X10.601 Y-70.485
X10.523 Y-70.523
X10.443 Y-70.557
X10.273 Y-70.625
X10.174 Y-70.661
X10.073 Y-70.692
X9.902 Y-70.738
G2 X9.597 Y-70.794 I-0.482 J1.773
G1 X8.573 Y-70.893
G2 X8.293 Y-70.898 I-0.177 J1.829
G1 X8.122 Y-70.889
X8.022 Y-70.88
X7.923 Y-70.867
X7.752 Y-70.838
X7.652 Y-70.818
X7.554 Y-70.793
X7.383 Y-70.745
X7.284 Y-70.714
X7.187 Y-70.677
X7.017 Y-70.607
X6.926 Y-70.567
X6.838 Y-70.522
X6.026 Y-70.082
X5.927 Y-70.024
X5.797 Y-69.943
X5.707 Y-69.882
X5.62 Y-69.816
X5.255 Y-69.522
X4.962 Y-69.323
X4.883 Y-69.266
X4.807 Y-69.205
X4.689 Y-69.105
X4.622 Y-69.046
X4.558 Y-68.983
X4.443 Y-68.864
X4.383 Y-68.799
X4.326 Y-68.731
X4.231 Y-68.612
X4.169 Y-68.529
X4.112 Y-68.444
X3.972 Y-68.222
X3.89 Y-68.076
X3.794 Y-67.889
X3.64 Y-67.614
X3.436 Y-67.283
X3.241 Y-66.988
X3.159 Y-66.85
X3.073 Y-66.691
X3.017 Y-66.58
X2.964 Y-66.463
X2.867 Y-66.275
X2.664 Y-65.938
X2.354 Y-65.443
X2.297 Y-65.347
X2.247 Y-65.248
X1.903 Y-64.518
X1.868 Y-64.478
X1.808 Y-64.405
X1.751 Y-64.329
X1.632 Y-64.158
X1.568 Y-64.062
X1.511 Y-63.962
X1.421 Y-63.792
G2 X1.297 Y-63.499 I1.623 J0.861
G1 X1.19 Y-63.171
X1.16 Y-63.068
X1.136 Y-62.963
X1.065 Y-62.61
X1.049 Y-62.516
X0.949 Y-61.834
G2 X0.93 Y-61.561 I1.818 J0.266
G1 X0.933 Y-60.708
X0.936 Y-60.611
X0.944 Y-60.513
X0.963 Y-60.343
X0.977 Y-60.243
X1.034 Y-59.902
X1.044 Y-59.847
X1.135 Y-59.384
G2 X1.201 Y-59.141 I1.803 J-0.357
G1 X1.512 Y-58.241
G2 X1.618 Y-57.994 I1.737 J-0.6
G1 X1.99 Y-57.278
G2 X2.151 Y-57.021 I1.631 J-0.847
G1 X2.299 Y-56.825
X2.371 Y-56.735
X2.449 Y-56.65
X2.639 Y-56.454
X2.764 Y-56.337
X2.932 Y-56.192
X3.019 Y-56.123
X3.11 Y-56.058
X3.287 Y-55.941
X3.38 Y-55.883
X3.476 Y-55.831
X4.159 Y-55.488
G2 X4.39 Y-55.39 I0.826 J-1.641
G1 X5.073 Y-55.157
X5.175 Y-55.125
X5.858 Y-54.935
X5.933 Y-54.916
X6.615 Y-54.757
X6.687 Y-54.742
X7.592 Y-54.569
X7.631 Y-54.501
X7.827 Y-54.166
G2 X8.056 Y-53.856 I1.584 J-0.931
G1 X8.231 Y-53.665
G2 X8.429 Y-53.479 I1.355 J-1.241
G1 X8.621 Y-53.323
X8.695 Y-53.266
X9.36 Y-52.78
G2 X9.675 Y-52.595 I1.084 J-1.484
G1 X9.942 Y-52.472
G2 X10.248 Y-52.363 I0.769 J-1.669
G1 X11.346 Y-52.077
X11.453 Y-52.053
X11.95 Y-51.955
X12.447 Y-51.848
X12.533 Y-51.832
X12.874 Y-51.776
X12.974 Y-51.762
X13.075 Y-51.754
X13.389 Y-51.737
X13.703 Y-51.711
X13.791 Y-51.706
X13.961 Y-51.7
X14.053 Y-51.699
X14.145 Y-51.702
X14.269 Y-51.71
X14.905 Y-51.719
G2 X15.235 Y-51.754 I-0.025 J-1.837
G1 X15.747 Y-51.855
X15.865 Y-51.882
X16.336 Y-52.008
X16.946 Y-52.142
X17.597 Y-52.26
X17.715 Y-52.286
X18.397 Y-52.457
X18.535 Y-52.497
X18.706 Y-52.555
X18.796 Y-52.588
X18.885 Y-52.626
X19.056 Y-52.704
X19.128 Y-52.739
X19.47 Y-52.914
X19.583 Y-52.977
X20.089 Y-53.283
X20.202 Y-53.357
X21.013 Y-53.934
G2 X21.24 Y-54.124 I-1.064 J-1.498
G1 X21.444 Y-54.325
G2 X21.618 Y-54.524 I-1.291 J-1.308
G1 X21.739 Y-54.684
G2 X21.886 Y-54.911 I-1.465 J-1.109
G1 X22.042 Y-55.195
X22.343 Y-55.691
X22.389 Y-55.772
X22.431 Y-55.856
X22.503 Y-56.007
X22.543 Y-56.098
X22.579 Y-56.191
X22.587 Y-56.187
X23.294 Y-55.833
X23.331 Y-55.815
X23.66 Y-55.66
X23.756 Y-55.618
X23.855 Y-55.582
X24.183 Y-55.47
X24.286 Y-55.439
X24.39 Y-55.413
X24.561 Y-55.377
X24.653 Y-55.36
X24.745 Y-55.347
X24.916 Y-55.329
X25.082 Y-55.318
X25.253 Y-55.315
X25.341 Y-55.316
X25.429 Y-55.321
X25.599 Y-55.334
X25.685 Y-55.343
X25.744 Y-55.35
X26.093 Y-54.933
X26.2 Y-54.816
X26.37 Y-54.645
X26.46 Y-54.56
X26.555 Y-54.482
X26.726 Y-54.351
X26.804 Y-54.295
X26.884 Y-54.243
X27.446 Y-53.898
X27.606 Y-53.765
X27.683 Y-53.668
X27.791 Y-53.507
X27.603 Y-52.965
X27.573 Y-52.87
X27.499 Y-52.614
X27.474 Y-52.516
X27.454 Y-52.416
X27.416 Y-52.192
X27.323 Y-51.739
X27.186 Y-51.164
X26.984 Y-50.56
X26.961 Y-50.487
X26.764 Y-49.805
X26.736 Y-49.693
X26.715 Y-49.58
X26.608 Y-48.898
G2 X26.586 Y-48.612 I1.815 J0.284
G1 Y-47.93
X26.589 Y-47.833
X26.597 Y-47.736
X26.67 Y-47.054
X26.676 Y-47.003
X26.725 Y-46.641
X26.735 Y-46.48
X26.756 Y-45.828
X26.761 Y-45.738
X26.816 Y-45.057
X26.827 Y-44.957
X26.843 Y-44.859
X26.974 Y-44.177
X26.993 Y-44.088
X27.017 Y-43.999
X27.208 Y-43.357
X27.259 Y-43.152
X27.284 Y-42.968
X27.329 Y-42.346
G2 X27.368 Y-42.081 I1.833 J-0.132
G1 X27.505 Y-41.457
X27.602 Y-40.834
X27.619 Y-40.74
X27.64 Y-40.647
X27.819 Y-39.966
X27.831 Y-39.923
X27.905 Y-39.666
G2 X27.947 Y-39.351 I1.836 J-0.085
G1 X28.023 Y-39.01
G2 X28.122 Y-38.699 I1.794 J-0.399
G1 X28.194 Y-38.528
X28.241 Y-38.424
X28.295 Y-38.323
X28.393 Y-38.153
X28.451 Y-38.059
X28.515 Y-37.968
X28.624 Y-37.822
X28.7 Y-37.727
X28.782 Y-37.638
X29.136 Y-37.275
X29.218 Y-37.196
X29.305 Y-37.123
X29.523 Y-36.949
G2 X29.795 Y-36.77 I1.145 J-1.437
G1 X30.042 Y-36.636
G2 X30.398 Y-36.49 I0.873 J-1.617
G1 X30.739 Y-36.39
G2 X31.164 Y-36.318 I0.516 J-1.763
G1 X31.505 Y-36.301
X31.613 Y-36.299
X31.721 Y-36.303
X31.852 Y-36.285
X31.976 Y-36.271
X32.101 Y-36.267
X32.272 Y-36.266
X32.374 Y-36.268
X32.475 Y-36.276
X32.646 Y-36.295
X32.748 Y-36.309
X32.849 Y-36.328
X33.019 Y-36.366
X33.12 Y-36.392
X33.22 Y-36.423
X33.264 Y-36.438
X33.516 Y-36.473
G2 X33.83 Y-36.545 I-0.253 J-1.82
G1 X34.122 Y-36.64
X34.373 Y-36.694
X34.499 Y-36.726
X34.784 Y-36.809
X36.049 Y-37.091
X36.606 Y-37.188
X37.158 Y-37.233
X37.791 Y-37.252
X37.952 Y-37.263
X38.635 Y-37.343
X38.72 Y-37.355
X38.804 Y-37.371
X39.486 Y-37.517
X39.599 Y-37.545
X39.94 Y-37.641
X40.03 Y-37.668
X40.371 Y-37.783
X40.443 Y-37.809
X40.69 Y-37.903
X40.902 Y-37.959
X41.428 Y-38.064
X42.002 Y-38.125
X42.659 Y-38.177
X42.814 Y-38.196
X42.985 Y-38.224
X43.076 Y-38.242
X43.166 Y-38.264
X44.36 Y-38.587
X44.501 Y-38.632
X44.699 Y-38.703
X44.837 Y-38.759
X45.232 Y-38.939
X46.533 Y-39.37
X46.55 Y-39.375
X47.8 Y-39.804
X48.271 Y-39.914
X50.02
X50.074 Y-39.915
X50.757 Y-39.935
X50.887 Y-39.944
X51.569 Y-40.012
X51.623 Y-40.018
X52.305 Y-40.107
X52.464 Y-40.135
X53.209 Y-40.3
X53.474 Y-40.29
X53.486 Y-40.286
X53.625 Y-40.242
X54.307 Y-40.053
X54.426 Y-40.025
X54.692 Y-39.97
X54.782 Y-39.953
X54.873 Y-39.942
X55.012 Y-39.927
X55.117 Y-39.919
X55.223 Y-39.917
X55.5 Y-39.92
X55.602 Y-39.924
X55.703 Y-39.934
X56.339 Y-40.012
X56.458 Y-39.88
X56.566 Y-39.771
X56.955 Y-39.408
G2 X57.169 Y-39.236 I1.254 J-1.343
G1 X57.301 Y-39.145
X57.424 Y-39.068
X57.821 Y-38.84
X57.942 Y-38.775
X58.096 Y-38.702
X58.168 Y-38.669
X58.962 Y-38.329
X58.825 Y-38.228
G2 X58.616 Y-38.048 I1.09 J1.48
G1 X58.427 Y-37.859
X58.363 Y-37.792
X58.302 Y-37.721
X58.246 Y-37.653
X58.206 Y-37.62
X58.137 Y-37.563
X58.072 Y-37.502
X57.88 Y-37.314
G2 X57.685 Y-37.09 I1.284 J1.314
G1 X57.412 Y-36.718
G2 X57.256 Y-36.467 I1.48 J1.09
G1 X56.922 Y-35.816
X56.859 Y-35.679
X56.788 Y-35.508
X56.751 Y-35.409
X56.719 Y-35.309
X56.671 Y-35.138
X56.647 Y-35.045
X56.628 Y-34.951
X56.569 Y-34.61
X56.556 Y-34.522
X56.514 Y-34.181
X56.503 Y-34.071
X56.5 Y-33.961
X56.499 Y-33.62
X56.501 Y-33.53
X56.508 Y-33.36
X56.516 Y-33.26
X56.528 Y-33.161
X56.555 Y-32.99
X56.574 Y-32.888
X56.598 Y-32.787
X56.692 Y-32.446
X56.709 Y-32.387
X56.921 Y-31.705
G2 X57.049 Y-31.397 I1.755 J-0.546
G1 X57.141 Y-31.221
X57.197 Y-31.122
X57.259 Y-31.026
X57.382 Y-30.85
X57.44 Y-30.77
X57.502 Y-30.694
X57.645 Y-30.53
X57.716 Y-30.452
X57.792 Y-30.378
X57.971 Y-30.214
X58.066 Y-30.133
X58.166 Y-30.059
X58.346 Y-29.934
G2 X58.565 Y-29.803 I1.047 J-1.51
G1 X59.428 Y-29.368
X59.519 Y-29.325
X59.612 Y-29.287
X59.814 Y-29.212
X59.931 Y-29.172
X60.051 Y-29.141
X60.253 Y-29.095
G2 X60.536 Y-29.054 I0.406 J-1.792
G1 X60.814 Y-29.035
X60.901 Y-29.031
X60.987
X61.689 Y-29.05
G2 X62.002 Y-29.085 I-0.049 J-1.837
G1 X62.333 Y-29.152
X62.428 Y-29.174
X62.522 Y-29.2
X62.687 Y-29.252
X62.787 Y-29.287
X62.885 Y-29.327
X63.05 Y-29.401
X63.148 Y-29.448
X63.244 Y-29.501
X63.409 Y-29.599
X63.51 Y-29.664
X63.606 Y-29.735
X64.122 Y-30.142
X64.207 Y-30.213
X64.581 Y-30.546
X64.651 Y-30.611
X64.717 Y-30.68
X64.869 Y-30.847
X64.943 Y-30.933
X65.011 Y-31.024
X65.129 Y-31.191
X65.694 Y-31.877
X65.762 Y-31.965
X65.824 Y-32.056
X66.187 Y-32.625
G2 X66.333 Y-32.904 I-1.549 J-0.989
G1 X66.405 Y-33.074
X66.447 Y-33.184
X66.482 Y-33.296
X66.489 Y-33.307
G2 X66.622 Y-33.557 I-1.549 J-0.989
G1 X66.715 Y-33.767
X66.74 Y-33.829
X66.851 Y-33.94
G2 X67.068 Y-34.206 I-1.306 J-1.292
G1 X67.356 Y-34.633
G2 X67.548 Y-35.002 I-1.524 J-1.027
G1 X67.809 Y-35.684
X67.845 Y-35.786
X67.875 Y-35.891
X68.047 Y-36.573
G2 X68.075 Y-37.345 I-1.781 J-0.451
G1 X67.954 Y-38.026
X67.948 Y-38.057
X68.289 Y-38.164
X68.867 Y-38.329
X69.395 Y-38.428
X69.992 Y-38.492
X70.616 Y-38.55
X71.211 Y-38.576
X71.791 Y-38.574
X72.025 Y-38.558
X72.244 Y-38.532
X72.42 Y-38.496
X73.356 Y-38.204
X73.41 Y-38.188
X74.093 Y-37.998
X74.184 Y-37.975
X74.277 Y-37.957
X74.383 Y-37.939
X74.475 Y-37.925
X74.567 Y-37.917
X74.777 Y-37.903
X74.9 Y-37.899
X75.023 Y-37.903
X75.233 Y-37.917
X75.331 Y-37.926
X75.429 Y-37.941
X76.27 Y-38.09
G2 X76.614 Y-38.186 I-0.32 J-1.809
G1 X77.297 Y-38.45
X77.392 Y-38.49
X77.484 Y-38.535
X77.7 Y-38.648
G2 X77.938 Y-38.797 I-0.852 J-1.628
G1 X78.328 Y-39.084
X78.376 Y-39.112
X78.455 Y-39.154
X79.088 Y-39.436
X79.201 Y-39.491
X80.464 Y-40.163
X81.208 Y-40.535
G2 X81.459 Y-40.687 I-0.823 J-1.643
G1 X81.874 Y-40.986
X81.966 Y-41.057
X82.27 Y-41.307
G2 X82.507 Y-41.54 I-1.166 J-1.42
G1 X82.873 Y-41.972
X82.966 Y-42.092
X83.209 Y-42.433
G2 X83.356 Y-42.676 I-1.496 J-1.067
G1 X83.718 Y-43.397
X83.85 Y-43.636
X83.89 Y-43.714
X83.926 Y-43.793
X84.196 Y-44.417
X84.406 Y-44.822
X84.462 Y-44.942
X84.534 Y-45.108
X84.767 Y-45.567
X85.217 Y-45.683
X85.917 Y-45.811
X86.217 Y-45.837
X86.776 Y-45.809
X86.87 Y-45.807
X87.552
X87.69 Y-45.813
X88.031 Y-45.839
X88.124 Y-45.848
X88.465 Y-45.892
X88.581 Y-45.91
X89.263 Y-46.042
X89.423 Y-46.08
X89.511 Y-46.106
X89.594 Y-46.114
X90.771 Y-45.991
G2 X91.126 Y-45.989 I0.191 J-1.828
G1 X91.808 Y-46.05
X91.851 Y-46.054
X92.308 Y-46.106
X92.394 Y-46.118
X92.479 Y-46.133
X92.703 Y-46.18
X92.812 Y-46.207
X93.495 Y-46.394
X93.654 Y-46.445
X94.291 Y-46.684
X94.564 Y-46.77
X94.681 Y-46.688
G2 X94.927 Y-46.542 I1.057 J-1.503
G1 X96.292 Y-45.871
X96.374 Y-45.833
X96.716 Y-45.685
X96.807 Y-45.648
X96.901 Y-45.617
X97.296 Y-45.495
X97.313 Y-45.489
X97.926 Y-45.306
X98.592 Y-45.094
X98.64 Y-45.079
X99.294 Y-44.89
X100.077 Y-44.33
X100.284 Y-44.16
X100.358 Y-44.102
X100.436 Y-44.048
X101.665 Y-43.23
X101.673 Y-43.224
X102.405 Y-42.743
X102.489 Y-42.691
X102.575 Y-42.644
X103.087 Y-42.381
X103.144 Y-42.353
X103.515 Y-42.179
X103.621 Y-42.133
X103.777 Y-42.071
X103.869 Y-42.037
X103.962 Y-42.009
X104.8 Y-41.776
X104.904 Y-41.751
X105.009 Y-41.731
X105.691 Y-41.625
X105.758 Y-41.616
X106.4 Y-41.54
X107.009 Y-41.441
X107.631 Y-41.315
X109.141 Y-40.965
X109.274 Y-40.939
X109.445 Y-40.912
X109.581 Y-40.896
X110.605 Y-40.815
X110.719 Y-40.81
X111.401 Y-40.798
X111.498 Y-40.799
X111.596 Y-40.805
X112.278 Y-40.866
X112.433 Y-40.886
X112.774 Y-40.946
X112.86 Y-40.964
X113.201 Y-41.041
X113.335 Y-41.076
X113.5 Y-41.126
X113.663 Y-41.158
X113.751 Y-41.178
X113.838 Y-41.202
X114.009 Y-41.253
X114.107 Y-41.286
X114.51 Y-41.432
X114.562 Y-41.452
X114.841 Y-41.563
X114.952 Y-41.612
X115.06 Y-41.667
X115.23 Y-41.763
X115.356 Y-41.84
X115.868 Y-42.183
X115.948 Y-42.24
X116.026 Y-42.302
X116.183 Y-42.434
X116.273 Y-42.515
X116.358 Y-42.602
X116.514 Y-42.772
X116.589 Y-42.86
X116.659 Y-42.953
X117.029 Y-43.477
X117.087 Y-43.565
X117.139 Y-43.655
X117.505 Y-44.324
X117.554 Y-44.421
X117.597 Y-44.52
X117.665 Y-44.691
X117.702 Y-44.79
X117.733 Y-44.892
X118.058 Y-46.085
G2 X118.116 Y-46.406 I-1.773 J-0.483
G1 X118.206 Y-47.428
X118.213 Y-47.552
X118.212 Y-47.676
X118.204 Y-47.847
X118.197 Y-47.943
X118.185 Y-48.038
X118.159 Y-48.209
G2 X118.09 Y-48.5 I-1.817 J0.277
G1 X117.868 Y-49.182
X117.852 Y-49.227
X117.731 Y-49.568
X117.688 Y-49.678
X117.639 Y-49.785
X117.552 Y-49.956
X117.505 Y-50.043
X117.453 Y-50.127
X117.089 Y-50.687
X116.555 Y-51.592
X116.501 Y-51.678
X116.373 Y-51.87
X116.333 Y-51.929
X115.978 Y-52.418
X115.914 Y-52.502
X115.766 Y-52.683
X115.706 Y-52.753
X115.642 Y-52.82
X115.144 Y-53.32
X115.021 Y-53.432
X114.84 Y-53.584
X114.763 Y-53.645
X114.428 Y-53.896
X114.341 Y-53.957
X114.187 Y-54.059
X114.089 Y-54.12
X113.867 Y-54.248
X113.021 Y-54.864
X112.122 Y-55.538
X112.089 Y-55.562
X111.966 Y-55.65
X111.911 Y-55.695 Z-11.992
X111.861 Y-55.745 Z-11.984
X111.819 Y-55.797 Z-11.961
X111.783 Y-55.854 Z-11.937
X111.756 Y-55.907 Z-11.899
X111.734 Y-55.963 Z-11.861
X111.71 Y-56.061 Z-11.761
X111.701 Y-56.136 Z-11.641
Y-56.183 Z-11.506
X111.702 Y-56.199 Z-11.365
Z5
X111.067 Y-89.753
Z-3 F1500
Z-11.365 F2000
G19 G2 Y-90.388 Z-12 J-0.635 K0
G1 Y-93.86
G17 G3 X111.702 Y-94.495 I0.635 J0
G1 X137.252
X151.895
Y-0.005
X0.005
Y-94.495
X111.702
X111.772 Y-94.491 Z-11.992
X111.842 Y-94.48 Z-11.984
X111.906 Y-94.461 Z-11.961
X111.968 Y-94.436 Z-11.937
X112.022 Y-94.408 Z-11.899
X112.072 Y-94.376 Z-11.861
X112.149 Y-94.311 Z-11.761
X112.199 Y-94.254 Z-11.641
X112.227 Y-94.217 Z-11.506
X112.236 Y-94.203 Z-11.365
Z5
X130.351 Y-66.219
Z-7.165
X130.358 Y-66.232 Z-7.304 F1500
X130.38 Y-66.271 Z-7.435
X130.416 Y-66.334 Z-7.554
X130.466 Y-66.417 Z-7.654
X130.53 Y-66.514 Z-7.73
X130.605 Y-66.62 Z-7.78
X130.69 Y-66.728 Z-7.8
G3 X135.346 Y-62.892 Z-8.131 I2.328 J1.918
X130.69 Y-66.728 Z-8.462 I-2.328 J-1.918
X135.346 Y-62.892 Z-8.793 I2.328 J1.918
X130.69 Y-66.728 Z-9.124 I-2.328 J-1.918
X135.346 Y-62.892 Z-9.455 I2.328 J1.918
X130.69 Y-66.728 Z-9.785 I-2.328 J-1.918
X135.346 Y-62.892 Z-10.116 I2.328 J1.918
X130.69 Y-66.728 Z-10.447 I-2.328 J-1.918
X135.346 Y-62.892 Z-10.778 I2.328 J1.918
X130.69 Y-66.728 Z-11.109 I-2.328 J-1.918
X135.346 Y-62.892 Z-11.44 I2.328 J1.918
X130.69 Y-66.728 Z-11.771 I-2.328 J-1.918
X135.346 Y-62.892 Z-12.102 I2.328 J1.918
X130.69 Y-66.728 Z-12.433 I-2.328 J-1.918
X135.346 Y-62.892 Z-12.764 I2.328 J1.918
X130.69 Y-66.728 Z-13.094 I-2.328 J-1.918
X135.346 Y-62.892 Z-13.425 I2.328 J1.918
X130.69 Y-66.728 Z-13.756 I-2.328 J-1.918
X135.346 Y-62.892 Z-14.087 I2.328 J1.918
X130.69 Y-66.728 Z-14.418 I-2.328 J-1.918
X135.346 Y-62.892 Z-14.749 I2.328 J1.918
X130.69 Y-66.728 Z-15.08 I-2.328 J-1.918
X135.346 Y-62.892 Z-15.411 I2.328 J1.918
X130.69 Y-66.728 Z-15.742 I-2.328 J-1.918
X136.035 Y-64.81 Z-16 I2.328 J1.918
G1 Y-62.898 F2000
G3 X135.126 Y-62.597 I-0.504 J0
G2 X134.579 Y-63.294 I-14.192 J10.574
G1 X134.057 Y-63.926
G3 X133.872 Y-64.307 I0.691 J-0.571
G2 X133.779 Y-64.711 I-17.294 J3.762
G3 X134.205 Y-65.7 I0.871 J-0.211
G2 X135.008 Y-66.188 I-8.784 J-15.364
G3 X136.035 Y-65.629 I0.361 J0.56
G1 Y-64.81
X136.031 Y-64.739 Z-15.992
X136.019 Y-64.67 Z-15.984
X136.001 Y-64.605 Z-15.961
X135.976 Y-64.543 Z-15.937
X135.948 Y-64.49 Z-15.899
X135.915 Y-64.439 Z-15.861
X135.85 Y-64.362 Z-15.761
X135.794 Y-64.312 Z-15.641
X135.756 Y-64.284 Z-15.506
X135.743 Y-64.276 Z-15.365
Z5
X132.204 Y-26.086
Z-7.165
X132.217 Y-26.079 Z-7.304 F1500
X132.257 Y-26.057 Z-7.435
X132.32 Y-26.021 Z-7.554
X132.402 Y-25.971 Z-7.654
X132.499 Y-25.907 Z-7.73
X132.605 Y-25.832 Z-7.78
X132.713 Y-25.747 Z-7.8
G3 X128.877 Y-21.091 Z-8.131 I-1.918 J2.328
X132.713 Y-25.747 Z-8.462 I1.918 J-2.328
X128.877 Y-21.091 Z-8.793 I-1.918 J2.328
X132.713 Y-25.747 Z-9.124 I1.918 J-2.328
X128.877 Y-21.091 Z-9.455 I-1.918 J2.328
X132.713 Y-25.747 Z-9.785 I1.918 J-2.328
X128.877 Y-21.091 Z-10.116 I-1.918 J2.328
X132.713 Y-25.747 Z-10.447 I1.918 J-2.328
X128.877 Y-21.091 Z-10.778 I-1.918 J2.328
X132.713 Y-25.747 Z-11.109 I1.918 J-2.328
X128.877 Y-21.091 Z-11.44 I-1.918 J2.328
X132.713 Y-25.747 Z-11.771 I1.918 J-2.328
X128.877 Y-21.091 Z-12.102 I-1.918 J2.328
X132.713 Y-25.747 Z-12.433 I1.918 J-2.328
X128.877 Y-21.091 Z-12.764 I-1.918 J2.328
X132.713 Y-25.747 Z-13.094 I1.918 J-2.328
X128.877 Y-21.091 Z-13.425 I-1.918 J2.328
X132.713 Y-25.747 Z-13.756 I1.918 J-2.328
X128.877 Y-21.091 Z-14.087 I-1.918 J2.328
X132.713 Y-25.747 Z-14.418 I1.918 J-2.328
X128.877 Y-21.091 Z-14.749 I-1.918 J2.328
X132.713 Y-25.747 Z-15.08 I1.918 J-2.328
X128.877 Y-21.091 Z-15.411 I-1.918 J2.328
X132.713 Y-25.747 Z-15.742 I1.918 J-2.328
X130.795 Y-20.402 Z-16 I-1.918 J2.328
G1 X130.204 F2000
G3 X129.903 Y-21.316 I0 J-0.506
G1 X130.097 Y-21.459
G2 X130.496 Y-21.76 I-13.206 J-17.889
G3 X131.497 Y-21.269 I0.38 J0.492
G1 Y-21.07
G3 X130.83 Y-20.402 I-0.668 J0
G1 X130.795
G2 X128.223 Y-18.688 I0 J2.786
G3 X125.652 Y-16.973 I-2.572 J-1.072
G1 X99.939
G3 X99.566 Y-17.92 I0 J-0.547
G1 X99.743 Y-18.086
G3 X100.044 Y-18.222 I0.343 J0.358
G2 X105.458 Y-18.793 I-10.799 J-128.403
X110.765 Y-20.008 I-3.47 J-27.357
G3 X111.28 Y-20.063 I0.382 J1.139
G2 X115.353 Y-19.77 I5.792 J-52.08
X119.421 Y-20.124 I0.561 J-17.082
X125.673 Y-22.492 I-4.435 J-21.154
X130.954 Y-26.592 I-11.597 J-20.385
X134.006 Y-30.047 I-37.777 J-36.45
G3 X134.926 Y-29.724 I0.404 J0.323
G1 Y-18.19
G3 X133.71 Y-16.973 I-1.217 J0
G1 X125.652
G2 X123.08 Y-15.259 I0 J2.786
G3 X120.508 Y-13.544 I-2.572 J-1.072
G1 X90.099
G3 X89.776 Y-14.448 I0 J-0.51
G2 X91.045 Y-15.606 I-10.002 J-12.235
X92.189 Y-16.886 I-12.88 J-12.66
G3 X92.677 Y-17.287 I1.224 J0.993
G2 X95.158 Y-18.775 I-12.267 J-23.255
X97.405 Y-20.596 I-9.511 J-14.038
G3 X99.71 Y-21.636 I2.609 J2.71
G2 X104.817 Y-22.152 I-10.447 J-128.869
X109.818 Y-23.308 I-2.901 J-23.941
G3 X111.466 Y-23.493 I1.233 J3.554
G2 X115.091 Y-23.2 I6.648 J-59.774
X118.716 Y-23.484 I0.713 J-14.173
X127.43 Y-27.964 I-3.793 J-18.091
X133.728 Y-35.469 I-25.673 J-27.941
X137.258 Y-44.231 I-21.538 J-13.767
X137.107 Y-53.675 I-21.909 J-4.374
X136.133 Y-56.412 I-12.528 J2.919
X134.819 Y-59.003 I-93.531 J45.788
X133.606 Y-60.827 I-9.371 J4.916
G1 X132.205 Y-62.524
G3 X131.621 Y-63.733 I2.172 J-1.794
G2 X131.145 Y-65.49 I-15.934 J3.377
G3 X131.826 Y-67.074 I1.24 J-0.405
G2 X137.437 Y-71.269 I-7.535 J-15.926
G3 X138.356 Y-70.918 I0.393 J0.351
G1 Y-14.736
G3 X137.163 Y-13.544 I-1.192 J0
G1 X120.508
X120.437 Y-13.548 Z-15.992
X120.367 Y-13.56 Z-15.984
X120.303 Y-13.578 Z-15.961
X120.241 Y-13.603 Z-15.937
X120.187 Y-13.631 Z-15.899
X120.137 Y-13.664 Z-15.861
X120.06 Y-13.728 Z-15.761
X120.01 Y-13.785 Z-15.641
X119.982 Y-13.823 Z-15.506
X119.973 Y-13.836 Z-15.365
Z5
X43.954 Y-10.191
Z-7.165
X43.939 Y-10.192 Z-7.304 F1500
X43.894 Y-10.196 Z-7.435
X43.822 Y-10.203 Z-7.554
X43.726 Y-10.216 Z-7.654
X43.611 Y-10.235 Z-7.73
X43.484 Y-10.261 Z-7.78
X43.351 Y-10.295 Z-7.8
G3 X44.974 Y-16.105 Z-8.131 I0.812 J-2.905
X43.351 Y-10.295 Z-8.462 I-0.812 J2.905
X44.974 Y-16.105 Z-8.793 I0.812 J-2.905
X43.351 Y-10.295 Z-9.124 I-0.812 J2.905
X44.974 Y-16.105 Z-9.455 I0.812 J-2.905
X43.351 Y-10.295 Z-9.785 I-0.812 J2.905
X44.974 Y-16.105 Z-10.116 I0.812 J-2.905
X43.351 Y-10.295 Z-10.447 I-0.812 J2.905
X44.974 Y-16.105 Z-10.778 I0.812 J-2.905
X43.351 Y-10.295 Z-11.109 I-0.812 J2.905
X44.974 Y-16.105 Z-11.44 I0.812 J-2.905
X43.351 Y-10.295 Z-11.771 I-0.812 J2.905
X44.974 Y-16.105 Z-12.102 I0.812 J-2.905
X43.351 Y-10.295 Z-12.433 I-0.812 J2.905
X44.974 Y-16.105 Z-12.764 I0.812 J-2.905
X43.351 Y-10.295 Z-13.094 I-0.812 J2.905
X44.974 Y-16.105 Z-13.425 I0.812 J-2.905
X43.351 Y-10.295 Z-13.756 I-0.812 J2.905
X44.974 Y-16.105 Z-14.087 I0.812 J-2.905
X43.351 Y-10.295 Z-14.418 I-0.812 J2.905
X44.974 Y-16.105 Z-14.749 I0.812 J-2.905
X43.351 Y-10.295 Z-15.08 I-0.812 J2.905
X44.974 Y-16.105 Z-15.411 I0.812 J-2.905
X43.351 Y-10.295 Z-15.742 I-0.812 J2.905
X42.942 Y-15.959 Z-16 I0.812 J-2.905
G1 X43.116 Y-16.034 F2000
G3 X44.026 Y-15.894 I0.342 J0.809
G2 X44.829 Y-15.242 I14.907 J-17.549
X45.665 Y-14.632 I11.034 J-14.24
G3 X45.391 Y-13.751 I-0.273 J0.398
G1 X37.776
G3 X37.715 Y-14.48 I0 J-0.367
G2 X40.005 Y-14.938 I-6.497 J-38.446
X42.233 Y-15.642 I-3.348 J-14.476
X42.675 Y-15.836 I-3.091 J-7.634
G3 X42.942 Y-15.959 I4.716 J9.931
G2 X44.043 Y-17.794 I-0.752 J-1.699
G3 X45.959 Y-18.75 I1.154 J-0.085
G2 X49.356 Y-16.23 I17.322 J-19.803
X54.459 Y-14.214 I8.046 J-12.899
X58.517 Y-13.857 I3.685 J-18.673
X62.585 Y-14.058 I-1.343 J-68.564
X63.78 Y-14.233 I-0.714 J-9.016
G3 X64.979 Y-14.373 I1.315 J6.093
X65.624 Y-14.248 I0.029 J1.576
G2 X70.618 Y-13.097 I5.753 J-13.554
X75.713 Y-13.641 I0.84 J-16.263
G3 X76.281 Y-13.688 I0.412 J1.521
G2 X83.16 Y-14.394 I1.712 J-17.193
X89.001 Y-18.095 I-4.005 J-12.779
X89.338 Y-18.489 I-5.083 J-4.687
G3 X89.664 Y-18.894 I27.998 J22.17
X91.2 Y-20.155 I3.891 J3.174
G2 X93.661 Y-21.678 I-10.289 J-19.381
X95.828 Y-23.596 I-8.05 J-11.277
G3 X98.562 Y-24.812 I2.763 J2.531
G2 X107.833 Y-26.042 I-0.292 J-37.741
X108.32 Y-26.196 I-1.228 J-4.743
G3 X108.8 Y-26.369 I8.776 J23.487
X111.759 Y-26.706 I2.218 J6.325
G2 X114.904 Y-26.423 I8.25 J-74.176
X118.054 Y-26.641 I0.788 J-11.488
X125.597 Y-30.619 I-3.181 J-15.173
X131.01 Y-37.206 I-24.818 J-25.912
X134.078 Y-44.776 I-18.837 J-12.04
X133.965 Y-52.943 I-18.744 J-3.826
X132.233 Y-57.042 I-12.737 J2.968
X129.59 Y-60.623 I-28.823 J18.511
G3 X128.5 Y-62.892 I3.838 J-3.239
G2 X128.166 Y-64.32 I-20.344 J4.005
X127.684 Y-65.704 I-10.099 J2.742
X127.168 Y-66.679 I-6.19 J2.656
G3 X126.587 Y-67.616 I32.366 J-20.709
X127.099 Y-68.827 I0.698 J-0.419
G2 X133.136 Y-71.58 I-3.846 J-16.43
X137.397 Y-76.666 I-7.927 J-10.97
X138.419 Y-79.77 I-11.213 J-5.414
X138.75 Y-83.021 I-18.844 J-3.557
G3 X139.93 Y-84.183 I1.18 J0.019
G1 X140.389
G3 X141.582 Y-82.99 I0 J1.192
G1 Y-11.51
G3 X140.389 Y-10.318 I-1.192 J0
G1 X28.896
G3 X28.561 Y-11.226 I0 J-0.516
G2 X30.36 Y-12.945 I-14.232 J-16.697
X31.892 Y-14.905 I-10.307 J-9.63
G3 X32.953 Y-15.871 I2.364 J1.532
G2 X33.998 Y-16.481 I-5.953 J-11.41
X34.985 Y-17.18 I-7.952 J-12.272
G3 X36.312 Y-17.74 I1.722 J2.229
G2 X38.668 Y-18.119 I-8.772 J-61.973
X40.961 Y-18.783 I-2.064 J-11.424
X42.043 Y-19.278 I-5.077 J-12.54
X43.09 Y-19.844 I-11.525 J-22.539
G3 X45.029 Y-19.603 I0.809 J1.414
G2 X45.959 Y-18.75 I18.252 J-18.95
X49.129 Y-18.43 I1.81 J-2.07
G3 X52.313 Y-18.544 I1.701 J2.991
G2 X56.475 Y-17.338 I5.737 J-12.012
X60.24 Y-17.312 I1.995 J-16.747
X63.983 Y-17.725 I-43.088 J-408.291
G3 X64.436 Y-17.775 I8.646 J75.306
X64.891 Y-17.804 I0.549 J5.052
X66.98 Y-17.401 I0.095 J5.124
G2 X70.935 Y-16.512 I4.444 J-10.522
X74.96 Y-16.994 I0.537 J-12.543
G3 X76.473 Y-17.12 I1.066 J3.687
G2 X81.871 Y-17.57 I1.586 J-13.565
X86.477 Y-20.422 I-2.819 J-9.698
X86.827 Y-20.834 I-4.87 J-4.49
G1 X87.118 Y-21.207
G3 X89.424 Y-23.101 I5.389 J4.211
G2 X91.589 Y-24.367 I-9.169 J-18.155
X93.471 Y-26.023 I-5.373 J-8.006
X94.051 Y-26.737 I-9.37 J-8.201
X94.599 Y-27.477 I-46.526 J-35.007
G3 X96.601 Y-28.33 I1.715 J1.248
G2 X99.558 Y-28.239 I1.903 J-13.884
X102.483 Y-28.679 I-1.506 J-19.982
G3 X105.141 Y-29.078 I4.033 J17.788
G2 X107.769 Y-29.646 I-0.74 J-9.795
G3 X111.906 Y-30.143 I3.129 J8.572
G2 X114.623 Y-29.855 I30.456 J-273.84
X117.35 Y-29.999 I0.898 J-8.873
X120.801 Y-31.31 I-2.431 J-11.594
X123.714 Y-33.578 I-6.481 J-11.332
X126.761 Y-37.018 I-38.653 J-37.295
X129.156 Y-40.939 I-13.399 J-10.878
X130.72 Y-45.186 I-33.366 J-14.696
X131.057 Y-49.699 I-10.104 J-3.023
X129.587 Y-54.466 I-15.769 J2.25
X126.799 Y-58.602 I-16.394 J8.045
G3 X125.178 Y-61.977 I5.001 J-4.478
G2 X123.426 Y-66.409 I-11.203 J1.866
X120.172 Y-69.892 I-12.17 J8.11
X119.895 Y-70.085 I-2.276 J2.959
G3 X119.616 Y-70.276 I2.701 J-4.26
X119.5 Y-71.245 I0.394 J-0.539
G1 X119.512 Y-71.259
G3 X120.006 Y-71.496 I0.51 J0.43
G2 X124.908 Y-71.798 I-1.646 J-66.762
X129.609 Y-73.223 I-1.235 J-12.54
X133.445 Y-76.738 I-4.93 J-9.231
X135.333 Y-81.586 I-10.635 J-6.935
X135.369 Y-84.071 I-8.164 J-1.361
X134.893 Y-86.51 I-21.757 J2.984
G3 X135.752 Y-87.616 I0.859 J-0.219
G1 X143.797 Y-87.615
G3 X145.014 Y-86.398 I0 J1.217
G1 Y-8.102
G3 X143.797 Y-6.886 I-1.217 J0
G1 X8.102
G3 X6.885 Y-8.102 I0 J-1.217
G1 Y-12.629
G3 X7.944 Y-13.253 I0.713 J0
X8.647 Y-12.799 I-3.105 J5.592
G2 X9.343 Y-12.334 I5.119 J-6.907
X13.992 Y-10.314 I10.025 J-16.708
X19.057 Y-10.119 I2.928 J-10.202
X24.787 Y-12.486 I-3.321 J-16.16
X29.111 Y-16.93 I-7.853 J-11.967
G3 X31.198 Y-18.83 I4.36 J2.693
G2 X32.031 Y-19.298 I-4.011 J-8.108
X32.817 Y-19.843 I-6.211 J-9.795
G3 X35.984 Y-21.16 I4.126 J5.454
G2 X38.788 Y-21.702 I-3.991 J-28.196
X41.438 Y-22.764 I-2.436 J-9.914
X42.477 Y-23.458 I-4.623 J-8.045
X43.442 Y-24.252 I-11.771 J-15.282
G3 X45.281 Y-24.274 I0.932 J1.061
X46.599 Y-22.865 I-5.106 J6.097
