(mammoth smoothing 2.0)
(T5  D=12.7 CR=0.5 TAPER=5deg - ZMIN=-32.736 - tapered mill)
G90 G94
G17
G21
(When using Fusion 360 for Personal Use, the feedrate of)
(rapid moves is reduced to match the feedrate of cutting)
(moves, which can increase machining time. Unrestricted rapid)
(moves are available with a Fusion 360 Subscription.)
G28 G91 Z0
G90

(Parallel1)
T5
S15000 M3
G54
G0 X239.973 Y-148.507
Z15
G1 Z-24.478 F2000
Z-25.208 F333.3
G18 G3 X238.704 Z-26.478 I-1.27 K0 F2000
G1 X232.488 Z-26.481
X230.614 Z-26.587
X230.368 Z-26.612
X229.273 Z-26.786
X228.171 Z-26.909
X227.022 Z-27.153
X224.905 Z-27.494
X223.739 Z-27.624
X222.633 Z-27.8
X221.288 Z-27.986
X219.788 Z-28.09
X218.843 Z-28.145
X216.572 Z-28.507
X215.933 Z-28.574
X215.144 Z-28.615
X215.042 Z-28.639
X214.85 Z-28.729
X213.272 Z-28.982
X212.151 Z-29.116
X211.843 Z-29.143
X210.753 Z-29.148
X210.647 Z-29.171
X210.235 Z-29.366
X208.826 Z-29.593
X207.646 Z-29.348
X207.056 Z-29.217
X206.117 Z-29.05
X205.36 Z-28.9
X204.916 Z-28.796
X204.535 Z-28.669
X204.12 Z-28.493
X203.549 Z-28.219
X203.104 Z-28.037
X202.387 Z-27.723
X201.923 Z-27.497
X201.714 Z-27.368
X201.436 Z-27.158
X201.128 Z-26.892
X200.598 Z-26.392
X200.29 Z-26.096
X199.543 Z-25.405
X199.26 Z-25.162
X198.53 Z-24.62
X198.174 Z-24.385
X197.896 Z-24.23
X197.413 Z-23.999
X196.774 Z-23.725
X196.273 Z-23.538
X195.61 Z-23.325
X195.209 Z-23.21
X194.744 Z-23.087
X194.167 Z-22.968
X192.939 Z-22.755
X192.288 Z-22.64
X191.449 Z-22.532
X190.695 Z-22.462
X188.816 Z-22.362
X187.989 Z-22.349
X186.654 Z-22.352
X185.2 Z-22.393
X184.343
X183.203 Z-22.294
X182.308 Z-22.243
X180.481 Z-22.16
X176.758 Z-21.963
X175.935 Z-21.949
X174.51 Z-21.953
X172.935 Z-22.001
X170.782 Z-22.145
X169.908 Z-22.168
X166.757 Z-22.167
X165.949 Z-21.952
X165.193 Z-21.792
X164.479 Z-21.447
X164.379 Z-21.419
X164.216 Z-21.411
X163.796 Z-21.409
X163.493 Z-21.326
X163.004 Z-21.165
X162.255 Z-20.905
X162.152 Z-20.879
X161.698 Z-20.749
X161.124 Z-20.618
X160.717 Z-20.521
X159.986 Z-20.353
X159.833 Z-20.344
X158.737 Z-20.342
X158.055 Z-20.299
X157.441 Z-20.24
X156.398 Z-20.112
X155.615 Z-19.989
X154.386 Z-19.861
X153.313 Z-19.801
X151.926 Z-19.749
X148.642 Z-19.586
X147.549 Z-19.565
X146.281 Z-19.564
X146.06 Z-19.538
X145.65 Z-19.433
X144.873 Z-19.229
X143.615 Z-18.962
X142.928 Z-18.853
X142.109 Z-18.759
X140.858 Z-18.628
X139.659 Z-18.559
X139.113 Z-18.52
X138.272 Z-18.342
X137.095 Z-18.155
X135.985 Z-18.093
X135.051 Z-17.988
X134.748 Z-17.946
X134.011 Z-17.84
X133.006 Z-17.738
X132.374 Z-17.673
X129.327 Z-17.264
X128.43 Z-17.17
X126.989 Z-17.036
X126.211 Z-16.993
X124.336 Z-16.95
X121.537 Z-16.94
X120.619 Z-16.847
X119.008 Z-16.678
X117.307 Z-16.552
X116.695 Z-16.535
X115.857 Z-16.503
X115.228 Z-16.477
X114.498 Z-16.483
X114.216 Z-16.48
X112.632 Z-16.475
X111.584 Z-16.486
X110.235 Z-16.529
X109.413 Z-16.565
X108.627 Z-16.584
X108.303 Z-16.595
X107.373 Z-16.6
X106.605 Z-16.632
X105.28 Z-16.709
X104.39 Z-16.797
X101.369 Z-17.106
X97.654 Z-17.446
X96.862 Z-17.495
X95.401 Z-17.552
X94.601 Z-17.615
X93.214 Z-17.749
X91.482 Z-17.931
X90.992 Z-17.969
X90.198 Z-18.022
X88.366 Z-18.13
X87.591 Z-18.183
X86.338 Z-18.301
X85.411 Z-18.356
X84.433 Z-18.45
X83.895 Z-18.503
X82.162 Z-18.646
X81.292 Z-18.701
X79.763 Z-18.744
X78.75 Z-18.748
X78.64 Z-18.774
X78.266 Z-18.951
X77.175 Z-19.122
X76.697 Z-19.184
X75.677 Z-19.267
X74.648 Z-19.278
X73.608 Z-19.283
X72.262 Z-19.36
X71.388 Z-19.441
X69.172 Z-19.679
X67.881 Z-19.786
X67.128 Z-19.834
X66.491 Z-19.882
X65.313 Z-20.07
X63.979 Z-20.254
X62.71 Z-20.344
X62.147 Z-20.348
X61.542 Z-20.412
X59.506 Z-20.736
X59.133 Z-20.781
X58.07 Z-20.868
X57.352 Z-20.878
X55.65 Z-20.881
X55.54 Z-20.907
X54.993 Z-21.169
X54.302 Z-21.246
X52.709 Z-21.356
X51.375 Z-21.411
X50.21
X50.102 Z-21.422
X49.971 Z-21.47
X49.442 Z-21.723
X48.781 Z-21.822
X47.944 Z-21.944
X46.865 Z-21.946
X46.74 Z-21.974
X46.378 Z-22.103
X45.046 Z-22.241
X43.757 Z-22.322
X42.83 Z-22.344
X40.265 Z-22.346
X40.138 Z-22.374
X39.543 Z-22.656
X39.187 Z-22.776
X38.955 Z-22.829
X38.759 Z-22.844
X38.139 Z-22.872
X37.425 Z-22.878
X35.85 Z-22.881
X35.74 Z-22.907
X35.141 Z-23.19
X34.477 Z-23.289
X33.804 Z-23.385
X33.254 Z-23.41
X31.448 Z-23.415
X31.365 Z-23.432
X31.242 Z-23.485
X30.783 Z-23.707
X29.557 Z-23.897
X28.933 Z-23.944
X27.11
X27.04 Z-23.949
X26.975 Z-23.962
X26.847 Z-24.016
X26.343 Z-24.256
X26.103 Z-24.338
X25.961 Z-24.371
X24.987 Z-24.464
X24.329 Z-24.478
X22.71
X22.601 Z-24.49
X22.47 Z-24.537
X21.942 Z-24.789
X21.281 Z-24.889
X20.662 Z-24.98
X19.812 Z-25.011
X18.245 Z-25.015
X18.183 Z-25.027
X18.084 Z-25.064
X17.543 Z-25.322
X16.933 Z-25.414
X16.118 Z-25.532
X15.886 Z-25.544
X13.2 Z-25.546
X10.774 Z-25.934
X10.585 Z-25.969
X9.421 Z-26.085
X9.236 Z-26.145
X8.795 Z-26.303
X8.36 Z-26.357
X7.278 Z-26.473
X7.005 Z-26.478
X3.97 Z-26.479
X3.876 Z-26.496
X3.747 Z-26.549
X3.245 Z-26.79
X2.917 Z-26.9
X2.762 Z-26.94
X2.605 Z-26.97
X1.755 Z-27.014
X1.653 Z-27.036
X1.45 Z-27.129
X-0.004 Z-27.364
G3 X-0.385 Z-27.308 I-0.101 K0.627
G1 X-0.427 Z-27.287
G2 X-0.706 Z-27.222 I-0.279 K-0.57
G17 G2 X-0.706 Y-148.107 I0 J0.2
G1 X-0.67
G18 G3 X-0.391 Z-27.287 I0 K-0.635
G2 X-0.01 Z-27.344 I0.279 K0.57
G1 X1.535 Z-27.094
X1.601 Z-27.062
X1.732 Z-27.019
X2.643 Z-26.966
X2.774 Z-26.94
X2.929 Z-26.9
X3.258 Z-26.79
X3.76 Z-26.549
X3.888 Z-26.496
X3.983 Z-26.479
X7.115 Z-26.478
X7.315 Z-26.469
X8.026 Z-26.389
X8.84 Z-26.29
X9.301 Z-26.126
X9.441 Z-26.084
X10.489 Z-25.973
X10.703 Z-25.926
X12.956 Z-25.559
X13.093 Z-25.544
X15.846
X16.174 Z-25.522
X16.803 Z-25.428
X17.604 Z-25.301
X18.152 Z-25.04
X18.263 Z-25.015
X19.614 Z-25.011
X20.68 Z-24.973
X21.203 Z-24.894
X22.004 Z-24.767
X22.552 Z-24.507
X22.663 Z-24.481
X24.376 Z-24.478
X25.072 Z-24.456
X25.946 Z-24.367
X26.194 Z-24.312
X26.37 Z-24.251
X26.952 Z-23.974
X27.063 Z-23.948
X28.85 Z-23.944
X29.477 Z-23.893
X30.869 Z-23.672
X31.352 Z-23.44
X31.463 Z-23.415
X33.071 Z-23.411
X33.424 Z-23.403
X33.88 Z-23.373
X34.403 Z-23.294
X35.204 Z-23.167
X35.752 Z-22.907
X35.863 Z-22.881
X37.476 Z-22.878
X38.147 Z-22.871
X38.762 Z-22.842
X38.996 Z-22.822
X39.191 Z-22.779
X39.57 Z-22.651
X40.152 Z-22.374
X40.263 Z-22.348
X42.724 Z-22.344
X43.464 Z-22.324
X44.841 Z-22.231
X45.803 Z-22.124
X46.519 Z-22.055
X46.76 Z-21.971
X46.878 Z-21.946
X47.955 Z-21.943
X48.703 Z-21.828
X49.504 Z-21.701
X50.053 Z-21.44
X50.179 Z-21.413
X51.285 Z-21.411
X52.584 Z-21.356
X54.157 Z-21.24
X55.112 Z-21.117
X55.552 Z-20.907
X55.663 Z-20.881
X57.342 Z-20.878
X58.001 Z-20.869
X58.981 Z-20.782
X59.448 Z-20.723
X61.443 Z-20.404
X61.907 Z-20.348
X62.568 Z-20.344
X63.861 Z-20.246
X64.975 Z-20.084
X66.283 Z-19.877
X68.542 Z-19.703
X69.688 Z-19.562
X71.626 Z-19.351
X72.847 Z-19.281
X73.923 Z-19.278
X75.785 Z-19.249
X76.421 Z-19.197
X76.89 Z-19.144
X78.352 Z-18.916
X78.516 Z-18.836
X78.677 Z-18.766
X78.758 Z-18.748
X79.493 Z-18.744
X80.755 Z-18.706
X81.995 Z-18.618
X83.611 Z-18.471
X84.854 Z-18.341
X85.933 Z-18.278
X87.107 Z-18.158
X88.623 Z-18.052
X90.206 Z-17.941
X91.022 Z-17.877
X91.451 Z-17.82
X92.597 Z-17.687
X93.564 Z-17.56
X94.532 Z-17.465
X95.5 Z-17.378
X96.291 Z-17.336
X97.183 Z-17.322
X98.573 Z-17.257
X100.006 Z-17.122
X104.508 Z-16.655
X105.292 Z-16.578
X106.631 Z-16.501
X107.374 Z-16.47
X108.288 Z-16.465
X109.213 Z-16.426
X110.337 Z-16.373
X111.467 Z-16.339
X112.51 Z-16.33
X114.106 Z-16.346
X115.013 Z-16.307
X115.681 Z-16.306
X116.445 Z-16.341
X117.086 Z-16.37
X117.734 Z-16.408
X118.482 Z-16.484
X119.133 Z-16.538
X119.825 Z-16.618
X120.537 Z-16.711
X121.255 Z-16.792
X123.431 Z-16.809
X124.883 Z-16.83
X126.384 Z-16.893
X127.188 Z-16.944
X129.038 Z-17.13
X132.579 Z-17.606
X133.572 Z-17.714
X134.291 Z-17.795
X134.968 Z-17.904
X135.748 Z-18.012
X136.571 Z-18.102
X137.473 Z-18.153
X138.586 Z-18.329
X139.015 Z-18.416
X140.306 Z-18.524
X141.384 Z-18.595
X142.291 Z-18.69
X143.088 Z-18.789
X143.774 Z-18.907
X145.294 Z-19.232
X145.76 Z-19.355
X146.157 Z-19.45
X146.399 Z-19.484
X147.432 Z-19.494
X148.816 Z-19.528
X150.028 Z-19.589
X152.523 Z-19.746
X153.535 Z-19.789
X154.521 Z-19.85
X155.803 Z-19.983
X156.174 Z-20.037
X157 Z-20.166
X157.494 Z-20.194
X158.405 Z-20.254
X159.24 Z-20.342
X159.939 Z-20.348
X160.714 Z-20.512
X161.031 Z-20.568
X161.608 Z-20.686
X162.075 Z-20.807
X162.532 Z-20.937
X162.959 Z-21.057
X163.495 Z-21.179
X164.016 Z-21.301
X164.825 Z-21.548
X165.207 Z-21.652
X166.1 Z-21.833
X166.667 Z-21.992
X169.946 Z-21.984
X170.996 Z-21.958
X173.153 Z-21.857
X174.531 Z-21.837
X176.132
X176.916 Z-21.856
X177.721 Z-21.907
X179.185 Z-22.01
X181.261 Z-22.143
X183.032 Z-22.225
X183.597 Z-22.27
X184.05 Z-22.277
X185.371 Z-22.281
X186.617 Z-22.24
X187.889 Z-22.236
X188.766 Z-22.247
X190.13 Z-22.315
X190.984 Z-22.372
X191.731 Z-22.453
X192.408 Z-22.557
X193.135 Z-22.692
X194.168 Z-22.882
X194.745 Z-23.001
X195.21 Z-23.124
X196.434 Z-23.517
X196.886 Z-23.681
X197.819 Z-24.086
X198.102 Z-24.234
X198.642 Z-24.58
X199.001 Z-24.822
X199.293 Z-25.043
X199.938 Z-25.606
X200.292 Z-25.932
X200.888 Z-26.502
X201.337 Z-26.9
X201.513 Z-27.031
X201.884 Z-27.251
X202.393 Z-27.518
X203.095 Z-27.85
X203.571 Z-28.056
X204.092 Z-28.307
X204.609 Z-28.532
X205.029 Z-28.679
X206.537 Z-29.006
X207.21 Z-29.14
X207.789 Z-29.278
X209.027 Z-29.551
X210.287 Z-29.347
X210.652 Z-29.174
X210.763 Z-29.148
X211.641 Z-29.144
X211.908 Z-29.141
X213.131 Z-28.982
X214.923 Z-28.696
X215.057 Z-28.639
X215.158 Z-28.615
X215.656 Z-28.586
X216.456 Z-28.504
X218.698 Z-28.145
X219.679 Z-28.088
X221.182 Z-27.978
X222.304 Z-27.813
X223.505 Z-27.623
X224.667 Z-27.493
X226.783 Z-27.152
X227.938 Z-26.907
X229.044 Z-26.784
X230.144 Z-26.609
X230.585 Z-26.568
X232.118 Z-26.48
X238.71 Z-26.478
G2 X238.989 Z-26.413 I0 K0.635
G3 X239.269 Z-26.348 I0.279 K-0.57
G17 G3 X239.269 Y-147.707 I0 J0.2
G18 G2 X238.989 Z-26.413 I0 K-0.635
G3 X238.71 Z-26.478 I-0.279 K0.57
G1 X231.753 Z-26.481
X230.455 Z-26.556
X229.923 Z-26.612
X228.876 Z-26.78
X227.748 Z-26.905
X226.594 Z-27.15
X224.425 Z-27.497
X223.316 Z-27.62
X221.201 Z-27.955
X220.933 Z-27.983
X219.638 Z-28.085
X218.584 Z-28.145
X216.354 Z-28.503
X215.448 Z-28.599
X215.174 Z-28.619
X215.045 Z-28.658
X212.985 Z-28.987
X211.86 Z-29.144
X210.803 Z-29.148
X210.69 Z-29.174
X210.363 Z-29.33
X209.23 Z-29.513
X207.993 Z-29.225
X207.407 Z-29.075
X205.329 Z-28.623
X205.034 Z-28.532
X204.614 Z-28.371
X204.009 Z-28.094
X203.526 Z-27.864
X202.868 Z-27.546
X202.281 Z-27.236
X201.733 Z-26.916
X201.306 Z-26.638
X201.014 Z-26.426
X200.795 Z-26.23
X200.495 Z-25.942
X200.18 Z-25.653
X199.454 Z-25.02
X199.117 Z-24.759
X198.852 Z-24.581
X198.356 Z-24.263
X197.934 Z-24.034
X197.644 Z-23.9
X197.203 Z-23.714
X196.548 Z-23.469
X195.234 Z-23.042
X194.664 Z-22.896
X194.086 Z-22.776
X192.753 Z-22.507
X192.067 Z-22.387
X191.323 Z-22.292
X190.563 Z-22.227
X188.972 Z-22.144
X188.018 Z-22.134
X186.727 Z-22.138
X185.659 Z-22.171
X184.938 Z-22.197
X183.47 Z-22.195
X181.696 Z-22.109
X180.554 Z-22.031
X178.033 Z-21.823
X177.263 Z-21.762
X176.484 Z-21.731
X174.736 Z-21.713
X173.414 Z-21.718
X171.898 Z-21.76
X169.86 Z-21.795
X168.245 Z-21.804
X167.831 Z-21.814
X166.557 Z-21.811
X165.884 Z-21.67
X165.131 Z-21.48
X164.193 Z-21.195
X163.621 Z-21.055
X162.992 Z-20.922
X162.781 Z-20.88
X162.192 Z-20.724
X161.549 Z-20.602
X160.756 Z-20.476
X159.176 Z-20.248
X158.374 Z-20.166
X157.519 Z-20.109
X156.64 Z-20.079
X156.045 Z-19.987
X154.561 Z-19.832
X153.58 Z-19.77
X153.096 Z-19.744
X151.208 Z-19.6
X149.631 Z-19.494
X148.259 Z-19.427
X147.107 Z-19.398
X146.482 Z-19.391
X146.209 Z-19.347
X145.205 Z-19.127
X143.738 Z-18.813
X143.29 Z-18.734
X142.573 Z-18.635
X141.773 Z-18.551
X141.171 Z-18.505
X139.86 Z-18.39
X138.414 Z-18.248
X137.802 Z-18.153
X137.028 Z-18.105
X136.054 Z-17.994
X135.179 Z-17.864
X134.557 Z-17.754
X133.76 Z-17.657
X132.989 Z-17.566
X131.013 Z-17.301
X129.118 Z-17.038
X127.717 Z-16.884
X126.405 Z-16.775
X125.009 Z-16.694
X123.55 Z-16.659
X121.009 Z-16.624
X120.701 Z-16.595
X119.513 Z-16.427
X118.071 Z-16.276
X116.896 Z-16.207
X115.965 Z-16.164
X115.169 Z-16.161
X114.481 Z-16.186
X114.171 Z-16.194
X112.475 Z-16.17
X111.048 Z-16.178
X110.384 Z-16.208
X109.009 Z-16.288
X108.461 Z-16.323
X108.06 Z-16.336
X107.206 Z-16.346
X106.307 Z-16.39
X105.23 Z-16.454
X103.721 Z-16.603
X100.823 Z-16.914
X99.09 Z-17.093
X97.824 Z-17.139
X97.316 Z-17.149
X96.559 Z-17.158
X95.849 Z-17.193
X95.097 Z-17.256
X94.01 Z-17.361
X93.055 Z-17.484
X92.339 Z-17.586
X91.284 Z-17.728
X90.868 Z-17.788
X88.56 Z-17.994
X87.014 Z-18.114
X85.859 Z-18.23
X85.592 Z-18.253
X84.459 Z-18.325
X82.925 Z-18.483
X81.825 Z-18.594
X80.393 Z-18.708
X79.321 Z-18.744
X78.803 Z-18.748
X78.69 Z-18.774
X78.472 Z-18.875
X76.794 Z-19.138
X76.162 Z-19.211
X75.223 Z-19.242
X73.316 Z-19.278
X72.262 Z-19.281
X71.072 Z-19.349
X69.587 Z-19.515
X68.292 Z-19.686
X66.123 Z-19.872
X63.971 Z-20.211
X63.652 Z-20.248
X62.428 Z-20.344
X61.695 Z-20.349
X61.178 Z-20.426
X59.27 Z-20.73
X58.39 Z-20.829
X57.957 Z-20.87
X57.408 Z-20.878
X55.705 Z-20.881
X55.597 Z-20.905
X55.263 Z-21.063
X53.976 Z-21.238
X52.472 Z-21.356
X51.262 Z-21.411
X50.217 Z-21.413
X50.087 Z-21.442
X49.593 Z-21.675
X49.49 Z-21.7
X48.015 Z-21.933
X47.908 Z-21.944
X46.905 Z-21.948
X46.776 Z-21.979
X46.682 Z-22.011
X45.841 Z-22.084
X44.753 Z-22.21
X43.231 Z-22.327
X42.609 Z-22.344
X40.31 Z-22.347
X40.197 Z-22.372
X39.61 Z-22.65
X39.213 Z-22.782
X38.999 Z-22.822
X38.718 Z-22.844
X38.176 Z-22.87
X37.488 Z-22.878
X35.903 Z-22.881
X35.79 Z-22.907
X35.307 Z-23.138
X35.232 Z-23.16
X33.956 Z-23.361
X33.503 Z-23.397
X33.103 Z-23.411
X31.537 Z-23.412
X31.433 Z-23.428
X31.335 Z-23.464
X30.994 Z-23.63
X29.332 Z-23.896
X28.788 Z-23.944
X27.103 Z-23.948
X26.99 Z-23.974
X26.386 Z-24.259
X26.285 Z-24.29
X25.946 Z-24.364
X25.132 Z-24.451
X24.279 Z-24.478
X22.713 Z-24.48
X22.622 Z-24.497
X22.497 Z-24.55
X22.093 Z-24.742
X22.017 Z-24.762
X20.728 Z-24.963
X19.509 Z-25.011
X18.334 Z-25.012
X18.232 Z-25.028
X18.134 Z-25.065
X17.696 Z-25.277
X17.56 Z-25.305
X16.279 Z-25.505
X15.868 Z-25.54
X14.009 Z-25.544
X12.919 Z-25.548
X10.616 Z-25.924
X10.355 Z-25.984
X9.484 Z-26.084
X9.343 Z-26.125
X8.951 Z-26.266
X8.767 Z-26.298
X8.208 Z-26.363
X6.849 Z-26.478
X4.036
X3.933 Z-26.494
X3.835 Z-26.531
X3.31 Z-26.785
X3.008 Z-26.888
X2.854 Z-26.932
X2.697 Z-26.963
X1.778 Z-27.018
X1.643 Z-27.058
X-0.01 Z-27.326
G3 X-0.391 Z-27.269 I-0.101 K0.627
G1 X-0.418 Z-27.256
G2 X-0.697 Z-27.191 I-0.279 K-0.57
G17 G2 X-0.697 Y-147.307 I0 J0.2
G1 X-0.67
G18 G3 X-0.391 Z-27.256 I0 K-0.635
G2 X-0.01 Z-27.312 I0.279 K0.57
G1 X1.804 Z-27.019
X2.414 Z-26.979
X2.978 Z-26.917
X3.031 Z-26.901
X3.36 Z-26.791
X3.673 Z-26.641
X3.97 Z-26.503
X4.088 Z-26.48
X6.446 Z-26.478
X7.511 Z-26.387
X9.054 Z-26.25
X9.511 Z-26.092
X10.213 Z-26.001
X10.564 Z-25.917
X12.835 Z-25.548
X15.606 Z-25.543
X15.98 Z-25.529
X16.408 Z-25.485
X17.614 Z-25.295
X17.8 Z-25.256
X18.261 Z-25.039
X18.372 Z-25.014
X19.443 Z-25.011
X20.59 Z-24.964
X21.017 Z-24.919
X22.022 Z-24.76
X22.213 Z-24.718
X22.655 Z-24.508
X22.77 Z-24.481
X24.118 Z-24.478
X25.206 Z-24.44
X25.942 Z-24.364
X26.198 Z-24.314
X26.47 Z-24.251
X27.061 Z-23.973
X27.176 Z-23.947
X28.714 Z-23.944
X29.133 Z-23.907
X31.159 Z-23.582
X31.389 Z-23.47
X31.52 Z-23.423
X31.632 Z-23.411
X33.127
X33.576 Z-23.391
X34.061 Z-23.344
X35.214 Z-23.161
X35.413 Z-23.119
X35.855 Z-22.908
X35.97 Z-22.881
X37.55 Z-22.878
X38.18 Z-22.869
X38.91 Z-22.832
X39.164 Z-22.799
X39.37 Z-22.754
X39.665 Z-22.654
X40.265 Z-22.371
X40.373 Z-22.348
X42.517 Z-22.344
X43.025 Z-22.33
X44.736 Z-22.18
X45.631 Z-22.076
X46.355 Z-22.003
X46.834 Z-21.978
X46.965 Z-21.948
X47.557 Z-21.944
X47.942 Z-21.937
X48.154 Z-21.911
X49.529 Z-21.692
X49.713 Z-21.651
X50.155 Z-21.441
X50.27 Z-21.415
X51.246 Z-21.411
X52.371 Z-21.357
X53.83 Z-21.234
X55.441 Z-21.006
X55.655 Z-20.908
X55.77 Z-20.881
X57.409 Z-20.878
X57.897 Z-20.872
X58.04 Z-20.861
X59.209 Z-20.718
X61.537 Z-20.348
X62.086 Z-20.344
X62.426 Z-20.335
X63.455 Z-20.251
X63.882 Z-20.2
X65.649 Z-19.919
X66.142 Z-19.848
X68.1 Z-19.669
X69.386 Z-19.486
X70.643 Z-19.346
X71.767 Z-19.282
X72.865 Z-19.278
X74.821 Z-19.235
X75.959 Z-19.19
X76.76 Z-19.124
X78.643 Z-18.826
X78.755 Z-18.775
X78.87 Z-18.748
X79.151 Z-18.744
X79.993 Z-18.714
X81.706 Z-18.567
X83.172 Z-18.392
X84.184 Z-18.291
X85.509 Z-18.215
X86.126 Z-18.152
X87.754 Z-17.998
X89.757 Z-17.774
X91.309 Z-17.613
X91.89 Z-17.525
X93.426 Z-17.294
X94.381 Z-17.171
X95.35 Z-17.076
X96.085 Z-17.023
X96.981 Z-16.979
X97.741 Z-16.971
X99.36 Z-16.937
X99.996 Z-16.879
X100.627 Z-16.798
X101.899 Z-16.655
X103.931 Z-16.438
X105.28 Z-16.321
X106.496 Z-16.25
X107.228 Z-16.216
X107.958 Z-16.207
X108.63 Z-16.163
X109.417 Z-16.093
X110.805 Z-16.013
X111.446 Z-15.984
X112.227 Z-15.98
X113.631 Z-16.017
X114.602 Z-16.041
X115.336 Z-16.03
X116.086 Z-16.038
X117.446 Z-16.107
X118.237 Z-16.161
X119.986 Z-16.347
X120.44 Z-16.413
X120.587 Z-16.427
X121.16 Z-16.445
X122.089 Z-16.454
X123.182 Z-16.48
X125.158 Z-16.55
X127.002 Z-16.692
X128.139 Z-16.809
X129.208 Z-16.941
X131.424 Z-17.259
X134.004 Z-17.608
X134.747 Z-17.708
X135.326 Z-17.813
X135.864 Z-17.903
X136.197 Z-17.924
X136.923 Z-17.977
X138.442 Z-18.127
X140.175 Z-18.312
X140.803 Z-18.358
X141.515 Z-18.415
X142.206 Z-18.501
X142.939 Z-18.596
X143.812 Z-18.732
X144.153 Z-18.803
X144.776 Z-18.909
X145.091 Z-18.973
X145.706 Z-19.115
X146.408 Z-19.272
X147.311 Z-19.296
X148.51 Z-19.335
X150.505 Z-19.473
X152.28 Z-19.631
X153.583 Z-19.743
X154.592 Z-19.813
X155.865 Z-19.949
X156.302 Z-19.978
X156.882 Z-20
X157.781 Z-20.037
X158.663 Z-20.106
X159.462 Z-20.199
X160.351 Z-20.339
X160.819 Z-20.396
X161.245 Z-20.445
X161.878 Z-20.553
X162.508 Z-20.684
X162.835 Z-20.765
X163.311 Z-20.844
X163.757 Z-20.935
X164.327 Z-21.082
X164.787 Z-21.226
X165.388 Z-21.406
X166.257 Z-21.627
X168.029 Z-21.624
X168.592 Z-21.606
X171.324 Z-21.587
X172.462 Z-21.589
X173.909 Z-21.58
X175.232 Z-21.588
X176.772 Z-21.632
X177.559 Z-21.674
X179.874 Z-21.886
X181.486 Z-22.028
X183.426 Z-22.143
X184.499 Z-22.149
X186.257 Z-22.071
X187.239 Z-22.045
X189.002
X189.733 Z-22.067
X190.86 Z-22.135
X191.609 Z-22.211
X192.298 Z-22.311
X193.141 Z-22.468
X194.428 Z-22.725
X195.023 Z-22.883
X195.597 Z-23.053
X196.24 Z-23.261
X197.543 Z-23.752
X197.885 Z-23.902
X198.499 Z-24.23
X198.824 Z-24.412
X199.133 Z-24.62
X199.724 Z-25.08
X200.213 Z-25.48
X200.598 Z-25.836
X200.99 Z-26.138
X201.499 Z-26.497
X202.089 Z-26.881
X202.693 Z-27.24
X203.244 Z-27.538
X203.939 Z-27.888
X204.686 Z-28.241
X205.378 Z-28.502
X205.856 Z-28.628
X206.871 Z-28.851
X207.603 Z-29.014
X208.318 Z-29.204
X209.424 Z-29.477
X210.466 Z-29.312
X210.755 Z-29.175
X210.87 Z-29.148
X211.84 Z-29.144
X212.84 Z-28.997
X215.157 Z-28.627
X216.271 Z-28.503
X218.513 Z-28.144
X219.573 Z-28.084
X220.796 Z-27.981
X221.17 Z-27.936
X223.204 Z-27.612
X224.258 Z-27.497
X226.427 Z-27.15
X227.565 Z-26.908
X228.75 Z-26.772
X229.792 Z-26.606
X230.272 Z-26.551
X231.487 Z-26.481
X238.71 Z-26.478
G2 X238.989 Z-26.413 I0 K0.635
G3 X239.269 Z-26.348 I0.279 K-0.57
G17 G3 X239.269 Y-146.907 I0 J0.2
G18 G2 X238.989 Z-26.413 I0 K-0.635
G3 X238.71 Z-26.478 I-0.279 K0.57
G1 X231.228 Z-26.482
X230.082 Z-26.548
X229.605 Z-26.614
X228.705 Z-26.756
X227.445 Z-26.905
X226.32 Z-27.145
X224.151 Z-27.494
X223.725 Z-27.538
X223.387 Z-27.566
X222.899 Z-27.638
X221.111 Z-27.924
X220.529 Z-27.994
X219.528 Z-28.083
X218.452 Z-28.145
X216.226 Z-28.502
X215.112 Z-28.625
X212.52 Z-29.04
X211.843 Z-29.144
X210.98 Z-29.147
X210.875 Z-29.167
X210.697 Z-29.242
X210.597 Z-29.291
X209.622 Z-29.448
X208.317 Z-29.105
X207.605 Z-28.907
X206.884 Z-28.746
X206.115 Z-28.576
X205.623 Z-28.446
X205.297 Z-28.337
X204.917 Z-28.188
X204.306 Z-27.897
X203.836 Z-27.663
X203.149 Z-27.286
X202.662 Z-26.992
X202.093 Z-26.625
X201.448 Z-26.182
X200.978 Z-25.84
X200.645 Z-25.588
X200.138 Z-25.208
X199.386 Z-24.623
X199.028 Z-24.392
X198.709 Z-24.198
X198.237 Z-23.944
X197.766 Z-23.717
X197.323 Z-23.526
X196.423 Z-23.183
X196.096 Z-23.063
X195.149 Z-22.772
X194.787 Z-22.679
X193.526 Z-22.427
X192.325 Z-22.203
X191.636 Z-22.101
X190.888 Z-22.024
X190.019 Z-21.97
X189.32 Z-21.952
X187.62 Z-21.954
X186.579 Z-21.982
X184.538 Z-22.08
X183.305 Z-22.077
X181.631 Z-21.957
X180.338 Z-21.836
X178.372 Z-21.64
X177.519 Z-21.563
X176.109 Z-21.48
X174.976 Z-21.443
X173.815 Z-21.432
X172.758 Z-21.426
X171.527 Z-21.399
X169.612 Z-21.389
X168.58 Z-21.405
X167.347 Z-21.423
X165.998 Z-21.431
X165.214 Z-21.214
X164.408 Z-20.955
X163.992 Z-20.844
X162.844 Z-20.649
X161.953 Z-20.459
X161.583 Z-20.398
X160.838 Z-20.312
X160.328 Z-20.249
X159.439 Z-20.11
X158.64 Z-20.017
X157.756 Z-19.95
X156.599 Z-19.892
X156.096 Z-19.857
X155.299 Z-19.782
X154.559 Z-19.745
X153.907 Z-19.734
X152.777 Z-19.623
X150.772 Z-19.409
X149.484 Z-19.3
X148.715 Z-19.239
X147.388 Z-19.176
X146.674 Z-19.148
X146.336 Z-19.14
X145.861 Z-19.027
X145.3 Z-18.889
X144.669 Z-18.768
X142.913 Z-18.483
X142.024 Z-18.346
X141.331 Z-18.268
X140.539 Z-18.214
X140.066 Z-18.174
X139.13 Z-18.057
X138.381 Z-17.983
X136.891 Z-17.839
X136.115 Z-17.785
X135.486 Z-17.765
X134.785 Z-17.638
X130.474 Z-17.007
X128.797 Z-16.757
X127.503 Z-16.611
X126.16 Z-16.479
X125.255 Z-16.405
X124.05 Z-16.335
X122.347 Z-16.262
X120.4 Z-16.25
X120.168 Z-16.238
X118.228 Z-16.031
X117.435 Z-15.977
X116.176 Z-15.912
X114.539 Z-15.879
X112.448 Z-15.788
X111.77 Z-15.793
X110.98 Z-15.831
X109.788 Z-15.901
X108.957 Z-15.983
X108.525 Z-16.024
X107.893 Z-16.078
X107.114 Z-16.09
X105.404 Z-16.175
X104.329 Z-16.25
X103.117 Z-16.371
X100.975 Z-16.61
X100.117 Z-16.733
X99.626 Z-16.77
X98.415 Z-16.793
X97.529 Z-16.797
X96.759 Z-16.831
X95.595 Z-16.898
X94.763 Z-16.979
X93.797 Z-17.105
X91.467 Z-17.448
X90.381 Z-17.555
X89.426 Z-17.678
X88.965 Z-17.74
X87.962 Z-17.87
X87.238 Z-17.98
X85.876 Z-18.134
X84.58 Z-18.226
X83.575 Z-18.284
X82.129 Z-18.457
X81.194 Z-18.58
X79.745 Z-18.717
X78.946 Z-18.751
X78.814 Z-18.777
X77.273 Z-19.022
X76.168 Z-19.125
X75.012 Z-19.205
X74.45 Z-19.23
X72.545 Z-19.278
X71.395 Z-19.282
X70.252 Z-19.347
X69.106 Z-19.473
X67.872 Z-19.658
X66.104 Z-19.831
X65.723 Z-19.885
X63.828 Z-20.187
X63.308 Z-20.252
X62.523 Z-20.324
X61.839 Z-20.344
X61.401 Z-20.348
X59.082 Z-20.718
X57.9 Z-20.874
X57.375 Z-20.878
X55.865 Z-20.881
X55.747 Z-20.909
X55.638 Z-20.958
X55.069 Z-21.025
X53.784 Z-21.217
X53.138 Z-21.285
X52.318 Z-21.357
X51.279 Z-21.411
X50.365 Z-21.415
X50.247 Z-21.442
X49.83 Z-21.637
X49.222 Z-21.742
X48.163 Z-21.906
X47.701 Z-21.933
X47.203 Z-21.944
X47.037 Z-21.952
X46.057 Z-21.998
X45.27 Z-22.087
X44.683 Z-22.155
X42.788 Z-22.335
X42.464 Z-22.344
X40.465 Z-22.348
X40.347 Z-22.376
X39.776 Z-22.646
X39.421 Z-22.758
X39.159 Z-22.807
X38.91 Z-22.835
X38.193 Z-22.87
X37.534 Z-22.878
X36.066 Z-22.881
X35.976 Z-22.9
X35.857 Z-22.949
X35.53 Z-23.104
X35.015 Z-23.193
X34.126 Z-23.334
X33.659 Z-23.384
X33.094 Z-23.411
X31.665 Z-23.415
X31.547 Z-23.442
X31.365 Z-23.527
X28.901 Z-23.927
X28.723 Z-23.944
X27.278 Z-23.947
X27.179 Z-23.965
X26.987 Z-24.05
X26.634 Z-24.219
X26.511 Z-24.258
X26.061 Z-24.347
X25.742 Z-24.387
X25.414 Z-24.417
X24.899 Z-24.444
X24.031 Z-24.478
X22.929
X22.86 Z-24.482
X22.743 Z-24.51
X22.381 Z-24.683
X20.909 Z-24.919
X20.482 Z-24.963
X19.372 Z-25.011
X18.465 Z-25.015
X18.347 Z-25.042
X17.93 Z-25.237
X17.322 Z-25.342
X16.355 Z-25.489
X15.937 Z-25.529
X15.23 Z-25.543
X12.79 Z-25.547
X10.508 Z-25.917
X10.112 Z-26.019
X9.601 Z-26.093
X9.359 Z-26.178
X7.406 Z-26.363
X6.073 Z-26.478
X4.171 Z-26.481
X4.052 Z-26.507
X3.464 Z-26.787
X3.281 Z-26.844
X2.097 Z-26.998
X1.756 Z-27.018
X-0.01 Z-27.303
G3 X-0.391 Z-27.247 I-0.101 K0.627
G1 X-0.4 Z-27.242
G2 X-0.679 Z-27.178 I-0.279 K-0.57
G17 G2 X-0.679 Y-146.507 I0 J0.2
G1 X-0.67
G18 G3 X-0.391 Z-27.242 I0 K-0.635
G2 X-0.01 Z-27.299 I0.279 K0.57
G1 X1.679 Z-27.026
X1.96 Z-26.998
X3.639 Z-26.763
X3.879 Z-26.646
X4.184 Z-26.505
X4.312 Z-26.479
X5.75 Z-26.478
X7.335 Z-26.336
X7.874 Z-26.282
X9.671 Z-26.103
X10.026 Z-26.044
X10.469 Z-25.921
X12.765 Z-25.547
X14.923 Z-25.543
X16.1 Z-25.514
X16.569 Z-25.46
X18.105 Z-25.214
X18.4 Z-25.072
X18.537 Z-25.024
X18.657 Z-25.011
X19.365
X20.337 Z-24.966
X20.765 Z-24.924
X22.617 Z-24.628
X22.867 Z-24.51
X22.99 Z-24.482
X23.9 Z-24.478
X24.628 Z-24.449
X25.568 Z-24.389
X26.644 Z-24.242
X26.776 Z-24.208
X27.268 Z-23.977
X27.39 Z-23.948
X28.738 Z-23.944
X29.123 Z-23.877
X31.591 Z-23.474
X31.706 Z-23.431
X31.802 Z-23.414
X33.098 Z-23.411
X33.655 Z-23.385
X34.135 Z-23.332
X35.706 Z-23.08
X35.981 Z-22.948
X36.097 Z-22.901
X36.19 Z-22.882
X37.561 Z-22.878
X38.207 Z-22.87
X38.956 Z-22.835
X39.266 Z-22.8
X39.511 Z-22.756
X39.917 Z-22.639
X40.469 Z-22.376
X40.591 Z-22.348
X42.487 Z-22.344
X42.674 Z-22.335
X44.513 Z-22.143
X45.769 Z-21.995
X46.164 Z-21.976
X47.632 Z-21.924
X48.352 Z-21.877
X50.012 Z-21.612
X50.287 Z-21.479
X50.407 Z-21.431
X50.48 Z-21.416
X50.557 Z-21.411
X51.251
X52.269 Z-21.359
X52.816 Z-21.309
X53.8 Z-21.195
X54.931 Z-21.018
X55.867 Z-20.91
X56.006 Z-20.88
X57.85 Z-20.876
X58.965 Z-20.721
X61.296 Z-20.348
X61.69 Z-20.344
X62.478 Z-20.317
X62.696 Z-20.303
X63.627 Z-20.196
X65.971 Z-19.826
X67.839 Z-19.621
X69.04 Z-19.437
X69.855 Z-19.347
X71.03 Z-19.281
X72.156 Z-19.278
X73.899 Z-19.231
X74.576 Z-19.193
X76.28 Z-19.059
X77.351 Z-18.952
X78.14 Z-18.867
X78.868 Z-18.752
X79.5 Z-18.721
X81.113 Z-18.546
X81.595 Z-18.478
X83.073 Z-18.28
X84.104 Z-18.221
X85.648 Z-18.098
X86.941 Z-17.926
X87.752 Z-17.787
X88.8 Z-17.631
X89.638 Z-17.512
X90.64 Z-17.377
X91.596 Z-17.28
X93.76 Z-16.976
X94.77 Z-16.832
X95.713 Z-16.742
X96.898 Z-16.671
X97.737 Z-16.63
X98.495 Z-16.621
X98.832 Z-16.611
X99.507 Z-16.599
X100.223 Z-16.575
X100.479 Z-16.545
X101.682 Z-16.374
X103.48 Z-16.171
X104.615 Z-16.062
X105.3 Z-16.03
X107.138 Z-15.96
X107.902 Z-15.948
X108.093 Z-15.928
X109.446 Z-15.779
X110.32 Z-15.698
X111.639 Z-15.624
X112.36 Z-15.613
X113.009 Z-15.62
X114.877 Z-15.724
X116.16 Z-15.765
X118.114 Z-15.887
X119.6 Z-16.033
X120.099 Z-16.059
X122.409 Z-16.07
X123.7 Z-16.134
X125.33 Z-16.244
X126.23 Z-16.332
X128.051 Z-16.535
X129.044 Z-16.663
X132.264 Z-17.155
X133.634 Z-17.371
X134.987 Z-17.596
X135.778 Z-17.621
X136.443 Z-17.656
X137.821 Z-17.79
X139.474 Z-17.952
X140.186 Z-18.052
X140.489 Z-18.075
X141.223 Z-18.126
X142.011 Z-18.215
X143.101 Z-18.383
X144.836 Z-18.668
X145.465 Z-18.797
X146.176 Z-18.981
X146.432 Z-19.031
X147.083 Z-19.046
X147.868 Z-19.088
X149.329 Z-19.177
X150.236 Z-19.272
X150.926 Z-19.337
X151.725 Z-19.429
X153.219 Z-19.614
X153.56 Z-19.637
X153.976 Z-19.641
X154.876 Z-19.655
X155.809 Z-19.701
X156.659 Z-19.788
X157.461 Z-19.839
X158.607 Z-19.928
X159.406 Z-20.019
X160.38 Z-20.169
X161.476 Z-20.298
X162.217 Z-20.409
X162.888 Z-20.551
X163.935 Z-20.726
X164.525 Z-20.845
X165.704 Z-21.219
X166.178 Z-21.203
X167.444 Z-21.19
X169.427 Z-21.161
X171.768 Z-21.208
X172.883 Z-21.249
X174.363 Z-21.268
X175.566 Z-21.303
X176.874 Z-21.385
X177.877 Z-21.47
X181.529 Z-21.857
X183.054 Z-21.989
X184.895 Z-21.994
X185.359 Z-21.966
X186.904 Z-21.885
X187.7 Z-21.859
X189.229 Z-21.856
X190.138 Z-21.873
X190.972 Z-21.92
X191.614 Z-21.986
X192.303 Z-22.086
X193.873 Z-22.379
X194.714 Z-22.546
X195.328 Z-22.682
X195.751 Z-22.81
X196.568 Z-23.066
X197.658 Z-23.477
X198.058 Z-23.661
X198.719 Z-24.015
X198.904 Z-24.119
X199.981 Z-24.801
X200.226 Z-24.988
X201.093 Z-25.623
X201.5 Z-25.934
X202.258 Z-26.48
X202.871 Z-26.895
X203.399 Z-27.226
X203.936 Z-27.539
X204.484 Z-27.832
X204.948 Z-28.055
X205.324 Z-28.214
X205.708 Z-28.349
X206.272 Z-28.504
X207.262 Z-28.721
X207.783 Z-28.845
X208.285 Z-28.996
X209.804 Z-29.418
X210.728 Z-29.269
X210.747 Z-29.261
X210.958 Z-29.179
X211.088 Z-29.149
X211.845 Z-29.144
X215.054 Z-28.63
X216.215 Z-28.5
X218.427 Z-28.144
X219.517 Z-28.082
X219.997 Z-28.036
X220.975 Z-27.924
X222.446 Z-27.69
X223.309 Z-27.554
X223.66 Z-27.531
X224.04 Z-27.495
X226.209 Z-27.146
X227.34 Z-26.905
X228.7 Z-26.736
X229.387 Z-26.628
X229.945 Z-26.542
X231.063 Z-26.48
X238.71 Z-26.478
G2 X238.989 Z-26.413 I0 K0.635
G3 X239.269 Z-26.348 I0.279 K-0.57
G17 G3 X239.269 Y-146.107 I0 J0.2
G18 G2 X238.989 Z-26.413 I0 K-0.635
G3 X238.71 Z-26.478 I-0.279 K0.57
G1 X230.921 Z-26.479
X229.768 Z-26.545
X228.622 Z-26.727
X227.268 Z-26.905
X226.143 Z-27.145
X223.974 Z-27.493
X223.655 Z-27.522
X223.17 Z-27.552
X220.927 Z-27.912
X219.706 Z-28.064
X218.968 Z-28.112
X218.423 Z-28.144
X216.184 Z-28.503
X215.108 Z-28.621
X211.868 Z-29.144
X211.266 Z-29.147
X211.117 Z-29.176
X210.863 Z-29.255
X210.354 Z-29.33
X209.982 Z-29.39
X208.603 Z-28.991
X208.002 Z-28.799
X207.743 Z-28.733
X206.701 Z-28.506
X205.827 Z-28.27
X205.399 Z-28.112
X205.025 Z-27.948
X204.428 Z-27.643
X203.971 Z-27.38
X203.534 Z-27.108
X203.055 Z-26.791
X202.357 Z-26.292
X201.407 Z-25.567
X200.367 Z-24.813
X199.917 Z-24.524
X199.248 Z-24.103
X198.162 Z-23.518
X197.948 Z-23.422
X197.472 Z-23.234
X196.971 Z-23.045
X196.461 Z-22.885
X195.731 Z-22.661
X194.962 Z-22.479
X194.279 Z-22.343
X192.341 Z-21.979
X191.864 Z-21.909
X191.06 Z-21.83
X190.245 Z-21.781
X189.4 Z-21.759
X187.697 Z-21.762
X186.882 Z-21.789
X185.462 Z-21.866
X185.079 Z-21.886
X182.723 Z-21.875
X181.348 Z-21.735
X178.039 Z-21.349
X177.351 Z-21.273
X175.735 Z-21.14
X174.009 Z-21.074
X172.977 Z-21.063
X171.492 Z-21.001
X170.028 Z-20.943
X169.499 Z-20.925
X168.547 Z-20.938
X166.745 Z-20.94
X166.179 Z-20.964
X165.754 Z-20.984
X165.411 Z-20.991
X164.94 Z-20.841
X164.368 Z-20.702
X163.706 Z-20.579
X162.9 Z-20.446
X162.597 Z-20.384
X161.697 Z-20.242
X160.235 Z-20.057
X159.202 Z-19.906
X158.308 Z-19.798
X157.542 Z-19.736
X156.726 Z-19.686
X156.133 Z-19.631
X154.891 Z-19.57
X153.955 Z-19.555
X153.466 Z-19.549
X153.133 Z-19.537
X151.975 Z-19.379
X151.205 Z-19.279
X149.738 Z-19.124
X147.544 Z-18.96
X146.59 Z-18.91
X146.197 Z-18.856
X145.491 Z-18.674
X144.914 Z-18.553
X144.24 Z-18.429
X142.912 Z-18.217
X141.996 Z-18.076
X141.304 Z-17.993
X140.58 Z-17.94
X140.157 Z-17.91
X139.634 Z-17.854
X138.956 Z-17.781
X137.247 Z-17.582
X136.553 Z-17.508
X135.848 Z-17.467
X135.12 Z-17.438
X134.495 Z-17.404
X132.531 Z-17.069
X128.72 Z-16.47
X128.082 Z-16.391
X126.279 Z-16.176
X125.647 Z-16.098
X123.984 Z-15.956
X122.452 Z-15.877
X121.696 Z-15.872
X120.13 Z-15.867
X119.446 Z-15.851
X118.9 Z-15.816
X118.312 Z-15.766
X117.519 Z-15.711
X116.318 Z-15.622
X115.146 Z-15.561
X114.299 Z-15.497
X113.403 Z-15.447
X112.584 Z-15.441
X111.752 Z-15.448
X110.942 Z-15.489
X110.1 Z-15.558
X108.518 Z-15.731
X107.898 Z-15.811
X106.187 Z-15.838
X104.873 Z-15.874
X104.213 Z-15.924
X102.216 Z-16.142
X101.311 Z-16.27
X100.546 Z-16.387
X99.962 Z-16.405
X99.223 Z-16.417
X98.525 Z-16.449
X97.805 Z-16.472
X96.149 Z-16.566
X95.228 Z-16.653
X94.526 Z-16.733
X92.329 Z-17.026
X91.511 Z-17.132
X90.602 Z-17.238
X88.769 Z-17.507
X87.335 Z-17.753
X86.762 Z-17.86
X85.471 Z-18.053
X85.329 Z-18.073
X83.723 Z-18.218
X82.632 Z-18.281
X81.156 Z-18.498
X79.451 Z-18.705
X79.196 Z-18.729
X78.781 Z-18.753
X78.528 Z-18.794
X78.137 Z-18.824
X77.817 Z-18.855
X77.279 Z-18.894
X76.105 Z-19.015
X74.382 Z-19.165
X73.33 Z-19.236
X71.72 Z-19.278
X70.573 Z-19.282
X69.438 Z-19.346
X68.77 Z-19.433
X67.839 Z-19.58
X66.224 Z-19.774
X65.789 Z-19.831
X63.535 Z-20.19
X62.896 Z-20.264
X62.318 Z-20.315
X61.479 Z-20.344
X61.217 Z-20.348
X58.793 Z-20.735
X58.032 Z-20.849
X57.819 Z-20.868
X57.238 Z-20.878
X55.989 Z-20.882
X54.818 Z-21.012
X53.687 Z-21.191
X52.519 Z-21.337
X51.469 Z-21.402
X51.287 Z-21.411
X50.678 Z-21.412
X50.562 Z-21.431
X50.385 Z-21.499
X50.216 Z-21.578
X48.649 Z-21.825
X48.274 Z-21.867
X47.538 Z-21.917
X45.759 Z-21.982
X45.448 Z-22.002
X44.192 Z-22.149
X42.661 Z-22.321
X42.495 Z-22.344
X40.817
X40.747 Z-22.348
X40.618 Z-22.378
X40.071 Z-22.638
X39.582 Z-22.763
X39.258 Z-22.812
X38.94 Z-22.84
X38.302 Z-22.87
X37.605 Z-22.878
X36.381 Z-22.879
X36.237 Z-22.905
X35.983 Z-23.012
X35.905 Z-23.05
X34.073 Z-23.342
X33.672 Z-23.384
X32.917 Z-23.411
X31.973 Z-23.413
X31.849 Z-23.435
X31.782 Z-23.459
X31.481 Z-23.479
X29.162 Z-23.858
X28.713 Z-23.944
X27.617
X27.54 Z-23.949
X27.468 Z-23.963
X27.343 Z-24.011
X27.068 Z-24.144
X26.463 Z-24.234
X25.415 Z-24.383
X24.368 Z-24.455
X23.807 Z-24.478
X23.149 Z-24.482
X23.002 Z-24.518
X22.826 Z-24.588
X22.364 Z-24.657
X20.723 Z-24.92
X20.241 Z-24.967
X19.371 Z-25.011
X18.753 Z-25.014
X18.627 Z-25.042
X18.383 Z-25.146
X18.306 Z-25.183
X16.528 Z-25.465
X16.26 Z-25.496
X14.562 Z-25.544
X12.739 Z-25.549
X10.525 Z-25.907
X10.093 Z-26.022
X8.373 Z-26.19
X7.315 Z-26.307
X5.48 Z-26.478
X4.46 Z-26.48
X4.355 Z-26.5
X4.216 Z-26.558
X3.956 Z-26.68
X3.219 Z-26.787
X1.829 Z-26.998
X1.405 Z-27.061
X0.667 Z-27.152
X-0.01 Z-27.26
G3 X-0.39 Z-27.204 I-0.1 K0.627
G1 X-0.479 Z-27.16
G2 X-0.758 Z-27.095 I-0.279 K-0.57
G17 G2 X-0.758 Y-145.707 I0 J0.2
G1 X-0.667
G18 G3 X-0.387 Z-27.16 I0 K-0.635
G2 X-0.01 Z-27.217 I0.279 K0.57
G1 X0.857 Z-27.082
X1.831 Z-26.97
X3.555 Z-26.7
X4.36 Z-26.579
X4.44 Z-26.539
X4.568 Z-26.494
X4.638 Z-26.482
X4.713 Z-26.478
X5.246
X7.241 Z-26.285
X8.422 Z-26.148
X10.272 Z-25.975
X10.43 Z-25.931
X10.577 Z-25.898
X12.778 Z-25.545
X14.051 Z-25.544
X15.708 Z-25.504
X16.697 Z-25.429
X16.896 Z-25.406
X18.52 Z-25.148
X18.825 Z-25.039
X18.972 Z-25.012
X19.383 Z-25.011
X19.746 Z-24.992
X20.323 Z-24.954
X20.699 Z-24.915
X22.551 Z-24.619
X23.063 Z-24.557
X23.224 Z-24.506
X23.357 Z-24.48
X23.805 Z-24.478
X24.152 Z-24.462
X25.318 Z-24.376
X26.269 Z-24.233
X27.442 Z-24.048
X27.619 Z-23.974
X27.763 Z-23.946
X28.704 Z-23.944
X29.163 Z-23.849
X31.435 Z-23.479
X31.997 Z-23.444
X32.159 Z-23.413
X32.78 Z-23.411
X33.836 Z-23.371
X34.102 Z-23.342
X36.101 Z-23.023
X36.425 Z-22.906
X36.569 Z-22.879
X37.618 Z-22.878
X38.215 Z-22.872
X38.804 Z-22.853
X39.251 Z-22.823
X39.642 Z-22.772
X40.144 Z-22.662
X40.319 Z-22.61
X40.579 Z-22.484
X40.824 Z-22.373
X40.964 Z-22.346
X42.403 Z-22.344
X42.639 Z-22.308
X43.664 Z-22.185
X45.326 Z-21.99
X47.508 Z-21.909
X48.014 Z-21.872
X48.979 Z-21.752
X50.523 Z-21.508
X50.744 Z-21.434
X50.866 Z-21.413
X51.27 Z-21.411
X51.634 Z-21.393
X52.453 Z-21.338
X53.536 Z-21.195
X54.689 Z-21.012
X55.873 Z-20.881
X57.019 Z-20.878
X57.903 Z-20.855
X58.144 Z-20.832
X61.147 Z-20.351
X61.363 Z-20.344
X62.032 Z-20.32
X63.09 Z-20.219
X63.506 Z-20.174
X65.813 Z-19.806
X67.744 Z-19.552
X68.379 Z-19.454
X69.081 Z-19.346
X70.191 Z-19.283
X71.364 Z-19.277
X73.162 Z-19.216
X74.252 Z-19.136
X75.461 Z-19.018
X76.915 Z-18.868
X78.581 Z-18.77
X78.723 Z-18.755
X78.897 Z-18.741
X79.312 Z-18.698
X80.945 Z-18.485
X82.274 Z-18.28
X83.409 Z-18.213
X85.06 Z-18.05
X86.205 Z-17.86
X88.076 Z-17.497
X88.739 Z-17.377
X90.265 Z-17.15
X91.76 Z-16.943
X93.065 Z-16.764
X94.384 Z-16.606
X95.48 Z-16.485
X96.449 Z-16.395
X97.424 Z-16.328
X99.607 Z-16.221
X100.521 Z-16.206
X100.837 Z-16.191
X102.127 Z-15.991
X103.248 Z-15.852
X104.203 Z-15.753
X104.962 Z-15.694
X105.949 Z-15.67
X108.036 Z-15.655
X108.895 Z-15.54
X110.407 Z-15.374
X111.349 Z-15.292
X112.041 Z-15.261
X113.292 Z-15.257
X113.842 Z-15.27
X114.446 Z-15.316
X116.099 Z-15.448
X118.33 Z-15.625
X119.268 Z-15.67
X122.023 Z-15.678
X122.687 Z-15.692
X124.232 Z-15.78
X125.876 Z-15.95
X126.757 Z-16.073
X128.681 Z-16.314
X132.607 Z-16.935
X133.125 Z-17.02
X134.431 Z-17.224
X136.108 Z-17.322
X136.774 Z-17.372
X137.412 Z-17.449
X138.602 Z-17.603
X139.911 Z-17.764
X140.749 Z-17.809
X141.458 Z-17.869
X142.148 Z-17.958
X143.515 Z-18.166
X144.309 Z-18.29
X144.941 Z-18.409
X145.509 Z-18.549
X146.085 Z-18.687
X146.638 Z-18.769
X147.848 Z-18.861
X148.96 Z-18.96
X150.168 Z-19.081
X151.542 Z-19.233
X152.273 Z-19.34
X153.024 Z-19.442
X153.511 Z-19.455
X154.689 Z-19.478
X155.56 Z-19.513
X157.093 Z-19.603
X158.001 Z-19.662
X158.749 Z-19.74
X160.424 Z-19.988
X161.762 Z-20.165
X164.079 Z-20.538
X164.603 Z-20.648
X165.127 Z-20.784
X165.324 Z-20.773
X166.332 Z-20.712
X166.965 Z-20.682
X167.499 Z-20.684
X168.534 Z-20.69
X169.595 Z-20.696
X170.153 Z-20.719
X172.94 Z-20.868
X173.653 Z-20.878
X174.272 Z-20.887
X176.04 Z-20.989
X177.728 Z-21.16
X178.514 Z-21.267
X179.832 Z-21.428
X181.288 Z-21.608
X182.388 Z-21.73
X185.332 Z-21.764
X186.217 Z-21.717
X187.464 Z-21.666
X188.361 Z-21.651
X189.395 Z-21.661
X190.277 Z-21.685
X191.087 Z-21.735
X191.89 Z-21.816
X192.58 Z-21.912
X194.265 Z-22.227
X195.006 Z-22.37
X196.022 Z-22.613
X196.229 Z-22.667
X197.297 Z-22.998
X197.803 Z-23.189
X198.503 Z-23.489
X199.65 Z-24.104
X200.199 Z-24.449
X200.736 Z-24.813
X201.429 Z-25.314
X201.767 Z-25.574
X202.351 Z-26.03
X203.181 Z-26.654
X203.657 Z-26.987
X204.051 Z-27.248
X204.491 Z-27.517
X204.942 Z-27.765
X205.419 Z-27.993
X206.024 Z-28.224
X207.043 Z-28.503
X208.169 Z-28.748
X209.163 Z-29.065
X210.159 Z-29.366
X210.662 Z-29.285
X211.029 Z-29.239
X211.268 Z-29.182
X211.464 Z-29.146
X211.885 Z-29.144
X215.112 Z-28.625
X216.173 Z-28.504
X218.422 Z-28.144
X219.138 Z-28.102
X219.646 Z-28.066
X220.748 Z-27.919
X223.032 Z-27.554
X223.669 Z-27.515
X223.995 Z-27.482
X226.111 Z-27.142
X227.212 Z-26.906
X228.44 Z-26.735
X229.639 Z-26.545
X230.746 Z-26.482
X238.71 Z-26.478
G2 X238.989 Z-26.413 I0 K0.635
G3 X239.269 Z-26.348 I0.279 K-0.57
G17 G3 X239.269 Y-145.307 I0 J0.2
G18 G2 X238.989 Z-26.413 I0 K-0.635
G3 X238.71 Z-26.478 I-0.279 K0.57
G1 X230.673 Z-26.48
X229.541 Z-26.545
X228.294 Z-26.742
X227.199 Z-26.905
X226.057 Z-27.148
X224.099 Z-27.462
X223.684 Z-27.509
X222.949 Z-27.551
X220.649 Z-27.92
X219.597 Z-28.068
X219.088 Z-28.105
X218.422 Z-28.145
X216.143 Z-28.508
X215.183 Z-28.622
X211.95 Z-29.144
X211.679 Z-29.148
X211.265 Z-29.22
X210.732 Z-29.282
X210.334 Z-29.347
X208.467 Z-28.747
X207.315 Z-28.496
X206.446 Z-28.26
X206.025 Z-28.115
X205.679 Z-27.981
X205.307 Z-27.813
X204.805 Z-27.543
X204.411 Z-27.301
X204.018 Z-27.04
X203.469 Z-26.644
X202.638 Z-26.003
X201.907 Z-25.422
X201.533 Z-25.121
X201.143 Z-24.84
X200.259 Z-24.235
X199.987 Z-24.07
X198.958 Z-23.516
X198.473 Z-23.297
X197.735 Z-22.98
X196.508 Z-22.6
X195.298 Z-22.309
X192.98 Z-21.874
X192.05 Z-21.739
X190.782 Z-21.599
X190.042 Z-21.55
X189.359 Z-21.531
X187.883 Z-21.532
X187.161 Z-21.554
X185.799 Z-21.621
X185.534 Z-21.629
X182.843 Z-21.568
X182.195 Z-21.557
X180.86 Z-21.409
X179.829 Z-21.28
X178.913 Z-21.176
X177.832 Z-21.021
X176.15 Z-20.826
X174.883 Z-20.731
X174.244 Z-20.692
X173.592 Z-20.684
X172.877 Z-20.672
X171.041 Z-20.572
X170.493 Z-20.532
X169.88 Z-20.489
X167.94 Z-20.442
X167.222 Z-20.421
X166.652 Z-20.436
X165.753 Z-20.491
X165.165 Z-20.545
X164.727 Z-20.57
X164.365 Z-20.498
X161.783 Z-20.082
X160.129 Z-19.845
X159.028 Z-19.669
X158.337 Z-19.586
X156.985 Z-19.508
X154.982 Z-19.383
X153.729 Z-19.35
X152.905 Z-19.333
X152.368 Z-19.269
X151.695 Z-19.166
X150.111 Z-18.97
X148.408 Z-18.777
X147.52 Z-18.689
X146.644 Z-18.606
X145.898 Z-18.494
X145.616 Z-18.427
X144.993 Z-18.27
X144.362 Z-18.148
X143.408 Z-18.003
X141.828 Z-17.773
X141.133 Z-17.701
X139.953 Z-17.623
X139.349 Z-17.562
X137.068 Z-17.247
X136.368 Z-17.182
X135.304 Z-17.105
X134.418 Z-17.044
X131.094 Z-16.54
X129.052 Z-16.214
X128.119 Z-16.079
X127.099 Z-15.955
X125.964 Z-15.788
X124.922 Z-15.664
X124.337 Z-15.595
X123.593 Z-15.546
X122.408 Z-15.488
X121.23 Z-15.484
X119.076 Z-15.48
X118.42 Z-15.454
X118.076 Z-15.446
X117.264 Z-15.378
X114.127 Z-15.072
X113.566 Z-15.045
X112.565 Z-15.043
X111.923 Z-15.066
X111.096 Z-15.118
X109.881 Z-15.249
X108.254 Z-15.477
X105.284 Z-15.488
X104.676 Z-15.518
X103.881 Z-15.597
X102.944 Z-15.7
X101.604 Z-15.9
X100.954 Z-16.002
X100.424 Z-16.018
X99.746 Z-16.023
X98.968 Z-16.06
X97.076 Z-16.163
X95.888 Z-16.273
X93.876 Z-16.491
X92.84 Z-16.617
X91.775 Z-16.769
X89.884 Z-17.053
X88.843 Z-17.224
X88.158 Z-17.346
X86.291 Z-17.726
X85.69 Z-17.855
X84.605 Z-18.045
X83.109 Z-18.203
X82.663 Z-18.232
X81.965 Z-18.282
X80.808 Z-18.466
X79.165 Z-18.69
X78.115 Z-18.753
X76.787 Z-18.833
X75.86 Z-18.916
X73.986 Z-19.11
X72.874 Z-19.196
X70.879 Z-19.278
X69.911 Z-19.281
X68.779 Z-19.346
X67.56 Z-19.539
X65.876 Z-19.774
X64.945 Z-19.922
X64.266 Z-20.016
X63.377 Z-20.151
X62.058 Z-20.299
X61.802 Z-20.324
X61.261 Z-20.344
X61.125 Z-20.352
X58.248 Z-20.813
X57.982 Z-20.842
X56.739 Z-20.878
X55.77 Z-20.882
X54.591 Z-21.013
X53.39 Z-21.202
X52.485 Z-21.331
X51.768 Z-21.386
X51.283 Z-21.411
X51.086 Z-21.414
X50.929 Z-21.44
X50.01 Z-21.55
X48.862 Z-21.731
X47.705 Z-21.885
X47.454 Z-21.902
X45.105 Z-21.994
X42.642 Z-22.291
X42.322 Z-22.344
X41.193 Z-22.347
X41.086 Z-22.364
X40.947 Z-22.413
X40.556 Z-22.599
X40.29 Z-22.668
X39.797 Z-22.766
X39.382 Z-22.822
X38.956 Z-22.852
X38.232 Z-22.874
X37.601 Z-22.878
X36.769 Z-22.882
X36.575 Z-22.926
X36.367 Z-22.988
X34.208 Z-23.335
X34.001 Z-23.358
X32.668 Z-23.411
X32.392 Z-23.413
X32.276 Z-23.428
X31.429 Z-23.477
X29.157 Z-23.847
X28.679 Z-23.941
X28.604 Z-23.944
X28.003 Z-23.946
X27.869 Z-23.968
X27.797 Z-23.991
X27.474 Z-24.013
X25.229 Z-24.369
X23.984 Z-24.468
X23.751 Z-24.478
X23.575 Z-24.482
X23.418 Z-24.515
X23.259 Z-24.532
X23.037 Z-24.551
X22.74 Z-24.59
X21.702 Z-24.753
X20.749 Z-24.904
X19.644 Z-24.998
X19.341 Z-25.011
X19.165 Z-25.016
X18.938 Z-25.07
X18.859 Z-25.093
X18.436 Z-25.157
X17.58 Z-25.26
X16.484 Z-25.411
X15.4 Z-25.5
X13.85 Z-25.544
X12.753 Z-25.548
X10.525 Z-25.907
X10.429 Z-25.931
X8.194 Z-26.141
X7.044 Z-26.276
X5.258 Z-26.459
X5.041 Z-26.478
X4.884 Z-26.481
X4.762 Z-26.503
X4.32 Z-26.555
X3.799 Z-26.618
X1.984 Z-26.906
X0.687 Z-27.063
X-0.01 Z-27.174
G3 X-0.39 Z-27.117 I-0.1 K0.627
G2 X-0.669 Z-27.053 I-0.279 K-0.57
G1 X-0.695 Y-145.306 Z-27.052
X-0.721 Y-145.301
X-0.746 Y-145.292 Z-27.05
X-0.77 Y-145.281 Z-27.048
X-0.792 Y-145.266 Z-27.046
X-0.812 Y-145.249 Z-27.043
X-0.83 Y-145.229 Z-27.04
X-0.844 Y-145.207 Z-27.037
X-0.856 Y-145.184 Z-27.033
X-0.865 Y-145.159 Z-27.029
X-0.87 Y-145.134 Z-27.025
X-0.871 Y-145.107 Z-27.021
X-0.87 Y-145.081 Z-27.017
X-0.865 Y-145.056 Z-27.013
X-0.856 Y-145.031 Z-27.009
X-0.844 Y-145.007 Z-27.006
X-0.83 Y-144.986 Z-27.002
X-0.812 Y-144.966 Z-26.999
X-0.792 Y-144.949 Z-26.996
X-0.77 Y-144.934 Z-26.994
X-0.746 Y-144.923 Z-26.992
X-0.721 Y-144.914 Z-26.991
X-0.695 Y-144.909 Z-26.99
X-0.669 Y-144.907
X-0.646
G3 X-0.367 Z-27.055 I0 K-0.635
G2 X-0.01 Z-27.115 I0.279 K0.57
G1 X0.411 Z-27.063
X0.982 Z-26.98
X1.612 Z-26.889
X2.458 Z-26.79
X3.542 Z-26.619
X4.229 Z-26.539
X5.692 Z-26.391
X6.566 Z-26.301
X7.907 Z-26.145
X10.683 Z-25.879
X12.739 Z-25.549
X13.546 Z-25.544
X15.152 Z-25.497
X16.325 Z-25.393
X17.515 Z-25.216
X18.654 Z-25.089
X19.043 Z-25.06
X19.292 Z-25.023
X20.042 Z-24.956
X20.745 Z-24.893
X22.924 Z-24.546
X23.36 Z-24.518
X23.633 Z-24.494
X25.121 Z-24.366
X27.335 Z-24.011
X28.157 Z-23.964
X28.255 Z-23.948
X28.426 Z-23.944
X28.6 Z-23.94
X28.918 Z-23.891
X29.275 Z-23.825
X31.416 Z-23.479
X32.338 Z-23.425
X33.826 Z-23.359
X34.231 Z-23.32
X34.836 Z-23.246
X36.159 Z-23.035
X36.879 Z-22.915
X37.075 Z-22.88
X37.76 Z-22.878
X38.417 Z-22.873
X39.181 Z-22.849
X39.595 Z-22.802
X40.495 Z-22.663
X40.776 Z-22.602
X41.002 Z-22.497
X41.325 Z-22.372
X41.474 Z-22.346
X42.265 Z-22.344
X42.647 Z-22.274
X44.942 Z-21.995
X47.26 Z-21.901
X47.591 Z-21.876
X48.596 Z-21.734
X49.755 Z-21.55
X50.969 Z-21.414
X51.263 Z-21.411
X51.803 Z-21.384
X52.512 Z-21.326
X53.225 Z-21.218
X54.521 Z-21.013
X55.707 Z-20.881
X56.461 Z-20.878
X58.088 Z-20.829
X58.353 Z-20.796
X61.111 Z-20.354
X61.567 Z-20.33
X61.772 Z-20.308
X63.362 Z-20.112
X64.526 Z-19.933
X65.303 Z-19.841
X65.821 Z-19.762
X67.302 Z-19.54
X68.523 Z-19.346
X69.622 Z-19.283
X70.498 Z-19.278
X72.521 Z-19.178
X73.855 Z-19.065
X76.202 Z-18.817
X78.385 Z-18.695
X79.486 Z-18.616
X80.334 Z-18.497
X81.727 Z-18.279
X82.523 Z-18.218
X83.962 Z-18.049
X84.328 Z-18.003
X85.473 Z-17.783
X85.964 Z-17.676
X87.391 Z-17.358
X88.555 Z-17.124
X89.453 Z-16.95
X92.23 Z-16.514
X93.083 Z-16.39
X96.141 Z-16.059
X96.896 Z-15.982
X99.616 Z-15.833
X100.219 Z-15.824
X100.961 Z-15.806
X101.48 Z-15.732
X102.914 Z-15.51
X104.006 Z-15.39
X104.747 Z-15.319
X105.357 Z-15.293
X107.928 Z-15.29
X108.496 Z-15.279
X109.58 Z-15.109
X110.391 Z-14.999
X111.182 Z-14.917
X112.384 Z-14.847
X113.027 Z-14.827
X113.654 Z-14.832
X114.242 Z-14.866
X115.096 Z-14.954
X115.879 Z-15.042
X117.524 Z-15.23
X118.067 Z-15.27
X119.008 Z-15.286
X121.406 Z-15.29
X122.439 Z-15.295
X123.874 Z-15.368
X124.515 Z-15.419
X125.779 Z-15.588
X126.834 Z-15.744
X127.869 Z-15.879
X128.507 Z-15.959
X131.553 Z-16.444
X132.222 Z-16.53
X134.447 Z-16.867
X135.167 Z-16.916
X136.44 Z-17.031
X137.137 Z-17.1
X139.285 Z-17.409
X140.21 Z-17.5
X141.146 Z-17.568
X141.84 Z-17.64
X142.731 Z-17.769
X143.307 Z-17.833
X144.261 Z-17.975
X144.893 Z-18.094
X145.547 Z-18.257
X146.49 Z-18.406
X146.947 Z-18.463
X147.735 Z-18.538
X148.415 Z-18.626
X150.659 Z-18.919
X152.003 Z-19.114
X152.789 Z-19.205
X153.173 Z-19.211
X153.893 Z-19.235
X155.015 Z-19.277
X155.815 Z-19.329
X157.517 Z-19.464
X158.247 Z-19.515
X159.188 Z-19.587
X160.087 Z-19.73
X162.089 Z-20.041
X164.268 Z-20.395
X165.077 Z-20.316
X165.456 Z-20.282
X166.25 Z-20.203
X166.808 Z-20.17
X167.349 Z-20.163
X168.572 Z-20.217
X169.555 Z-20.264
X170.127 Z-20.287
X171.252 Z-20.389
X172.927 Z-20.482
X173.988 Z-20.492
X174.597 Z-20.516
X176.358 Z-20.674
X177.57 Z-20.832
X178.693 Z-20.994
X179.476 Z-21.066
X180.355 Z-21.163
X181.977 Z-21.333
X182.95 Z-21.362
X185.773 Z-21.473
X186.471 Z-21.445
X187.71 Z-21.397
X188.593 Z-21.389
X189.908 Z-21.415
X190.671 Z-21.46
X191.366 Z-21.531
X192.468 Z-21.693
X193.452 Z-21.848
X195.768 Z-22.286
X196.964 Z-22.578
X198.14 Z-22.944
X198.632 Z-23.156
X199.311 Z-23.472
X200.065 Z-23.877
X200.43 Z-24.099
X201.314 Z-24.703
X201.662 Z-24.95
X202.238 Z-25.429
X203.323 Z-26.31
X203.86 Z-26.728
X204.329 Z-27.073
X204.757 Z-27.357
X205.152 Z-27.595
X205.523 Z-27.79
X205.873 Z-27.95
X206.338 Z-28.129
X206.856 Z-28.297
X207.446 Z-28.456
X208.168 Z-28.617
X208.689 Z-28.739
X210.525 Z-29.329
X210.822 Z-29.281
X211.794 Z-29.171
X212.021 Z-29.144
X215.24 Z-28.626
X216.206 Z-28.502
X218.417 Z-28.146
X219.165 Z-28.101
X219.657 Z-28.061
X220.466 Z-27.938
X222.881 Z-27.551
X223.668 Z-27.506
X224.285 Z-27.432
X226.072 Z-27.141
X227.193 Z-26.906
X228.129 Z-26.758
X229.471 Z-26.545
X230.576 Z-26.482
X238.71 Z-26.478
G2 X238.989 Z-26.413 I0 K0.635
G3 X239.269 Z-26.348 I0.279 K-0.57
G17 G3 X239.269 Y-144.507 I0 J0.2
G18 G2 X238.989 Z-26.413 I0 K-0.635
G3 X238.71 Z-26.478 I-0.279 K0.57
G1 X230.555 Z-26.481
X229.43 Z-26.545
X227.179 Z-26.909
X226.303 Z-27.093
X225.354 Z-27.261
X224.202 Z-27.441
X223.641 Z-27.505
X222.833 Z-27.552
X219.681 Z-28.057
X219.306 Z-28.093
X218.452 Z-28.146
X216.214 Z-28.505
X215.345 Z-28.627
X212.06 Z-29.155
X210.925 Z-29.282
X210.701 Z-29.318
X208.821 Z-28.711
X208.407 Z-28.604
X207.575 Z-28.42
X207.042 Z-28.273
X206.489 Z-28.09
X206.06 Z-27.921
X205.604 Z-27.707
X205.248 Z-27.511
X204.855 Z-27.262
X204.47 Z-26.995
X204.012 Z-26.646
X203.462 Z-26.203
X203.011 Z-25.812
X201.734 Z-24.75
X201.344 Z-24.471
X200.902 Z-24.167
X200.273 Z-23.762
X199.902 Z-23.551
X199.713 Z-23.452
X198.695 Z-22.973
X198.473 Z-22.884
X197.296 Z-22.522
X196.092 Z-22.232
X193.304 Z-21.699
X192.124 Z-21.51
X191.27 Z-21.39
X190.113 Z-21.278
X189.302 Z-21.239
X188.509 Z-21.22
X187.691 Z-21.226
X186.444 Z-21.266
X185.882 Z-21.278
X184.784 Z-21.219
X183.364 Z-21.132
X181.9 Z-21.073
X179.944 Z-20.896
X179.04 Z-20.817
X178.328 Z-20.769
X176.869 Z-20.563
X176.045 Z-20.463
X174.811 Z-20.337
X174.221 Z-20.303
X173.534 Z-20.296
X172.867 Z-20.287
X172.063 Z-20.25
X171.569 Z-20.223
X170.417 Z-20.101
X169.313 Z-20.026
X168.734 Z-19.985
X167.59 Z-19.924
X167.035 Z-19.918
X166.465 Z-19.943
X165.823 Z-20.006
X164.838 Z-20.115
X163.83 Z-20.227
X162.074 Z-19.94
X160.677 Z-19.719
X160.105 Z-19.636
X159.694 Z-19.574
X158.767 Z-19.486
X157.639 Z-19.389
X156.385 Z-19.278
X155.578 Z-19.202
X153.707 Z-19.101
X152.853 Z-19.082
X151.751 Z-18.951
X149.886 Z-18.672
X148.55 Z-18.477
X147.914 Z-18.386
X146.742 Z-18.255
X145.476 Z-18.061
X145.189 Z-17.998
X144.4 Z-17.842
X143.818 Z-17.751
X143.285 Z-17.693
X142.76 Z-17.639
X141.816 Z-17.502
X141.066 Z-17.426
X139.252 Z-17.253
X137.206 Z-16.952
X136.045 Z-16.82
X135.09 Z-16.728
X134.483 Z-16.687
X132.481 Z-16.382
X131.409 Z-16.239
X128.912 Z-15.844
X127.988 Z-15.715
X126.852 Z-15.563
X125.517 Z-15.359
X124.424 Z-15.211
X123.812 Z-15.161
X122.586 Z-15.1
X120.738 Z-15.096
X118.142 Z-15.088
X117.747 Z-15.069
X117.074 Z-14.993
X115.597 Z-14.793
X114.264 Z-14.652
X113.679 Z-14.617
X113.15 Z-14.612
X112.545 Z-14.635
X111.39 Z-14.703
X110.619 Z-14.782
X109.761 Z-14.907
X108.618 Z-15.084
X108.021 Z-15.096
X105.329 Z-15.099
X104.725 Z-15.127
X103.531 Z-15.242
X102.696 Z-15.344
X101.722 Z-15.489
X101.002 Z-15.595
X100.512 Z-15.618
X99.84 Z-15.628
X97.158 Z-15.772
X96.376 Z-15.842
X92.972 Z-16.211
X92.036 Z-16.356
X89.736 Z-16.728
X88.839 Z-16.906
X87.097 Z-17.268
X85.033 Z-17.751
X84.071 Z-17.932
X83.824 Z-17.976
X81.997 Z-18.233
X81.507 Z-18.28
X80.617 Z-18.413
X80.194 Z-18.477
X79.407 Z-18.566
X77.99 Z-18.674
X76.071 Z-18.787
X75.599 Z-18.816
X73.13 Z-19.077
X71.473 Z-19.205
X70.126 Z-19.278
X69.43 Z-19.282
X68.317 Z-19.345
X66.877 Z-19.573
X65.645 Z-19.767
X64.815 Z-19.851
X64.196 Z-19.941
X63.254 Z-20.087
X61.372 Z-20.336
X61.104 Z-20.355
X58.616 Z-20.752
X57.818 Z-20.827
X56.275 Z-20.878
X55.649 Z-20.883
X54.48 Z-21.013
X52.534 Z-21.322
X51.828 Z-21.382
X51.288 Z-21.411
X50.739 Z-21.416
X49.574 Z-21.545
X48.172 Z-21.766
X47.554 Z-21.859
X47.175 Z-21.89
X46.656 Z-21.917
X44.838 Z-21.993
X42.542 Z-22.276
X42.201 Z-22.344
X41.809 Z-22.346
X41.639 Z-22.374
X41.201 Z-22.523
X41.102 Z-22.562
X39.622 Z-22.799
X39.143 Z-22.856
X38.446 Z-22.875
X37.16 Z-22.88
X35.838 Z-23.084
X34.099 Z-23.313
X33.62 Z-23.364
X31.974 Z-23.445
X31.414 Z-23.479
X29.174 Z-23.843
X28.612 Z-23.932
X27.212 Z-24.012
X25.001 Z-24.366
X23.531 Z-24.502
X22.804 Z-24.546
X20.586 Z-24.901
X19.28 Z-25.025
X18.409 Z-25.078
X17.436 Z-25.18
X16.214 Z-25.365
X15.403 Z-25.449
X14.909 Z-25.494
X13.343 Z-25.544
X12.74 Z-25.549
X12.419 Z-25.599
X11.691 Z-25.687
X10.722 Z-25.836
X10.254 Z-25.89
X7.72 Z-26.141
X6.803 Z-26.245
X6.008 Z-26.334
X3.987 Z-26.542
X3.358 Z-26.614
X2.754 Z-26.695
X1.695 Z-26.813
X0.451 Z-26.999
X-0.01 Z-27.05
G3 X-0.359 Z-26.989 I-0.069 K0.631
G2 X-0.638 Z-26.924 I-0.279 K-0.57
G1 X-0.665 Y-144.506
X-0.691 Y-144.501 Z-26.923
X-0.716 Y-144.492 Z-26.922
X-0.74 Y-144.481 Z-26.92
X-0.762 Y-144.466 Z-26.918
X-0.782 Y-144.449 Z-26.915
X-0.799 Y-144.429 Z-26.912
X-0.814 Y-144.408 Z-26.908
X-0.826 Y-144.384 Z-26.904
X-0.834 Y-144.359 Z-26.9
X-0.839 Y-144.334 Z-26.896
X-0.841 Y-144.308 Z-26.892
X-0.839 Y-144.281 Z-26.888
X-0.834 Y-144.256 Z-26.884
X-0.826 Y-144.231 Z-26.88
X-0.814 Y-144.208 Z-26.876
X-0.799 Y-144.186 Z-26.872
X-0.782 Y-144.166 Z-26.869
X-0.762 Y-144.149 Z-26.866
X-0.74 Y-144.134 Z-26.864
X-0.716 Y-144.123 Z-26.862
X-0.691 Y-144.114 Z-26.861
X-0.665 Y-144.109 Z-26.86
X-0.638 Y-144.108
X-0.637
G3 X-0.357 Z-26.924 I0 K-0.635
G2 X-0.01 Z-26.986 I0.279 K0.57
G1 X0.405 Z-26.941
X1.29 Z-26.807
X2.053 Z-26.704
X4.554 Z-26.453
X5.861 Z-26.322
X6.925 Z-26.198
X7.401 Z-26.15
X9.146 Z-25.979
X10.612 Z-25.81
X11.724 Z-25.639
X12.496 Z-25.548
X13.157 Z-25.544
X14.521 Z-25.498
X14.968 Z-25.468
X16.164 Z-25.33
X17.212 Z-25.167
X17.929 Z-25.081
X19.505 Z-24.994
X20.498 Z-24.901
X22.717 Z-24.546
X23.425 Z-24.501
X23.769 Z-24.478
X24.914 Z-24.366
X27.118 Z-24.012
X28.636 Z-23.926
X30.953 Z-23.554
X31.487 Z-23.471
X33.473 Z-23.367
X33.903 Z-23.316
X35.582 Z-23.081
X36.877 Z-22.879
X38.2 Z-22.878
X38.968 Z-22.869
X39.227 Z-22.851
X40.075 Z-22.731
X41.344 Z-22.517
X42.484 Z-22.271
X44.741 Z-21.994
X46.506 Z-21.918
X47.257 Z-21.869
X47.576 Z-21.834
X49.427 Z-21.54
X50.567 Z-21.415
X51.29 Z-21.411
X51.891 Z-21.379
X52.541 Z-21.322
X54.477 Z-21.011
X55.644 Z-20.882
X56.096 Z-20.878
X57.41 Z-20.832
X57.858 Z-20.803
X58.974 Z-20.674
X59.864 Z-20.539
X60.489 Z-20.451
X61.183 Z-20.345
X61.487 Z-20.301
X63.065 Z-20.076
X64.356 Z-19.872
X65.072 Z-19.779
X65.825 Z-19.716
X68.145 Z-19.344
X69.247 Z-19.282
X69.755 Z-19.278
X70.716 Z-19.226
X71.305 Z-19.172
X72.874 Z-19.038
X73.463 Z-18.98
X74.343 Z-18.895
X75.13 Z-18.815
X76.087 Z-18.759
X77.789 Z-18.644
X79.083 Z-18.535
X79.571 Z-18.473
X81.357 Z-18.259
X81.783 Z-18.185
X82.824 Z-18.016
X83.839 Z-17.851
X84.791 Z-17.653
X87.117 Z-17.107
X88.952 Z-16.726
X89.975 Z-16.514
X90.942 Z-16.354
X91.52 Z-16.25
X92.641 Z-16.066
X93.213 Z-15.987
X94.02 Z-15.917
X96.559 Z-15.65
X97.441 Z-15.565
X99.922 Z-15.427
X100.551 Z-15.404
X101.105 Z-15.36
X101.915 Z-15.24
X103.283 Z-15.054
X104.793 Z-14.928
X105.365 Z-14.905
X108.19 Z-14.9
X108.71 Z-14.885
X110.16 Z-14.657
X110.732 Z-14.574
X111.676 Z-14.475
X112.436 Z-14.425
X113.087 Z-14.397
X113.709 Z-14.403
X114.286 Z-14.438
X115.779 Z-14.598
X117.124 Z-14.799
X117.73 Z-14.874
X118.133 Z-14.896
X122.124 Z-14.902
X123.042 Z-14.907
X124.12 Z-14.966
X124.707 Z-15.03
X126.126 Z-15.251
X127.423 Z-15.447
X128.481 Z-15.58
X129.253 Z-15.701
X131.264 Z-16.019
X132.548 Z-16.197
X134.442 Z-16.493
X135.29 Z-16.55
X135.876 Z-16.616
X137.025 Z-16.76
X138.02 Z-16.913
X139.79 Z-17.183
X140.81 Z-17.28
X142.032 Z-17.398
X142.816 Z-17.512
X143.781 Z-17.607
X144.458 Z-17.697
X145.364 Z-17.877
X145.777 Z-17.945
X146.139 Z-17.988
X146.934 Z-18.103
X148.295 Z-18.271
X151.705 Z-18.796
X153.095 Z-18.971
X153.918 Z-19.002
X154.717 Z-19.054
X156.068 Z-19.144
X156.925 Z-19.229
X158.21 Z-19.356
X159.87 Z-19.528
X161.033 Z-19.671
X161.752 Z-19.781
X163.507 Z-20.065
X163.685 Z-20.039
X164.472 Z-19.942
X165.245 Z-19.834
X166.198 Z-19.729
X166.779 Z-19.688
X167.385 Z-19.682
X168.096 Z-19.713
X169.202 Z-19.779
X169.776 Z-19.846
X170.522 Z-19.916
X171.108 Z-19.983
X171.505 Z-20.033
X171.956 Z-20.072
X172.397 Z-20.077
X172.958 Z-20.098
X173.696 Z-20.102
X174.295 Z-20.112
X174.925 Z-20.153
X176.704 Z-20.343
X177.223 Z-20.418
X177.915 Z-20.51
X178.069 Z-20.515
X179.364 Z-20.583
X179.879 Z-20.628
X180.398 Z-20.663
X181.205 Z-20.73
X181.83 Z-20.771
X182.858 Z-20.821
X183.415 Z-20.856
X185.274 Z-21.002
X186.059 Z-21.043
X187.724 Z-21.017
X188.534 Z-21.02
X189.534 Z-21.055
X190.092 Z-21.082
X190.682 Z-21.139
X191.891 Z-21.315
X192.631 Z-21.438
X193.463 Z-21.593
X196.584 Z-22.214
X197.703 Z-22.486
X198.497 Z-22.73
X198.951 Z-22.89
X200.066 Z-23.412
X200.252 Z-23.512
X201.197 Z-24.121
X201.551 Z-24.361
X201.888 Z-24.62
X202.195 Z-24.899
X203.1 Z-25.659
X203.789 Z-26.254
X204.182 Z-26.59
X204.64 Z-26.947
X204.937 Z-27.162
X205.24 Z-27.364
X205.505 Z-27.527
X205.767 Z-27.672
X206.145 Z-27.855
X206.581 Z-28.036
X207.099 Z-28.215
X207.652 Z-28.375
X208.42 Z-28.545
X208.783 Z-28.636
X209.855 Z-28.98
X210.204 Z-29.097
X210.861 Z-29.314
X211.028 Z-29.287
X212.212 Z-29.151
X215.26 Z-28.662
X216.202 Z-28.516
X218.514 Z-28.146
X219.244 Z-28.097
X219.574 Z-28.073
X222.814 Z-27.553
X223.632 Z-27.505
X224.191 Z-27.442
X225.171 Z-27.291
X226.223 Z-27.109
X226.971 Z-26.954
X227.275 Z-26.891
X229.416 Z-26.545
X230.548 Z-26.48
X238.71 Z-26.478
G2 X238.989 Z-26.413 I0 K0.635
G3 X239.269 Z-26.348 I0.279 K-0.57
G17 G3 X239.269 Y-143.708 I0 J0.2
G18 G2 X238.989 Z-26.413 I0 K-0.635
G3 X238.71 Z-26.478 I-0.279 K0.57
G1 X230.555 Z-26.481
X229.429 Z-26.545
X227.172 Z-26.913
X226.285 Z-27.1
X225.225 Z-27.282
X224.193 Z-27.442
X223.741 Z-27.496
X222.839 Z-27.551
X219.534 Z-28.082
X218.613 Z-28.144
X212.352 Z-29.149
X211.82 Z-29.215
X211.096 Z-29.298
X211 Z-29.313
X210.288 Z-29.064
X209.996 Z-28.961
X208.797 Z-28.575
X207.817 Z-28.359
X207.344 Z-28.222
X206.855 Z-28.054
X206.388 Z-27.866
X206.062 Z-27.712
X205.793 Z-27.57
X205.525 Z-27.411
X205.157 Z-27.168
X204.793 Z-26.898
X204.328 Z-26.525
X203.474 Z-25.773
X203.196 Z-25.534
X202.392 Z-24.834
X202.012 Z-24.474
X201.694 Z-24.213
X200.494 Z-23.438
X200.138 Z-23.257
X199.362 Z-22.894
X198.865 Z-22.695
X198.358 Z-22.525
X198.05 Z-22.435
X196.904 Z-22.159
X195.479 Z-21.859
X193.426 Z-21.416
X192.49 Z-21.231
X191.762 Z-21.104
X191.021 Z-20.991
X190.345 Z-20.908
X189.652 Z-20.845
X188.763 Z-20.794
X187.851 Z-20.772
X186.609 Z-20.773
X185.925 Z-20.766
X185.195 Z-20.717
X183.561 Z-20.566
X182.622 Z-20.502
X179.859 Z-20.352
X178.386 Z-20.276
X177.769 Z-20.261
X176.789 Z-20.155
X175.767 Z-20.043
X174.716 Z-19.942
X174.094 Z-19.912
X172.245 Z-19.9
X171.779 Z-19.883
X171.265 Z-19.813
X170.681 Z-19.737
X170.413 Z-19.711
X169.683 Z-19.595
X169.149 Z-19.537
X168.279 Z-19.486
X167.431 Z-19.445
X166.826 Z-19.45
X166.251 Z-19.487
X165.617 Z-19.557
X164.892 Z-19.667
X164.522 Z-19.723
X163.754 Z-19.831
X163.333 Z-19.897
X162.97 Z-19.857
X160.917 Z-19.532
X160.173 Z-19.44
X158.574 Z-19.269
X157.785 Z-19.213
X157.013 Z-19.151
X156.265 Z-19.074
X154.274 Z-18.913
X153.186 Z-18.84
X151.586 Z-18.618
X149.862 Z-18.348
X148.495 Z-18.139
X147.136 Z-17.956
X146.563 Z-17.873
X145.772 Z-17.788
X145.371 Z-17.722
X144.845 Z-17.619
X144.05 Z-17.504
X143.356 Z-17.43
X142.724 Z-17.364
X142.217 Z-17.3
X140.019 Z-17.085
X139.437 Z-16.997
X137.759 Z-16.704
X137.125 Z-16.601
X136.244 Z-16.478
X135.608 Z-16.388
X135.013 Z-16.335
X134.416 Z-16.298
X132.568 Z-16.006
X130.884 Z-15.749
X128.863 Z-15.426
X127.969 Z-15.32
X126.55 Z-15.108
X124.741 Z-14.819
X124.154 Z-14.754
X123.511 Z-14.715
X122.725 Z-14.708
X118.426 Z-14.7
X117.851 Z-14.681
X117.341 Z-14.621
X115.891 Z-14.398
X115.252 Z-14.325
X114.292 Z-14.223
X113.716 Z-14.188
X113.099 Z-14.182
X112.504 Z-14.207
X111.76 Z-14.269
X110.631 Z-14.393
X109.896 Z-14.506
X108.774 Z-14.678
X108.232 Z-14.699
X105.289 Z-14.712
X104.703 Z-14.741
X103.493 Z-14.817
X102.918 Z-14.884
X102.003 Z-14.99
X101.035 Z-15.14
X100.31 Z-15.212
X97.819 Z-15.351
X96.938 Z-15.437
X94.355 Z-15.704
X93.354 Z-15.778
X92.733 Z-15.858
X91.845 Z-16.005
X90.996 Z-16.173
X90.018 Z-16.334
X89.29 Z-16.485
X88.401 Z-16.682
X87.846 Z-16.795
X87.227 Z-16.921
X85.368 Z-17.347
X84.171 Z-17.632
X83.256 Z-17.802
X82.503 Z-17.964
X81.45 Z-18.148
X80.473 Z-18.27
X78.593 Z-18.509
X77.528 Z-18.623
X76.127 Z-18.723
X74.462 Z-18.821
X73.589 Z-18.902
X72.493 Z-19.014
X70.855 Z-19.172
X70.349 Z-19.225
X69.44 Z-19.278
X69.121 Z-19.281
X68 Z-19.345
X65.965 Z-19.671
X64.822 Z-19.764
X64.202 Z-19.854
X62.53 Z-20.119
X61.018 Z-20.351
X60.193 Z-20.446
X58.97 Z-20.634
X57.622 Z-20.801
X56.965 Z-20.84
X55.956 Z-20.878
X55.65 Z-20.881
X54.533 Z-21.004
X52.521 Z-21.328
X51.98 Z-21.375
X51.229 Z-21.411
X50.428 Z-21.415
X49.463 Z-21.513
X47.531 Z-21.818
X47.157 Z-21.861
X46.241 Z-21.926
X44.663 Z-21.996
X42.431 Z-22.27
X41.404 Z-22.503
X40.613 Z-22.644
X39.448 Z-22.825
X38.994 Z-22.873
X38.206 Z-22.878
X36.606 Z-22.881
X35.286 Z-23.09
X33.799 Z-23.312
X33.322 Z-23.372
X31.433 Z-23.478
X28.667 Z-23.921
X27.068 Z-24.01
X24.857 Z-24.366
X23.741 Z-24.478
X23.389 Z-24.483
X23.038 Z-24.521
X22.657 Z-24.546
X20.426 Z-24.902
X19.935 Z-24.949
X17.593 Z-25.075
X16.945 Z-25.165
X16.067 Z-25.302
X14.705 Z-25.47
X14.062 Z-25.507
X13.053 Z-25.544
X12.111 Z-25.547
X11.506 Z-25.63
X10.618 Z-25.77
X8.972 Z-25.976
X7.552 Z-26.118
X6.8 Z-26.183
X6.107 Z-26.263
X3.779 Z-26.473
X2 Z-26.646
X1.237 Z-26.751
X0.4 Z-26.877
X-0.01 Z-26.921
G3 X-0.357 Z-26.86 I-0.068 K0.631
G2 X-0.637 Z-26.795 I-0.279 K-0.57
G1 X-0.638
X-0.664 Y-143.706
X-0.69 Y-143.701 Z-26.794
X-0.715 Y-143.692 Z-26.793
X-0.739 Y-143.681 Z-26.791
X-0.761 Y-143.666 Z-26.788
X-0.781 Y-143.649 Z-26.786
X-0.798 Y-143.629 Z-26.782
X-0.813 Y-143.608 Z-26.779
X-0.825 Y-143.584 Z-26.775
X-0.833 Y-143.559 Z-26.771
X-0.839 Y-143.534 Z-26.767
X-0.84 Y-143.508 Z-26.763
X-0.839 Y-143.481 Z-26.759
X-0.833 Y-143.456 Z-26.755
X-0.825 Y-143.431 Z-26.751
X-0.813 Y-143.408 Z-26.747
X-0.798 Y-143.386 Z-26.744
X-0.781 Y-143.366 Z-26.74
X-0.761 Y-143.349 Z-26.738
X-0.739 Y-143.334 Z-26.735
X-0.715 Y-143.323 Z-26.733
X-0.69 Y-143.314 Z-26.732
X-0.664 Y-143.309 Z-26.731
X-0.638 Y-143.308
G3 X-0.358 Z-26.796 I0 K-0.635
G2 X-0.01 Z-26.857 I0.279 K0.57
G1 X0.431 Z-26.809
X1.162 Z-26.699
X1.877 Z-26.597
X3.549 Z-26.44
X4.648 Z-26.328
X7.954 Z-26.029
X9.069 Z-25.937
X10.458 Z-25.751
X10.934 Z-25.679
X11.775 Z-25.547
X12.95 Z-25.544
X13.745 Z-25.512
X14.567 Z-25.46
X15.994 Z-25.273
X17.261 Z-25.075
X19.052 Z-24.973
X20.485 Z-24.888
X22.615 Z-24.547
X22.831 Z-24.53
X23.194 Z-24.482
X23.686 Z-24.478
X23.849 Z-24.466
X24.842 Z-24.362
X27.031 Z-24.011
X28.503 Z-23.928
X28.791 Z-23.908
X31.475 Z-23.478
X33.169 Z-23.38
X33.847 Z-23.288
X36.4 Z-22.882
X38.985 Z-22.876
X39.518 Z-22.815
X40.788 Z-22.614
X41.499 Z-22.481
X42.399 Z-22.269
X44.635 Z-21.995
X46.072 Z-21.931
X47.067 Z-21.854
X47.439 Z-21.81
X49.08 Z-21.551
X49.567 Z-21.478
X50.253 Z-21.415
X51.03 Z-21.411
X51.541 Z-21.399
X52.617 Z-21.317
X54.554 Z-21.007
X55.614 Z-20.885
X55.859 Z-20.878
X56.655 Z-20.845
X57.462 Z-20.794
X58.892 Z-20.606
X60.024 Z-20.427
X61.105 Z-20.306
X64.52 Z-19.761
X66.169 Z-19.621
X67.932 Z-19.339
X69.155 Z-19.278
X69.836 Z-19.236
X73.617 Z-18.835
X74.492 Z-18.754
X76.55 Z-18.634
X77.496 Z-18.551
X78.747 Z-18.389
X79.843 Z-18.228
X81.639 Z-18.019
X82.059 Z-17.936
X83.088 Z-17.687
X84.042 Z-17.489
X84.552 Z-17.351
X85.367 Z-17.148
X86.614 Z-16.883
X87.452 Z-16.704
X88.288 Z-16.551
X89.225 Z-16.327
X90 Z-16.165
X90.978 Z-16.003
X92.105 Z-15.773
X92.817 Z-15.653
X93.634 Z-15.565
X94.452 Z-15.512
X96.942 Z-15.264
X97.851 Z-15.17
X98.763 Z-15.115
X99.2 Z-15.086
X100.092 Z-15.03
X100.625 Z-14.978
X101.746 Z-14.803
X102.459 Z-14.721
X103.475 Z-14.616
X104.632 Z-14.549
X105.293 Z-14.518
X106.474 Z-14.513
X107.203 Z-14.502
X108.3 Z-14.488
X108.861 Z-14.454
X110.583 Z-14.204
X111.214 Z-14.135
X111.839 Z-14.072
X112.484 Z-14.018
X113.093 Z-13.995
X113.739 Z-14
X114.523 Z-14.042
X115.164 Z-14.108
X116.07 Z-14.208
X116.958 Z-14.35
X117.755 Z-14.456
X118.265 Z-14.486
X119.547 Z-14.507
X122.822 Z-14.515
X123.588 Z-14.521
X124.184 Z-14.553
X124.879 Z-14.626
X127.595 Z-15.058
X128.617 Z-15.194
X129.202 Z-15.264
X134.025 Z-16.044
X134.618 Z-16.129
X135.349 Z-16.177
X135.99 Z-16.246
X137.408 Z-16.47
X137.987 Z-16.577
X139.463 Z-16.86
X140.119 Z-16.972
X141.055 Z-17.067
X143.321 Z-17.292
X144.068 Z-17.372
X145.023 Z-17.511
X145.859 Z-17.644
X147.026 Z-17.762
X150.398 Z-18.26
X151.551 Z-18.445
X153.151 Z-18.682
X154.867 Z-18.832
X157.214 Z-19.073
X158.942 Z-19.18
X160.142 Z-19.307
X160.834 Z-19.39
X162.738 Z-19.692
X163.195 Z-19.709
X163.368 Z-19.699
X165.251 Z-19.395
X165.636 Z-19.351
X166.373 Z-19.303
X167.071 Z-19.285
X167.807 Z-19.294
X169.312 Z-19.371
X170.058 Z-19.428
X171.803 Z-19.705
X174.251 Z-19.715
X174.797 Z-19.735
X175.857 Z-19.835
X177.376 Z-19.975
X177.997 Z-20.008
X178.734 Z-20.018
X179.365 Z-20.047
X179.807 Z-20.057
X180.444 Z-20.086
X181.086 Z-20.101
X183.18 Z-20.215
X185.319 Z-20.428
X185.993 Z-20.47
X187.408 Z-20.486
X188.294 Z-20.509
X189.254 Z-20.562
X190.056 Z-20.631
X190.868 Z-20.737
X191.477 Z-20.834
X192.478 Z-21.019
X193.683 Z-21.278
X195.554 Z-21.722
X196.949 Z-22.035
X197.991 Z-22.286
X198.562 Z-22.429
X198.865 Z-22.534
X199.783 Z-22.902
X200.339 Z-23.167
X200.711 Z-23.374
X201.837 Z-24.1
X202.017 Z-24.226
X202.698 Z-24.873
X203.362 Z-25.468
X203.626 Z-25.715
X204.361 Z-26.374
X204.806 Z-26.747
X205.137 Z-27.006
X205.428 Z-27.217
X205.688 Z-27.39
X205.915 Z-27.526
X206.239 Z-27.7
X206.631 Z-27.88
X207.078 Z-28.06
X207.56 Z-28.225
X208.096 Z-28.376
X208.96 Z-28.565
X210.056 Z-28.917
X211.148 Z-29.312
X211.66 Z-29.254
X212.404 Z-29.163
X218.721 Z-28.146
X219.593 Z-28.081
X222.871 Z-27.553
X223.673 Z-27.503
X224.185 Z-27.445
X225.667 Z-27.211
X226.49 Z-27.067
X227.212 Z-26.913
X229.469 Z-26.545
X230.575 Z-26.482
X238.71 Z-26.478
G2 X238.989 Z-26.413 I0 K0.635
G3 X239.269 Z-26.348 I0.279 K-0.57
G17 G3 X239.269 Y-142.908 I0 J0.2
G18 G2 X238.989 Z-26.413 I0 K-0.635
G3 X238.71 Z-26.478 I-0.279 K0.57
G1 X230.67 Z-26.48
X229.538 Z-26.545
X227.281 Z-26.913
X226.663 Z-27.043
X225.85 Z-27.181
X224.104 Z-27.46
X223.731 Z-27.5
X222.939 Z-27.552
X219.631 Z-28.083
X218.877 Z-28.145
X213.803 Z-28.962
X212.279 Z-29.203
X211.693 Z-29.272
X211.299 Z-29.314
X210.284 Z-28.937
X209.088 Z-28.554
X208.566 Z-28.437
X208.205 Z-28.354
X207.719 Z-28.216
X207.248 Z-28.053
X206.771 Z-27.857
X206.392 Z-27.68
X206.027 Z-27.483
X205.801 Z-27.345
X205.542 Z-27.169
X205.254 Z-26.954
X204.926 Z-26.69
X204.472 Z-26.299
X203.794 Z-25.676
X203.457 Z-25.348
X202.842 Z-24.766
X202.221 Z-24.178
X201.921 Z-23.961
X201.111 Z-23.439
X200.612 Z-23.127
X200.219 Z-22.919
X199.019 Z-22.434
X198.535 Z-22.287
X197.859 Z-22.119
X195.819 Z-21.621
X193.735 Z-21.078
X192.741 Z-20.842
X191.969 Z-20.677
X190.515 Z-20.409
X189.983 Z-20.345
X189.279 Z-20.287
X188.588 Z-20.223
X187.524 Z-20.183
X187.052 Z-20.166
X186.074 Z-20.158
X185.413 Z-20.124
X183.223 Z-19.895
X181.495 Z-19.8
X180.505 Z-19.787
X179.984 Z-19.776
X179.306 Z-19.765
X177.924 Z-19.731
X177.443 Z-19.706
X176.7 Z-19.66
X176.167 Z-19.615
X175.682 Z-19.586
X175.152 Z-19.539
X174.612 Z-19.521
X171.622 Z-19.506
X171.233 Z-19.452
X170.704 Z-19.369
X169.958 Z-19.289
X169.229 Z-19.237
X167.815 Z-19.165
X167.042 Z-19.156
X166.324 Z-19.176
X165.546 Z-19.23
X164.828 Z-19.312
X163.595 Z-19.501
X163.293 Z-19.517
X162.908 Z-19.509
X162.402 Z-19.496
X162.25 Z-19.481
X160.945 Z-19.28
X159.25 Z-19.098
X158.469 Z-19.042
X157.239 Z-18.963
X156.534 Z-18.887
X154.832 Z-18.683
X154.097 Z-18.602
X153.201 Z-18.52
X152.682 Z-18.446
X151.453 Z-18.26
X150.711 Z-18.144
X149.556 Z-17.975
X148.559 Z-17.832
X148.197 Z-17.787
X147.348 Z-17.664
X146.708 Z-17.595
X146.064 Z-17.53
X144.113 Z-17.243
X143.42 Z-17.167
X141.485 Z-16.973
X140.368 Z-16.87
X140.081 Z-16.834
X139.208 Z-16.663
X137.672 Z-16.343
X136.202 Z-16.104
X135.564 Z-16.025
X134.861 Z-15.964
X134.361 Z-15.903
X132.628 Z-15.618
X131.393 Z-15.402
X129.181 Z-15.046
X128.65 Z-14.982
X127.853 Z-14.885
X125.26 Z-14.472
X124.301 Z-14.369
X123.666 Z-14.329
X123.04 Z-14.321
X120.028 Z-14.311
X118.413 Z-14.271
X117.781 Z-14.231
X117.259 Z-14.161
X116.845 Z-14.111
X116.421 Z-14.045
X114.982 Z-13.891
X113.787 Z-13.824
X113.106 Z-13.817
X112.502 Z-13.839
X111.531 Z-13.915
X110.917 Z-13.964
X108.965 Z-14.215
X108.342 Z-14.264
X107.416 Z-14.292
X106.725 Z-14.309
X106.219 Z-14.321
X105.289 Z-14.324
X104.669 Z-14.353
X103.459 Z-14.423
X102.385 Z-14.535
X101.683 Z-14.618
X100.561 Z-14.791
X100.074 Z-14.837
X99.314 Z-14.896
X98.86 Z-14.938
X97.835 Z-14.999
X96.868 Z-15.099
X96.108 Z-15.169
X95.473 Z-15.221
X94.584 Z-15.311
X93.815 Z-15.37
X92.862 Z-15.474
X92.243 Z-15.57
X91.619 Z-15.697
X90.895 Z-15.845
X90.093 Z-15.979
X89.431 Z-16.111
X88.497 Z-16.343
X88.311 Z-16.392
X87.39 Z-16.55
X85.722 Z-16.882
X85.128 Z-17.008
X84.27 Z-17.246
X83.818 Z-17.377
X82.865 Z-17.597
X81.887 Z-17.852
X81.641 Z-17.9
X80.797 Z-18
X80.008 Z-18.087
X78.834 Z-18.267
X77.362 Z-18.481
X76.722 Z-18.546
X75.52 Z-18.628
X74.372 Z-18.699
X73.395 Z-18.794
X71.164 Z-19.037
X70.492 Z-19.125
X69.374 Z-19.249
X68.494 Z-19.304
X67.797 Z-19.346
X66.561 Z-19.542
X66.103 Z-19.593
X64.273 Z-19.757
X60.906 Z-20.297
X59.793 Z-20.421
X58.634 Z-20.605
X57.335 Z-20.786
X56.353 Z-20.853
X55.729 Z-20.878
X55.48 Z-20.882
X54.93 Z-20.941
X52.786 Z-21.278
X52.412 Z-21.321
X51.48 Z-21.397
X50.891 Z-21.411
X49.985 Z-21.415
X49.477 Z-21.468
X47.286 Z-21.812
X46.967 Z-21.85
X45.858 Z-21.941
X44.636 Z-21.994
X42.447 Z-22.259
X41.945 Z-22.378
X41.423 Z-22.495
X40.58 Z-22.649
X39.426 Z-22.828
X38.984 Z-22.876
X36.3 Z-22.878
X36.162 Z-22.892
X33.835 Z-23.269
X33.593 Z-23.316
X33.064 Z-23.388
X31.537 Z-23.479
X28.936 Z-23.895
X28.673 Z-23.919
X27.025 Z-24.011
X24.847 Z-24.357
X23.994 Z-24.45
X23.647 Z-24.478
X23.047 Z-24.48
X22.19 Z-24.614
X21.449 Z-24.731
X20.387 Z-24.855
X18.847 Z-24.963
X17.195 Z-25.057
X16.9 Z-25.087
X15.752 Z-25.269
X14.46 Z-25.451
X13.476 Z-25.518
X12.822 Z-25.544
X11.559
X11.445 Z-25.553
X10.216 Z-25.748
X9.501 Z-25.846
X8.522 Z-25.902
X5.014 Z-26.23
X3.663 Z-26.377
X1.982 Z-26.526
X1.242 Z-26.621
X0.493 Z-26.738
X-0.01 Z-26.795
G3 X-0.362 Z-26.735 I-0.072 K0.631
G2 X-0.641 Z-26.67 I-0.279 K-0.57
G1 X-0.645
X-0.672 Y-142.906
X-0.698 Y-142.901 Z-26.669
X-0.723 Y-142.892 Z-26.668
X-0.746 Y-142.881 Z-26.666
X-0.768 Y-142.866 Z-26.664
X-0.788 Y-142.849 Z-26.661
X-0.806 Y-142.829 Z-26.658
X-0.82 Y-142.808 Z-26.655
X-0.832 Y-142.784 Z-26.652
X-0.84 Y-142.759 Z-26.648
X-0.846 Y-142.734 Z-26.644
X-0.847 Y-142.708 Z-26.641
X-0.846 Y-142.681 Z-26.637
X-0.84 Y-142.656 Z-26.633
X-0.832 Y-142.631 Z-26.629
X-0.82 Y-142.608 Z-26.626
X-0.806 Y-142.586 Z-26.623
X-0.788 Y-142.566 Z-26.62
X-0.768 Y-142.549 Z-26.617
X-0.746 Y-142.534 Z-26.615
X-0.723 Y-142.523 Z-26.614
X-0.698 Y-142.514 Z-26.612
X-0.672 Y-142.509
X-0.645 Y-142.508 Z-26.611
G3 X-0.366 Z-26.676 I0 K-0.635
G2 X-0.01 Z-26.736 I0.279 K0.57
G1 X0.497 Z-26.675
X1.211 Z-26.565
X1.975 Z-26.467
X3.036 Z-26.376
X4.042 Z-26.283
X6.073 Z-26.054
X7.342 Z-25.931
X8.847 Z-25.815
X9.849 Z-25.769
X11.271 Z-25.546
X12.786 Z-25.544
X13.192 Z-25.527
X14.341 Z-25.443
X15.426 Z-25.284
X16.685 Z-25.084
X17.123 Z-25.041
X18.502 Z-24.96
X20.06 Z-24.84
X20.354 Z-24.806
X21.835 Z-24.625
X22.201 Z-24.593
X22.92 Z-24.479
X23.632 Z-24.478
X24.279 Z-24.423
X25.023 Z-24.331
X27.016 Z-24.012
X28.765 Z-23.915
X29.17 Z-23.874
X31.631 Z-23.479
X33.03 Z-23.395
X33.374 Z-23.342
X33.772 Z-23.26
X36.13 Z-22.879
X38.479 Z-22.877
X39.072 Z-22.869
X39.434 Z-22.827
X40.683 Z-22.632
X41.525 Z-22.474
X42.255 Z-22.302
X42.455 Z-22.258
X44.624 Z-21.995
X45.764 Z-21.946
X46.537 Z-21.877
X47.144 Z-21.813
X49.288 Z-21.475
X49.742 Z-21.416
X50.829 Z-21.411
X51.505 Z-21.391
X52.145 Z-21.335
X52.751 Z-21.265
X54.788 Z-20.941
X55.253 Z-20.881
X55.722 Z-20.878
X56.136 Z-20.858
X57.3 Z-20.769
X58.305 Z-20.62
X59.553 Z-20.422
X60.672 Z-20.297
X64.021 Z-19.759
X65.794 Z-19.588
X66.694 Z-19.469
X68.163 Z-19.293
X69.312 Z-19.222
X69.885 Z-19.153
X70.405 Z-19.082
X71.167 Z-18.972
X73.48 Z-18.72
X74.349 Z-18.636
X75.434 Z-18.568
X76.639 Z-18.471
X77.319 Z-18.389
X78.841 Z-18.148
X80.037 Z-17.965
X81.135 Z-17.844
X81.729 Z-17.767
X81.938 Z-17.72
X82.308 Z-17.614
X83.291 Z-17.354
X84.786 Z-16.915
X85.347 Z-16.775
X85.959 Z-16.658
X87.374 Z-16.402
X88.281 Z-16.245
X88.591 Z-16.166
X89.208 Z-16.007
X90.03 Z-15.831
X90.935 Z-15.666
X91.396 Z-15.573
X92.182 Z-15.408
X92.801 Z-15.31
X93.466 Z-15.234
X94.47 Z-15.131
X95.711 Z-15.004
X96.608 Z-14.948
X96.942 Z-14.919
X97.851 Z-14.825
X98.884 Z-14.764
X99.947 Z-14.659
X100.639 Z-14.589
X101.369 Z-14.472
X101.988 Z-14.385
X103.429 Z-14.232
X104.514 Z-14.167
X105.249 Z-14.132
X106.375 Z-14.127
X107.965 Z-14.066
X108.679 Z-14.009
X111.131 Z-13.744
X111.845 Z-13.698
X112.935 Z-13.642
X113.579 Z-13.64
X114.298 Z-13.672
X115.417 Z-13.738
X116.797 Z-13.886
X117.745 Z-13.993
X118.389 Z-14.042
X119.991 Z-14.098
X121.633 Z-14.119
X123.182 Z-14.127
X123.775 Z-14.14
X124.391 Z-14.184
X125.67 Z-14.323
X127.807 Z-14.665
X128.52 Z-14.752
X129.158 Z-14.827
X131.37 Z-15.182
X131.95 Z-15.284
X133.108 Z-15.501
X134.631 Z-15.745
X135.454 Z-15.842
X136.093 Z-15.915
X137.14 Z-16.082
X137.827 Z-16.2
X138.401 Z-16.328
X139.802 Z-16.638
X140.239 Z-16.719
X140.537 Z-16.748
X141.17 Z-16.797
X142.336 Z-16.912
X144.073 Z-17.103
X146.013 Z-17.388
X146.526 Z-17.444
X147.327 Z-17.527
X148.229 Z-17.657
X148.914 Z-17.729
X149.911 Z-17.867
X150.537 Z-17.956
X152.423 Z-18.241
X152.956 Z-18.303
X153.584 Z-18.38
X154.436 Z-18.463
X155.073 Z-18.551
X156.665 Z-18.77
X157.351 Z-18.851
X159.252 Z-18.991
X161.214 Z-19.2
X161.691 Z-19.267
X162.052 Z-19.312
X163.1 Z-19.326
X163.727 Z-19.313
X163.994 Z-19.287
X165.173 Z-19.139
X165.904 Z-19.071
X166.673 Z-19.033
X167.447 Z-19.027
X168.16 Z-19.05
X168.907 Z-19.078
X169.778 Z-19.141
X170.868 Z-19.253
X171.265 Z-19.289
X173.846 Z-19.316
X175.041 Z-19.322
X175.584 Z-19.342
X178.349 Z-19.457
X181.772 Z-19.497
X183.365 Z-19.589
X185.324 Z-19.797
X186.079 Z-19.839
X187.225 Z-19.851
X188.768 Z-19.936
X190.315 Z-20.101
X190.843 Z-20.185
X191.577 Z-20.341
X192.134 Z-20.45
X192.655 Z-20.572
X193.934 Z-20.892
X194.436 Z-21.043
X196.052 Z-21.513
X197.056 Z-21.782
X198.064 Z-22.034
X198.635 Z-22.18
X199.196 Z-22.359
X199.499 Z-22.464
X199.995 Z-22.665
X200.438 Z-22.852
X200.673 Z-22.975
X201.76 Z-23.662
X202.069 Z-23.87
X202.36 Z-24.101
X203.252 Z-24.949
X204.173 Z-25.845
X204.547 Z-26.201
X205.015 Z-26.617
X205.338 Z-26.886
X205.623 Z-27.106
X205.879 Z-27.286
X206.103 Z-27.427
X206.466 Z-27.628
X206.838 Z-27.807
X207.257 Z-27.988
X207.717 Z-28.16
X208.232 Z-28.315
X208.839 Z-28.452
X209.15 Z-28.528
X210.73 Z-29.039
X211.472 Z-29.317
X212.243 Z-29.232
X218.243 Z-28.266
X218.941 Z-28.158
X219.729 Z-28.084
X223.038 Z-27.552
X223.7 Z-27.504
X224.003 Z-27.48
X226.864 Z-27.019
X227.378 Z-26.912
X229.635 Z-26.545
X230.743 Z-26.482
X238.71 Z-26.478
G2 X238.989 Z-26.413 I0 K0.635
G3 X239.269 Z-26.348 I0.279 K-0.57
G17 G3 X239.269 Y-142.108 I0 J0.2
G18 G2 X238.989 Z-26.413 I0 K-0.635
G3 X238.71 Z-26.478 I-0.279 K0.57
G1 X230.879 Z-26.481
X229.763 Z-26.545
X227.364 Z-26.937
X227.065 Z-26.996
X223.983 Z-27.49
X223.141 Z-27.555
X219.87 Z-28.083
X219.01 Z-28.171
X218.422 Z-28.259
X212.274 Z-29.251
X211.647 Z-29.318
X211.105 Z-29.117
X209.168 Z-28.49
X208.752 Z-28.393
X208.333 Z-28.301
X207.902 Z-28.17
X207.47 Z-28.01
X206.895 Z-27.758
X206.382 Z-27.496
X206.164 Z-27.367
X205.943 Z-27.223
X205.689 Z-27.039
X205.408 Z-26.814
X204.902 Z-26.374
X204.414 Z-25.901
X203.618 Z-25.122
X202.699 Z-24.237
X202.396 Z-23.938
X202.108 Z-23.704
X201.769 Z-23.462
X201.001 Z-22.975
X200.526 Z-22.732
X200.135 Z-22.56
X199.812 Z-22.432
X198.872 Z-22.117
X198.512 Z-22.017
X197.702 Z-21.811
X196.752 Z-21.545
X195.85 Z-21.27
X194.651 Z-20.881
X194.149 Z-20.716
X192.503 Z-20.274
X191.928 Z-20.147
X190.932 Z-19.935
X190.404 Z-19.851
X189.563 Z-19.754
X189.043 Z-19.682
X188.489 Z-19.639
X187.837 Z-19.589
X187.335 Z-19.553
X186.328 Z-19.531
X185.447 Z-19.488
X185.24 Z-19.487
X184.769 Z-19.44
X184.358 Z-19.414
X183.356 Z-19.308
X182.41 Z-19.241
X181.917 Z-19.201
X181.364 Z-19.19
X180.361 Z-19.164
X178.501 Z-19.159
X177.635 Z-19.122
X176.639 Z-19.073
X176.104 Z-19.08
X175.999 Z-19.085
X175.485 Z-19.064
X174.975 Z-19.07
X174.5 Z-19.087
X173.835 Z-19.095
X173.606 Z-19.098
X171.69 Z-19.061
X170.938 Z-19.048
X169.989 Z-18.973
X169.508 Z-18.924
X169.019 Z-18.9
X168.54 Z-18.89
X167.861 Z-18.86
X167.163 Z-18.863
X166.33 Z-18.901
X165.625 Z-18.956
X164.084 Z-19.113
X163.417 Z-19.129
X161.905 Z-19.124
X161.405 Z-19.1
X159.307 Z-18.885
X158.042 Z-18.778
X157.254 Z-18.708
X156.321 Z-18.577
X154.891 Z-18.353
X153.518 Z-18.197
X152.452 Z-18.078
X150.342 Z-17.769
X149.12 Z-17.607
X148.102 Z-17.503
X147.317 Z-17.391
X146.729 Z-17.332
X146.097 Z-17.266
X144.082 Z-16.97
X142.944 Z-16.827
X141.767 Z-16.697
X140.677 Z-16.595
X140.146 Z-16.559
X139.507 Z-16.423
X138.641 Z-16.219
X138.08 Z-16.08
X137.475 Z-15.964
X136.126 Z-15.748
X134.979 Z-15.594
X133.762 Z-15.406
X132.748 Z-15.231
X131.677 Z-15.017
X129.159 Z-14.612
X128.68 Z-14.554
X127.85 Z-14.459
X126.032 Z-14.17
X125.433 Z-14.098
X124.58 Z-14.008
X123.688 Z-13.957
X120.069 Z-13.873
X118.249 Z-13.799
X117.708 Z-13.751
X117.341 Z-13.728
X116.764 Z-13.669
X116.361 Z-13.638
X115.731 Z-13.574
X113.735 Z-13.467
X113.083 Z-13.462
X111.494 Z-13.518
X110.896 Z-13.568
X108.276 Z-13.807
X107.888 Z-13.848
X107.172 Z-13.889
X106.909 Z-13.909
X106.077 Z-13.951
X105.878 Z-13.964
X105.116 Z-13.985
X104.273 Z-14.026
X103.284 Z-14.088
X102.355 Z-14.177
X101.4 Z-14.279
X100.273 Z-14.456
X98.465 Z-14.646
X97.511 Z-14.705
X96.612 Z-14.796
X96.065 Z-14.847
X94.935 Z-14.92
X92.441 Z-15.191
X91.814 Z-15.311
X90.891 Z-15.505
X89.947 Z-15.695
X89.131 Z-15.874
X88.344 Z-16.08
X87.204 Z-16.274
X85.602 Z-16.538
X85.038 Z-16.665
X84.425 Z-16.838
X82.41 Z-17.447
X81.911 Z-17.588
X81.602 Z-17.664
X79.914 Z-17.863
X78.374 Z-18.098
X77.274 Z-18.291
X76.291 Z-18.423
X75.395 Z-18.503
X74.227 Z-18.581
X73.185 Z-18.687
X71.181 Z-18.905
X70.419 Z-19.015
X69.731 Z-19.119
X68.997 Z-19.197
X67.654 Z-19.29
X66.175 Z-19.488
X65.693 Z-19.556
X63.812 Z-19.762
X60.54 Z-20.287
X59.414 Z-20.414
X57.359 Z-20.741
X56.985 Z-20.783
X55.886 Z-20.868
X55.658 Z-20.878
X55.048 Z-20.882
X54.521 Z-20.963
X52.627 Z-21.263
X51.696 Z-21.37
X51.478 Z-21.384
X50.599 Z-21.411
X49.549 Z-21.416
X49.021 Z-21.496
X47.138 Z-21.795
X46.207 Z-21.902
X45.716 Z-21.947
X44.636 Z-21.994
X42.451 Z-22.259
X42.251 Z-22.303
X41.416 Z-22.498
X40.784 Z-22.617
X39.477 Z-22.822
X39.18 Z-22.857
X38.551 Z-22.876
X36.007 Z-22.88
X33.713 Z-23.252
X33.144 Z-23.378
X32.919 Z-23.412
X31.761 Z-23.478
X29.363 Z-23.862
X28.904 Z-23.91
X28.213 Z-23.944
X27.016 Z-24.012
X24.875 Z-24.353
X24.161 Z-24.434
X23.621 Z-24.477
X22.857 Z-24.478
X22.72 Z-24.493
X22.307 Z-24.558
X21.478 Z-24.605
X19.998 Z-24.804
X19.792 Z-24.826
X18.366 Z-24.946
X16.992 Z-25.03
X16.51 Z-25.081
X14.415 Z-25.413
X14.068 Z-25.451
X13.031 Z-25.533
X12.698 Z-25.544
X11.124
X10.981 Z-25.56
X10.125 Z-25.696
X9.111 Z-25.736
X7.741 Z-25.815
X6.798 Z-25.902
X5.547 Z-26.037
X4.309 Z-26.194
X2.747 Z-26.351
X1.599 Z-26.452
X0.349 Z-26.634
X-0.01 Z-26.68
G3 X-0.37 Z-26.62 I-0.081 K0.63
G1 X-0.477 Z-26.568
G2 X-0.757 Z-26.503 I-0.279 K-0.57
G17 G2 X-0.757 Y-141.708 I0 J0.2
G1 X-0.661
G18 G3 X-0.382 Z-26.568 I0 K-0.635
G2 X-0.01 Z-26.626 I0.279 K0.57
G1 X1.221 Z-26.445
X2.622 Z-26.313
X4.22 Z-26.139
X5.498 Z-25.968
X6.888 Z-25.816
X7.578 Z-25.757
X9.434 Z-25.655
X10.386 Z-25.626
X10.894 Z-25.548
X12.452 Z-25.544
X12.929 Z-25.535
X13.957 Z-25.449
X14.383 Z-25.395
X16.32 Z-25.086
X16.798 Z-25.026
X18.201 Z-24.934
X19.675 Z-24.804
X21.032 Z-24.607
X22.42 Z-24.528
X22.713 Z-24.482
X23.326 Z-24.478
X24.171 Z-24.433
X24.851 Z-24.359
X27.023 Z-24.011
X28.037 Z-23.953
X28.294 Z-23.944
X29.059 Z-23.904
X29.668 Z-23.839
X31.914 Z-23.479
X32.948 Z-23.419
X33.637 Z-23.253
X35.926 Z-22.88
X38.404 Z-22.876
X39.265 Z-22.847
X39.515 Z-22.819
X40.944 Z-22.591
X41.418 Z-22.503
X42.392 Z-22.27
X44.629 Z-21.995
X45.182 Z-21.969
X45.849 Z-21.937
X47.082 Z-21.784
X49.42 Z-21.413
X50.439 Z-21.411
X51.605 Z-21.372
X52.518 Z-21.258
X54.809 Z-20.895
X54.962 Z-20.878
X55.391
X55.865 Z-20.865
X56.85 Z-20.782
X57.275 Z-20.73
X59.272 Z-20.411
X60.536 Z-20.262
X63.557 Z-19.777
X64.045 Z-19.713
X65.75 Z-19.507
X67.226 Z-19.289
X68.68 Z-19.178
X69.746 Z-19.053
X70.435 Z-18.948
X71.197 Z-18.839
X73.307 Z-18.609
X74.35 Z-18.506
X75.65 Z-18.405
X76.241 Z-18.342
X77.056 Z-18.22
X77.681 Z-18.101
X78.83 Z-17.9
X80.238 Z-17.69
X80.968 Z-17.608
X81.501 Z-17.545
X82.069 Z-17.396
X82.571 Z-17.228
X84.31 Z-16.69
X84.933 Z-16.508
X85.536 Z-16.392
X88.185 Z-15.961
X88.497 Z-15.89
X89.171 Z-15.714
X91.597 Z-15.189
X92.062 Z-15.12
X92.838 Z-15.04
X94.678 Z-14.849
X95.824 Z-14.755
X96.411 Z-14.689
X97.46 Z-14.58
X98.281 Z-14.527
X98.616 Z-14.486
X100.218 Z-14.311
X101.091 Z-14.173
X101.76 Z-14.086
X102.463 Z-14.028
X103.508 Z-13.936
X104.392 Z-13.874
X105.576 Z-13.821
X106.152 Z-13.762
X107.054 Z-13.7
X107.82 Z-13.634
X108.345 Z-13.563
X108.954 Z-13.5
X109.533 Z-13.457
X110.514 Z-13.388
X111.148 Z-13.344
X111.747 Z-13.307
X112.402 Z-13.298
X113.052 Z-13.284
X113.743 Z-13.289
X115.503 Z-13.381
X116.253 Z-13.428
X116.698 Z-13.464
X117.319 Z-13.505
X117.775 Z-13.53
X118.316 Z-13.563
X123.605 Z-13.777
X124.965 Z-13.85
X125.499 Z-13.905
X126.083 Z-13.979
X127.81 Z-14.242
X128.643 Z-14.335
X129.175 Z-14.398
X131.481 Z-14.769
X132.074 Z-14.879
X133.016 Z-15.071
X135.649 Z-15.499
X137.575 Z-15.808
X138.152 Z-15.924
X139.279 Z-16.212
X140.014 Z-16.384
X140.196 Z-16.395
X140.939 Z-16.444
X142.277 Z-16.586
X143.94 Z-16.801
X145.337 Z-17.021
X146.449 Z-17.187
X147.381 Z-17.28
X147.879 Z-17.336
X148.319 Z-17.372
X149.148 Z-17.454
X150.477 Z-17.631
X152.364 Z-17.909
X153.302 Z-18.012
X155.168 Z-18.245
X157.1 Z-18.545
X157.956 Z-18.634
X160.056 Z-18.829
X160.814 Z-18.891
X161.373 Z-18.92
X162.544 Z-18.93
X164.228 Z-18.92
X164.591 Z-18.901
X166.009 Z-18.771
X167.271 Z-18.701
X167.989 Z-18.685
X168.569 Z-18.698
X168.994 Z-18.702
X169.613 Z-18.713
X170.115 Z-18.749
X170.928 Z-18.801
X171.667 Z-18.805
X172.203 Z-18.823
X173.704 Z-18.88
X173.934 Z-18.871
X174.535 Z-18.851
X175.308 Z-18.814
X175.9 Z-18.806
X176.532 Z-18.777
X177.053 Z-18.772
X178.357 Z-18.838
X180.546 Z-18.842
X181.389 Z-18.883
X181.682 Z-18.891
X182.168 Z-18.916
X182.861 Z-18.988
X183.355 Z-19.028
X184.357 Z-19.134
X185.195 Z-19.183
X185.903 Z-19.188
X186.908 Z-19.239
X187.191 Z-19.246
X187.671 Z-19.272
X188.311 Z-19.338
X188.686 Z-19.37
X189.223 Z-19.423
X189.911 Z-19.53
X190.432 Z-19.596
X190.961 Z-19.682
X192.009 Z-19.905
X192.531 Z-20.023
X193.035 Z-20.166
X193.851 Z-20.396
X194.365 Z-20.545
X194.868 Z-20.726
X195.95 Z-21.107
X197.026 Z-21.465
X198.138 Z-21.794
X198.738 Z-21.955
X199.148 Z-22.074
X200.201 Z-22.429
X200.507 Z-22.561
X201.41 Z-23.024
X201.816 Z-23.283
X202.115 Z-23.503
X202.475 Z-23.818
X202.888 Z-24.237
X203.716 Z-25.049
X203.935 Z-25.277
X204.978 Z-26.302
X205.45 Z-26.724
X205.727 Z-26.956
X205.975 Z-27.145
X206.234 Z-27.32
X206.45 Z-27.451
X207.062 Z-27.767
X207.692 Z-28.04
X207.983 Z-28.151
X208.362 Z-28.27
X209.172 Z-28.449
X211.34 Z-29.148
X211.835 Z-29.331
X212.201 Z-29.282
X213.672 Z-29.048
X218.91 Z-28.206
X219.9 Z-28.097
X222.27 Z-27.718
X223.297 Z-27.555
X224.075 Z-27.489
X227.37 Z-26.957
X229.916 Z-26.545
X231.058 Z-26.48
X238.71 Z-26.478
G2 X238.989 Z-26.413 I0 K0.635
G3 X239.269 Z-26.348 I0.279 K-0.57
G17 G3 X239.269 Y-141.308 I0 J0.2
G18 G2 X238.989 Z-26.413 I0 K-0.635
G3 X238.71 Z-26.478 I-0.279 K0.57
G1 X231.227 Z-26.481
X230.105 Z-26.546
X227.863 Z-26.905
X227.375 Z-26.974
X224.148 Z-27.492
X223.45 Z-27.558
X223.015 Z-27.619
X219.957 Z-28.112
X219.104 Z-28.205
X216.851 Z-28.565
X216.405 Z-28.628
X211.983 Z-29.339
X211.486 Z-29.155
X209.268 Z-28.442
X208.463 Z-28.265
X207.978 Z-28.107
X207.159 Z-27.754
X206.607 Z-27.466
X206.301 Z-27.277
X206.046 Z-27.1
X205.764 Z-26.878
X205.481 Z-26.636
X205.12 Z-26.301
X204.507 Z-25.694
X203.153 Z-24.291
X202.684 Z-23.815
X202.276 Z-23.429
X201.988 Z-23.195
X201.726 Z-23.016
X201.355 Z-22.806
X200.687 Z-22.466
X200.083 Z-22.254
X199.237 Z-21.964
X198.679 Z-21.81
X197.495 Z-21.449
X196.76 Z-21.199
X195.016 Z-20.552
X194.552 Z-20.372
X194.094 Z-20.225
X193.408 Z-20.028
X192.831 Z-19.845
X192.313 Z-19.713
X190.951 Z-19.421
X189.364 Z-19.165
X187.829 Z-19.002
X186.61 Z-18.928
X186.076 Z-18.903
X184.993 Z-18.898
X184.304 Z-18.856
X182.448 Z-18.659
X181.513 Z-18.602
X180.682 Z-18.556
X179.625 Z-18.552
X178.456 Z-18.558
X177.442 Z-18.512
X176.789
X176.097 Z-18.544
X173.833 Z-18.663
X171.893 Z-18.556
X171.04 Z-18.552
X170.649 Z-18.545
X169.771 Z-18.503
X168.205 Z-18.502
X166.649 Z-18.568
X165.832 Z-18.625
X165.02 Z-18.688
X164.448 Z-18.708
X161.361 Z-18.711
X160.494 Z-18.688
X159.492 Z-18.632
X157.245 Z-18.409
X156.461 Z-18.298
X155.635 Z-18.169
X154.892 Z-18.062
X153.427 Z-17.864
X152.379 Z-17.754
X150.397 Z-17.464
X149.122 Z-17.295
X148.421 Z-17.23
X147.645 Z-17.192
X146.494 Z-17.069
X145.629 Z-16.936
X144.111 Z-16.674
X142.436 Z-16.431
X140.965 Z-16.274
X140.296 Z-16.226
X139.914 Z-16.209
X138.978 Z-15.975
X138.38 Z-15.806
X137.805 Z-15.678
X137.225 Z-15.579
X135.389 Z-15.257
X134.778 Z-15.146
X132.938 Z-14.843
X131.752 Z-14.6
X129.182 Z-14.184
X128.649 Z-14.122
X127.911 Z-14.043
X125.811 Z-13.742
X125.223 Z-13.682
X121.614 Z-13.469
X119.624 Z-13.377
X116.695 Z-13.249
X113.736 Z-13.109
X112.873 Z-13.104
X111.852 Z-13.109
X111.135 Z-13.142
X109.138 Z-13.245
X108.559 Z-13.307
X107.801 Z-13.411
X105.553 Z-13.652
X104.083 Z-13.752
X102.634 Z-13.868
X101.912 Z-13.92
X101.242 Z-13.999
X100.168 Z-14.166
X98.944 Z-14.301
X98.181 Z-14.403
X97.381 Z-14.457
X96.544 Z-14.546
X95.494 Z-14.682
X94.211 Z-14.81
X93.471 Z-14.884
X92.411 Z-14.972
X91.647 Z-15.07
X91.03 Z-15.177
X88.817 Z-15.654
X88.271 Z-15.797
X85.94 Z-16.176
X84.947 Z-16.368
X84.372 Z-16.495
X82.889 Z-16.959
X81.886 Z-17.299
X81.58 Z-17.384
X81.167 Z-17.455
X80.413 Z-17.533
X79.476 Z-17.667
X78.432 Z-17.844
X77.033 Z-18.111
X76.241 Z-18.242
X75.411 Z-18.342
X74.046 Z-18.466
X71.138 Z-18.781
X70.423 Z-18.885
X69.735 Z-18.993
X68.441 Z-19.159
X66.881 Z-19.287
X65.534 Z-19.494
X63.609 Z-19.747
X60.631 Z-20.225
X59.887 Z-20.317
X59.28 Z-20.388
X57.195 Z-20.721
X56.685 Z-20.781
X55.65 Z-20.853
X55.36 Z-20.874
X55.071 Z-20.878
X54.775 Z-20.881
X52.41 Z-21.257
X51.785 Z-21.34
X50.478 Z-21.408
X49.558 Z-21.411
X49.253 Z-21.417
X46.942 Z-21.786
X45.784 Z-21.941
X44.642 Z-21.997
X42.417 Z-22.27
X41.402 Z-22.514
X40.939 Z-22.596
X39.563 Z-22.815
X39.353 Z-22.836
X38.289 Z-22.875
X35.871 Z-22.881
X33.588 Z-23.253
X32.889 Z-23.433
X32.107 Z-23.479
X29.981 Z-23.819
X29.292 Z-23.895
X28.402 Z-23.944
X28.146 Z-23.947
X27.042 Z-24.013
X24.83 Z-24.367
X24.617 Z-24.388
X22.964 Z-24.478
X22.677 Z-24.481
X22.53 Z-24.502
X20.736 Z-24.599
X19.475 Z-24.791
X18.057 Z-24.924
X16.622 Z-25.023
X16.193 Z-25.085
X14.287 Z-25.388
X13.634 Z-25.467
X12.899 Z-25.531
X12.429 Z-25.543
X10.774 Z-25.547
X10.667 Z-25.558
X9.679 Z-25.581
X8.62 Z-25.633
X7.333 Z-25.71
X6.46 Z-25.791
X5.262 Z-25.923
X4.028 Z-26.098
X2.475 Z-26.28
X0.879 Z-26.443
X-0.01 Z-26.574
G3 X-0.383 Z-26.516 I-0.093 K0.628
G1 X-0.475 Z-26.471
G2 X-0.754 Z-26.406 I-0.279 K-0.57
G17 G2 X-0.754 Y-140.908 I0 J0.2
G1 X-0.66
G18 G3 X-0.38 Z-26.471 I0 K-0.635
G2 X-0.01 Z-26.529 I0.279 K0.57
G1 X0.686 Z-26.429
X2.362 Z-26.248
X3.578 Z-26.094
X4.209 Z-26.005
X5.116 Z-25.877
X6.557 Z-25.716
X7.434 Z-25.637
X9.015 Z-25.548
X12.331 Z-25.543
X12.794 Z-25.53
X13.117 Z-25.51
X14.147 Z-25.389
X15.471 Z-25.18
X16.497 Z-25.017
X17.967 Z-24.912
X19.283 Z-24.781
X20.434 Z-24.599
X21.873 Z-24.514
X22.667 Z-24.478
X25.03 Z-24.343
X27.108 Z-24.011
X28.081 Z-23.951
X28.532 Z-23.944
X29.21 Z-23.91
X29.723 Z-23.869
X30.466 Z-23.779
X32.334 Z-23.48
X32.871 Z-23.447
X33.567 Z-23.254
X35.847 Z-22.882
X38.194 Z-22.875
X38.854 Z-22.851
X39.763 Z-22.792
X40.769 Z-22.633
X41.402 Z-22.525
X42.469 Z-22.271
X44.694 Z-21.997
X45.742 Z-21.944
X46.843 Z-21.788
X49.193 Z-21.413
X50.181 Z-21.41
X51.877 Z-21.313
X52.777 Z-21.18
X53.894 Z-21.002
X54.582 Z-20.895
X54.735 Z-20.878
X54.974
X55.405 Z-20.832
X56.834 Z-20.732
X57.371 Z-20.672
X59.226 Z-20.375
X59.928 Z-20.291
X60.593 Z-20.209
X63.672 Z-19.716
X65.357 Z-19.48
X66.571 Z-19.288
X68.206 Z-19.143
X69.54 Z-18.959
X70.377 Z-18.828
X70.959 Z-18.743
X72.3 Z-18.593
X73.716 Z-18.436
X75.151 Z-18.29
X75.961 Z-18.176
X76.209 Z-18.138
X77.284 Z-17.947
X78.119 Z-17.785
X79.309 Z-17.565
X80.308 Z-17.411
X81.227 Z-17.301
X81.543 Z-17.246
X81.852 Z-17.162
X82.707 Z-16.863
X83.871 Z-16.5
X84.406 Z-16.357
X85.343 Z-16.153
X86.335 Z-15.962
X88.408 Z-15.624
X88.828 Z-15.522
X90.017 Z-15.264
X90.679 Z-15.134
X91.209 Z-15.035
X91.923 Z-14.923
X92.939 Z-14.806
X94.045 Z-14.728
X95.225 Z-14.614
X96.474 Z-14.432
X97.193 Z-14.352
X98.196 Z-14.274
X98.862 Z-14.172
X99.933 Z-14.053
X101.171 Z-13.861
X102.13 Z-13.756
X102.998 Z-13.692
X103.297 Z-13.663
X104.648 Z-13.534
X105.42 Z-13.476
X106.985 Z-13.264
X107.75 Z-13.187
X108.726 Z-13.064
X109.318 Z-13.011
X109.893 Z-12.991
X111.92 Z-12.929
X113.144 Z-12.927
X114.118 Z-12.931
X114.654 Z-12.955
X115.099 Z-12.96
X115.656 Z-12.983
X116.098 Z-12.991
X116.642 Z-13.008
X119.96 Z-13.148
X121.452 Z-13.223
X123.716 Z-13.388
X125.089 Z-13.473
X125.792 Z-13.534
X126.271 Z-13.592
X128.021 Z-13.843
X129.214 Z-13.985
X129.784 Z-14.078
X132.038 Z-14.442
X132.814 Z-14.607
X134.939 Z-14.957
X135.506 Z-15.069
X136.162 Z-15.204
X137.21 Z-15.396
X137.831 Z-15.511
X138.406 Z-15.64
X138.915 Z-15.784
X139.561 Z-15.964
X139.8 Z-16.017
X140.172 Z-16.026
X140.752 Z-16.062
X141.339 Z-16.126
X142.168 Z-16.229
X142.859 Z-16.317
X144.149 Z-16.526
X146.001 Z-16.866
X146.66 Z-16.962
X147.675 Z-17.074
X148.67 Z-17.123
X149.432 Z-17.188
X150.388 Z-17.311
X152.382 Z-17.599
X153.121 Z-17.675
X153.814 Z-17.753
X156.75 Z-18.184
X157.857 Z-18.309
X158.984 Z-18.418
X159.611 Z-18.447
X160.113 Z-18.457
X160.751 Z-18.479
X164.489 Z-18.483
X165.283 Z-18.467
X166.497 Z-18.386
X167.895 Z-18.311
X168.583 Z-18.282
X170.094 Z-18.281
X170.654 Z-18.303
X171.519 Z-18.31
X172.067 Z-18.32
X172.62 Z-18.361
X174.054 Z-18.455
X176.196 Z-18.344
X176.847 Z-18.316
X177.622 Z-18.32
X178.224 Z-18.337
X178.952 Z-18.331
X179.531 Z-18.314
X180.399 Z-18.31
X180.94 Z-18.324
X181.542 Z-18.373
X182.061 Z-18.405
X182.666 Z-18.453
X184.222 Z-18.61
X184.407 Z-18.615
X184.982 Z-18.639
X185.966 Z-18.643
X186.497 Z-18.662
X187.09 Z-18.716
X187.489 Z-18.743
X188.044 Z-18.785
X188.601 Z-18.858
X189.042 Z-18.915
X189.628 Z-18.983
X190.739 Z-19.16
X191.267 Z-19.25
X192.42 Z-19.496
X192.889 Z-19.604
X193.756 Z-19.882
X194.258 Z-20.038
X194.714 Z-20.193
X195.159 Z-20.376
X195.837 Z-20.643
X197.046 Z-21.113
X197.563 Z-21.291
X198.245 Z-21.476
X199.649 Z-21.866
X200.103 Z-22.024
X200.549 Z-22.204
X201.131 Z-22.472
X201.239 Z-22.542
X201.493 Z-22.681
X201.858 Z-22.901
X202.203 Z-23.148
X202.436 Z-23.364
X203.114 Z-24.016
X203.539 Z-24.454
X203.773 Z-24.73
X204.528 Z-25.551
X205.109 Z-26.154
X205.475 Z-26.51
X205.788 Z-26.792
X206.066 Z-27.02
X206.319 Z-27.204
X206.54 Z-27.348
X206.876 Z-27.546
X207.374 Z-27.802
X207.866 Z-28.021
X208.198 Z-28.149
X208.582 Z-28.27
X209.362 Z-28.442
X211.555 Z-29.146
X212.109 Z-29.344
X216.412 Z-28.648
X216.846 Z-28.587
X217.467 Z-28.503
X219.334 Z-28.206
X219.952 Z-28.134
X222.84 Z-27.669
X223.375 Z-27.588
X224.297 Z-27.491
X227.514 Z-26.973
X228.263 Z-26.878
X230.333 Z-26.546
X231.48 Z-26.48
X238.71 Z-26.478
G2 X238.989 Z-26.413 I0 K0.635
G3 X239.269 Z-26.348 I0.279 K-0.57
G17 G3 X239.269 Y-140.508 I0 J0.2
G18 G2 X238.989 Z-26.413 I0 K-0.635
G3 X238.71 Z-26.478 I-0.279 K0.57
G1 X231.747 Z-26.481
X230.605 Z-26.547
X228.825 Z-26.829
X228.114 Z-26.921
X227.746 Z-26.963
X224.482 Z-27.487
X223.231 Z-27.628
X221.332 Z-27.936
X220.137 Z-28.133
X219.596 Z-28.206
X217.945 Z-28.466
X216.948 Z-28.598
X216.46 Z-28.662
X212.226 Z-29.346
X211.616 Z-29.143
X209.431 Z-28.442
X208.729 Z-28.287
X208.476 Z-28.208
X207.831 Z-27.947
X207.323 Z-27.716
X207.058 Z-27.578
X206.682 Z-27.351
X206.317 Z-27.096
X205.996 Z-26.842
X205.694 Z-26.574
X205.294 Z-26.18
X204.791 Z-25.636
X203.816 Z-24.522
X203.537 Z-24.197
X203.219 Z-23.835
X202.958 Z-23.572
X202.648 Z-23.277
X202.203 Z-22.9
X201.905 Z-22.676
X201.601 Z-22.456
X201.466 Z-22.38
X200.491 Z-21.936
X199.855 Z-21.68
X199.399 Z-21.529
X198.985 Z-21.417
X197.449 Z-21.016
X197.102 Z-20.932
X196.25 Z-20.594
X195.427 Z-20.255
X194.836 Z-20.004
X194.534 Z-19.897
X193.31 Z-19.503
X192.793 Z-19.363
X191.39 Z-19.059
X190.81 Z-18.956
X189.646 Z-18.77
X189.019 Z-18.688
X188.331 Z-18.581
X187.796 Z-18.525
X187.513 Z-18.503
X186.67 Z-18.416
X186.124 Z-18.387
X184.952 Z-18.381
X184.222 Z-18.376
X182.395 Z-18.202
X181.795 Z-18.154
X181.094 Z-18.091
X180.577 Z-18.069
X179.976 Z-18.071
X178.953 Z-18.107
X178.139 Z-18.133
X176.912 Z-18.121
X176.344 Z-18.142
X174.241 Z-18.252
X173.133 Z-18.164
X172.222 Z-18.086
X171.696 Z-18.068
X170.666 Z-18.064
X169.769 Z-18.058
X168.937 Z-18.062
X167.156 Z-18.142
X165.562 Z-18.232
X164.462 Z-18.244
X160.742 Z-18.241
X158.99 Z-18.219
X158.392 Z-18.185
X156.78 Z-18.017
X156.268 Z-17.944
X155.739 Z-17.88
X153.725 Z-17.585
X153.032 Z-17.511
X152.399 Z-17.446
X151.879 Z-17.378
X151.557 Z-17.343
X151.037 Z-17.272
X150.514 Z-17.212
X149.516 Z-17.078
X148.759 Z-17.011
X147.817 Z-16.953
X147.262 Z-16.902
X146.348 Z-16.782
X145.757 Z-16.681
X144.797 Z-16.483
X144.225 Z-16.367
X142.755 Z-16.129
X141.608 Z-15.972
X141.024 Z-15.894
X140.424 Z-15.845
X139.82 Z-15.817
X139.486 Z-15.76
X139.112 Z-15.667
X138.32 Z-15.439
X137.8 Z-15.312
X137.221 Z-15.203
X136.555 Z-15.088
X135.77 Z-14.918
X135.259 Z-14.801
X134.731 Z-14.708
X132.837 Z-14.397
X132.376 Z-14.302
X130.489 Z-14.006
X129.374 Z-13.809
X127.463 Z-13.548
X126.466 Z-13.402
X125.771 Z-13.333
X125.178 Z-13.28
X123.56 Z-13.162
X121.603 Z-12.989
X120.011 Z-12.908
X116.6 Z-12.771
X115.667 Z-12.765
X114.818 Z-12.76
X113.996 Z-12.749
X112.136 Z-12.748
X110.216 Z-12.77
X109.58 Z-12.777
X109 Z-12.815
X108.318 Z-12.892
X107.434 Z-12.979
X106.708 Z-13.078
X105.442 Z-13.264
X105.178 Z-13.306
X103.688 Z-13.449
X102.877 Z-13.549
X101.888 Z-13.644
X101.175 Z-13.725
X100.392 Z-13.846
X99.673 Z-13.961
X98.969 Z-14.034
X98.302 Z-14.13
X98.143 Z-14.154
X97.111 Z-14.25
X96.361 Z-14.336
X95.637 Z-14.446
X95.107 Z-14.522
X94.412 Z-14.585
X93.145 Z-14.659
X92.422 Z-14.733
X91.649 Z-14.847
X90.518 Z-15.033
X89.742 Z-15.194
X88.255 Z-15.514
X86.199 Z-15.849
X85.538 Z-15.981
X84.418 Z-16.225
X83.859 Z-16.373
X83.321 Z-16.532
X82.802 Z-16.685
X81.876 Z-17.006
X81.365 Z-17.121
X81.177 Z-17.157
X80.212 Z-17.289
X79.157 Z-17.471
X76.243 Z-18.022
X75.886 Z-18.092
X74.85 Z-18.25
X72.912 Z-18.46
X71.373 Z-18.653
X70.425 Z-18.757
X69.165 Z-18.956
X67.997 Z-19.129
X66.326 Z-19.287
X65.064 Z-19.486
X63.589 Z-19.707
X60.435 Z-20.211
X59.16 Z-20.364
X58.218 Z-20.515
X56.763 Z-20.686
X56.515 Z-20.714
X55.019 Z-20.83
X54.447 Z-20.906
X54.134 Z-20.953
X53.699 Z-21.01
X53.233 Z-21.082
X52.621 Z-21.155
X51.595 Z-21.306
X50.113 Z-21.394
X49.892 Z-21.411
X49.125 Z-21.413
X46.631 Z-21.809
X45.759 Z-21.941
X45.468 Z-21.959
X44.79 Z-21.995
X42.548 Z-22.271
X41.545 Z-22.512
X41.07 Z-22.597
X40.276 Z-22.721
X39.883 Z-22.768
X38.605 Z-22.857
X38.067 Z-22.875
X35.916 Z-22.878
X35.773 Z-22.894
X33.574 Z-23.254
X32.882 Z-23.461
X32.595 Z-23.482
X31.055 Z-23.725
X30.283 Z-23.803
X29.252 Z-23.868
X28.43 Z-23.944
X28.088 Z-23.951
X27.178 Z-24.013
X25.635 Z-24.26
X24.735 Z-24.341
X22.947 Z-24.449
X22.401 Z-24.478
X22.052 Z-24.483
X20.474 Z-24.574
X20.083 Z-24.612
X18.988 Z-24.785
X17.87 Z-24.902
X16.325 Z-25.02
X14.054 Z-25.383
X13.088 Z-25.505
X12.802 Z-25.526
X12.357 Z-25.538
X8.833 Z-25.544
X8.111 Z-25.548
X6.866 Z-25.62
X5.658 Z-25.753
X4.322 Z-25.927
X3.06 Z-26.11
X2.114 Z-26.233
X0.419 Z-26.429
X-0.01 Z-26.492
G3 X-0.381 Z-26.434 I-0.092 K0.628
G1 X-0.457 Z-26.396
G2 X-0.737 Z-26.331 I-0.279 K-0.57
G17 G2 X-0.737 Y-140.108 I0 J0.2
G1 X-0.651
G18 G3 X-0.372 Z-26.396 I0 K-0.635
G2 X-0.01 Z-26.456 I0.279 K0.57
G1 X0.796 Z-26.35
X1.731 Z-26.239
X2.635 Z-26.121
X4.829 Z-25.804
X6.309 Z-25.615
X7.479 Z-25.549
X8.751 Z-25.544
X10.565 Z-25.519
X12.915 Z-25.514
X13.022 Z-25.505
X13.934 Z-25.384
X16.198 Z-25.021
X17.69 Z-24.9
X18.798 Z-24.783
X19.899 Z-24.607
X20.433 Z-24.556
X21.73 Z-24.481
X22.182 Z-24.478
X22.97 Z-24.436
X24.652 Z-24.327
X25.238 Z-24.271
X26.096 Z-24.154
X27.578 Z-23.974
X28.959 Z-23.829
X30.32 Z-23.729
X31.19 Z-23.648
X32.296 Z-23.569
X32.783 Z-23.499
X32.989 Z-23.451
X33.603 Z-23.255
X35.888 Z-22.881
X37.726 Z-22.878
X38.401 Z-22.863
X39.71 Z-22.765
X41.2 Z-22.568
X42.217 Z-22.376
X42.657 Z-22.271
X44.897 Z-21.996
X45.621 Z-21.955
X45.887 Z-21.923
X48.989 Z-21.426
X49.123 Z-21.411
X49.662
X50.025 Z-21.379
X51.422 Z-21.29
X52.439 Z-21.133
X53.446 Z-21.021
X53.764 Z-20.975
X54.711 Z-20.826
X56.241 Z-20.698
X56.48 Z-20.67
X57.96 Z-20.48
X58.581 Z-20.434
X59.052 Z-20.362
X60.337 Z-20.205
X62.459 Z-19.869
X64.643 Z-19.519
X66.082 Z-19.292
X67.328 Z-19.161
X67.953 Z-19.093
X70.227 Z-18.736
X71.26 Z-18.621
X71.652 Z-18.568
X73.132 Z-18.374
X74.521 Z-18.219
X75.474 Z-18.067
X76.156 Z-17.932
X77.766 Z-17.621
X79.874 Z-17.218
X80.883 Z-17.055
X81.164 Z-16.991
X82.066 Z-16.796
X82.405 Z-16.677
X82.963 Z-16.488
X84.209 Z-16.147
X85.397 Z-15.888
X86.437 Z-15.684
X88.275 Z-15.377
X89.742 Z-15.064
X90.518 Z-14.904
X91.649 Z-14.718
X92.422 Z-14.603
X93.146 Z-14.53
X94.784 Z-14.437
X95.072 Z-14.416
X95.804 Z-14.311
X96.519 Z-14.208
X97.882 Z-14.061
X98.703 Z-13.945
X99.703 Z-13.828
X100.083 Z-13.763
X101.066 Z-13.606
X102.458 Z-13.438
X103.43 Z-13.316
X105.178 Z-13.103
X106.102 Z-12.947
X107.581 Z-12.734
X109.117 Z-12.594
X109.709 Z-12.566
X111.795 Z-12.561
X116.932 Z-12.564
X118.006 Z-12.599
X119.163 Z-12.635
X120.119 Z-12.67
X121.813 Z-12.761
X123.71 Z-12.951
X125.223 Z-13.076
X126.114 Z-13.16
X126.755 Z-13.225
X128.166 Z-13.429
X129.374 Z-13.61
X131.019 Z-13.904
X132.534 Z-14.136
X135.051 Z-14.546
X135.576 Z-14.655
X136.083 Z-14.787
X136.575 Z-14.898
X137.451 Z-15.049
X138.027 Z-15.17
X138.649 Z-15.334
X139.143 Z-15.476
X139.709 Z-15.589
X140.092 Z-15.636
X140.739 Z-15.679
X141.329 Z-15.737
X142.684 Z-15.947
X143.944 Z-16.147
X144.576 Z-16.262
X145.139 Z-16.396
X145.882 Z-16.558
X146.379 Z-16.642
X147.339 Z-16.771
X148.174 Z-16.843
X149.465 Z-16.954
X150.869 Z-17.136
X152.853 Z-17.338
X153.708 Z-17.426
X155.935 Z-17.751
X156.96 Z-17.858
X158.228 Z-17.972
X159.02 Z-17.995
X164.209 Z-18.003
X165.699 Z-17.995
X167.421 Z-17.907
X169.132 Z-17.828
X169.83 Z-17.825
X171.849 Z-17.828
X172.342 Z-17.852
X172.872 Z-17.906
X174.461 Z-18.059
X176.266 Z-17.966
X177.036 Z-17.938
X177.95 Z-17.944
X180.067 Z-17.864
X180.746
X181.37 Z-17.894
X184.506 Z-18.188
X185.583 Z-18.191
X186.435 Z-18.198
X187.18 Z-18.235
X188.514 Z-18.374
X190.673 Z-18.718
X191.307 Z-18.827
X192.762 Z-19.141
X193.28 Z-19.278
X194.567 Z-19.692
X195.058 Z-19.868
X195.6 Z-20.098
X196.726 Z-20.573
X197.026 Z-20.659
X197.811 Z-20.834
X199.095 Z-21.176
X199.506 Z-21.292
X199.961 Z-21.45
X200.605 Z-21.715
X201.092 Z-21.936
X201.577 Z-22.163
X201.952 Z-22.366
X202.123 Z-22.487
X202.452 Z-22.757
X203.16 Z-23.411
X203.23 Z-23.483
X203.723 Z-24.048
X204.061 Z-24.462
X204.793 Z-25.332
X205.311 Z-25.919
X205.675 Z-26.301
X206.009 Z-26.621
X206.285 Z-26.856
X206.584 Z-27.084
X206.921 Z-27.31
X207.302 Z-27.538
X207.754 Z-27.773
X208.31 Z-28.03
X209.092 Z-28.356
X209.463 Z-28.44
X210.305 Z-28.708
X210.909 Z-28.895
X212.322 Z-29.35
X216.563 Z-28.667
X217.371 Z-28.572
X218.473 Z-28.425
X221.226 Z-27.99
X221.704 Z-27.897
X223.238 Z-27.649
X223.903 Z-27.574
X224.817 Z-27.465
X227.923 Z-26.967
X228.658 Z-26.884
X229.734 Z-26.737
X230.93 Z-26.547
X232.111 Z-26.479
X238.71 Z-26.478
G2 X238.989 Z-26.413 I0 K0.635
G3 X239.269 Z-26.348 I0.279 K-0.57
G17 G3 X239.269 Y-139.708 I0 J0.2
G18 G2 X238.989 Z-26.413 I0 K-0.635
G3 X238.71 Z-26.478 I-0.279 K0.57
G1 X232.51 Z-26.48
X231.318 Z-26.548
X230.257 Z-26.715
X228.854 Z-26.889
X228.161 Z-26.967
X225.315 Z-27.424
X224.221 Z-27.561
X223.26 Z-27.667
X221.94 Z-27.885
X221.343 Z-28.01
X219.094 Z-28.369
X218.085 Z-28.511
X216.635 Z-28.678
X212.416 Z-29.359
X211.26 Z-28.988
X210.545 Z-28.78
X209.675 Z-28.496
X208.874 Z-28.157
X208.271 Z-27.877
X207.819 Z-27.642
X207.416 Z-27.404
X207.105 Z-27.198
X206.802 Z-26.973
X206.477 Z-26.709
X206.132 Z-26.396
X205.833 Z-26.097
X205.52 Z-25.759
X205.035 Z-25.205
X204.404 Z-24.451
X203.73 Z-23.62
X203.571 Z-23.443
X202.473 Z-22.425
X202.192 Z-22.229
X201.827 Z-22.009
X201.399 Z-21.791
X201.009 Z-21.615
X200.02 Z-21.203
X199.668 Z-21.077
X198.79 Z-20.837
X197.974 Z-20.612
X196.98 Z-20.395
X196.743 Z-20.345
X196.126 Z-20.11
X195.102 Z-19.67
X194.651 Z-19.504
X193.274 Z-19.061
X192.913 Z-18.965
X191.733 Z-18.715
X189.432 Z-18.346
X188.212 Z-18.21
X187.525 Z-18.133
X186.791 Z-18.083
X186.063 Z-18.062
X184.604 Z-18.059
X183.974 Z-17.992
X183.396 Z-17.932
X182.703 Z-17.857
X182.151 Z-17.796
X181.538 Z-17.73
X180.897 Z-17.691
X180.224 Z-17.683
X178.707 Z-17.739
X177.96 Z-17.766
X177.261 Z-17.77
X176.095 Z-17.819
X174.787 Z-17.886
X174.208 Z-17.824
X173.163 Z-17.704
X172.589 Z-17.631
X172.028 Z-17.592
X171.431 Z-17.582
X169.21 Z-17.584
X168.603 Z-17.611
X165.861 Z-17.752
X164.037 Z-17.76
X158.555 Z-17.754
X158.001 Z-17.735
X157.875 Z-17.733
X157.321 Z-17.693
X156.449 Z-17.617
X156.055 Z-17.588
X155.518 Z-17.536
X154.972 Z-17.461
X153.948 Z-17.313
X151.752 Z-17.074
X150.272 Z-16.929
X149.072 Z-16.772
X147.33 Z-16.616
X146.629 Z-16.527
X146.015 Z-16.433
X145.439 Z-16.305
X144.776 Z-16.134
X144.356 Z-16.05
X143.162 Z-15.851
X141.628 Z-15.603
X140.989 Z-15.527
X140.559 Z-15.487
X139.81 Z-15.391
X139.221 Z-15.28
X138.638 Z-15.137
X137.99 Z-14.967
X137.44 Z-14.853
X136.658 Z-14.721
X135.72 Z-14.478
X135.114 Z-14.37
X133.113 Z-14.051
X132.075 Z-13.892
X131.061 Z-13.721
X129.889 Z-13.491
X129.316 Z-13.381
X126.793 Z-13.009
X126.152 Z-12.942
X124.883 Z-12.825
X123.431 Z-12.688
X121.864 Z-12.523
X120.379 Z-12.438
X119.57 Z-12.409
X118.891 Z-12.403
X118.294 Z-12.389
X117.746 Z-12.381
X117.194 Z-12.369
X112.892 Z-12.366
X109.712 Z-12.372
X109.108 Z-12.401
X108.268 Z-12.465
X107.661 Z-12.515
X106.101 Z-12.721
X105.037 Z-12.91
X104.304 Z-12.999
X102.815 Z-13.222
X101.959 Z-13.329
X101.318 Z-13.415
X99.848 Z-13.671
X98.925 Z-13.788
X97.8 Z-13.942
X96.663 Z-14.077
X95.22 Z-14.278
X94.784 Z-14.33
X93.582 Z-14.413
X92.524 Z-14.478
X92.039 Z-14.527
X90.564 Z-14.766
X89.845 Z-14.913
X88.283 Z-15.245
X86.585 Z-15.537
X85.453 Z-15.767
X84.007 Z-16.081
X82.79 Z-16.402
X82.334 Z-16.556
X81.365 Z-16.775
X80.619 Z-16.965
X79.568 Z-17.158
X77.793 Z-17.511
X77.276 Z-17.621
X76.078 Z-17.852
X75.132 Z-18.04
X74.223 Z-18.186
X73.249 Z-18.297
X71.475 Z-18.543
X69.962 Z-18.73
X67.857 Z-19.065
X66.373 Z-19.236
X65.873 Z-19.297
X60.324 Z-20.188
X58.992 Z-20.357
X58.844 Z-20.378
X57.522 Z-20.475
X56.045 Z-20.68
X54.408 Z-20.828
X53.284 Z-21.007
X52.165 Z-21.131
X51.223 Z-21.28
X49.861 Z-21.372
X49.477 Z-21.411
X49.04 Z-21.416
X45.882 Z-21.922
X45.564 Z-21.962
X44.977 Z-22.002
X42.786 Z-22.268
X42.289 Z-22.313
X41.094 Z-22.546
X39.501 Z-22.768
X38.253 Z-22.868
X37.559 Z-22.878
X35.963 Z-22.88
X33.663 Z-23.255
X33.098 Z-23.431
X32.101 Z-23.496
X30.949 Z-23.585
X29.922 Z-23.675
X29.115 Z-23.75
X28.12 Z-23.851
X26.676 Z-24.022
X25.198 Z-24.232
X24.806 Z-24.282
X24.375 Z-24.328
X22.876 Z-24.432
X21.997 Z-24.478
X21.44 Z-24.481
X20.238 Z-24.55
X19.709 Z-24.609
X18.662 Z-24.776
X17.5 Z-24.901
X16.125 Z-25.019
X13.812 Z-25.389
X13.235 Z-25.47
X10.838 Z-25.474
