(mammoth roughing 1.0)
(T6  D=6.35 CR=0 - ZMIN=-31 - flat end mill)
G90 G94
G17
G21
(When using Fusion 360 for Personal Use, the feedrate of)
(rapid moves is reduced to match the feedrate of cutting)
(moves, which can increase machining time. Unrestricted rapid)
(moves are available with a Fusion 360 Subscription.)
G28 G91 Z0
G90

(Pocket3)
T6
S15000 M3
G54
G0 X177.284 Y-66.098
Z15
G1 Z5 F2000
Z4.835 F333.3
X177.297 Y-66.091 Z4.696
X177.336 Y-66.069 Z4.565
X177.399 Y-66.033 Z4.446
X177.482 Y-65.983 Z4.346
X177.579 Y-65.919 Z4.27
X177.685 Y-65.844 Z4.22
X177.793 Y-65.759 Z4.2
G3 X173.957 Y-61.103 Z3.869 I-1.918 J2.328
X177.793 Y-65.759 Z3.538 I1.918 J-2.328
X173.957 Y-61.103 Z3.207 I-1.918 J2.328
X177.793 Y-65.759 Z2.876 I1.918 J-2.328
X173.957 Y-61.103 Z2.545 I-1.918 J2.328
X177.793 Y-65.759 Z2.215 I1.918 J-2.328
X173.957 Y-61.103 Z1.884 I-1.918 J2.328
X177.793 Y-65.759 Z1.553 I1.918 J-2.328
X173.957 Y-61.103 Z1.222 I-1.918 J2.328
X177.793 Y-65.759 Z0.891 I1.918 J-2.328
X173.957 Y-61.103 Z0.56 I-1.918 J2.328
X177.793 Y-65.759 Z0.229 I1.918 J-2.328
X173.957 Y-61.103 Z-0.102 I-1.918 J2.328
X177.793 Y-65.759 Z-0.433 I1.918 J-2.328
X173.957 Y-61.103 Z-0.764 I-1.918 J2.328
X177.793 Y-65.759 Z-1.094 I1.918 J-2.328
X173.957 Y-61.103 Z-1.425 I-1.918 J2.328
X177.793 Y-65.759 Z-1.756 I1.918 J-2.328
X173.957 Y-61.103 Z-2.087 I-1.918 J2.328
X177.793 Y-65.759 Z-2.418 I1.918 J-2.328
X173.957 Y-61.103 Z-2.749 I-1.918 J2.328
X177.793 Y-65.759 Z-3.08 I1.918 J-2.328
X173.957 Y-61.103 Z-3.411 I-1.918 J2.328
X177.793 Y-65.759 Z-3.742 I1.918 J-2.328
X175.875 Y-60.414 Z-4 I-1.918 J2.328
G1 X170.655 F2000
G3 X170.331 Y-61.34 I0 J-0.519
G2 X173.918 Y-64.322 I-67.537 J-84.884
X177.322 Y-67.511 I-40.64 J-46.799
G3 X178.286 Y-67.114 I0.4 J0.396
G1 Y-61.631
G3 X177.069 Y-60.414 I-1.217 J0
G1 X175.875
G2 X173.303 Y-58.7 I0 J2.786
G3 X170.731 Y-56.985 I-2.572 J-1.072
G1 X161.979
G3 X161.573 Y-57.953 I0 J-0.569
G2 X163.203 Y-59.679 I-43.543 J-42.759
G3 X164.871 Y-61.368 I20.968 J19.046
X167.14 Y-63.141 I11.399 J12.247
G2 X169.465 Y-64.839 I-14.769 J-22.678
X175.284 Y-70.244 I-38.688 J-47.484
X180.397 Y-76.322 I-49.768 J-47.052
X180.601 Y-76.616 I-4.187 J-3.126
G3 X180.804 Y-76.912 I5.344 J3.446
X181.715 Y-76.616 I0.407 J0.296
G1 Y-58.202
G3 X180.498 Y-56.985 I-1.217 J0
G1 X170.731
G2 X168.16 Y-55.271 I0 J2.786
G3 X165.588 Y-53.556 I-2.572 J-1.072
G1 X152.922
G3 X152.559 Y-54.503 I0 J-0.543
X154.18 Y-55.777 I10.416 J11.586
G2 X155.801 Y-57.05 I-9.488 J-13.741
X158.527 Y-59.558 I-77.272 J-86.726
X161.103 Y-62.22 I-30.422 J-32.027
G3 X165.565 Y-66.223 I19.961 J17.763
G2 X170.231 Y-69.985 I-29.081 J-40.84
X182.834 Y-86.589 I-38.525 J-42.326
X183.602 Y-88.306 I-18.728 J-9.399
G3 X184.314 Y-90.047 I66.507 J26.206
X185.144 Y-89.878 I0.398 J0.169
G1 Y-54.773
G3 X183.927 Y-53.556 I-1.217 J0
G1 X165.588
G2 X163.127 Y-51.916 I0 J2.666
G3 X160.667 Y-50.275 I-2.461 J-1.025
G1 X143.497
G3 X143.191 Y-51.193 I0 J-0.51
G2 X151.726 Y-57.839 I-185.567 J-247.106
X158.749 Y-64.51 I-37.934 J-46.966
G3 X163.282 Y-68.583 I20.434 J18.184
G2 X168.023 Y-72.412 I-30.022 J-42.022
X177.34 Y-83.641 I-35.234 J-38.71
X183.314 Y-96.953 I-47.592 J-29.357
G3 X185.022 Y-98.225 I1.708 J0.512
G1 X187.208
G3 X188.425 Y-97.008 I0 J1.217
G1 Y-51.492
G3 X187.208 Y-50.275 I-1.217 J0
G1 X160.667
G2 X158.095 Y-48.561 I0 J2.786
G3 X155.523 Y-46.846 I-2.572 J-1.072
G1 X132.008
G3 X131.78 Y-47.716 I0 J-0.464
G2 X136.325 Y-50.41 I-59.076 J-104.856
X140.689 Y-53.389 I-33.147 J-53.226
X149.308 Y-60.251 I-106.093 J-142.115
X157.067 Y-68.072 I-41.47 J-48.896
G3 X158.744 Y-69.633 I7.006 J5.846
G1 X162.134 Y-72.072
G2 X165.981 Y-75.19 I-25.212 J-35.044
X175.223 Y-86.692 I-32.069 J-35.234
X180.695 Y-100.394 I-45.365 J-26.06
G3 X182.297 Y-101.654 I1.602 J0.389
G1 X190.637
G3 X191.854 Y-100.437 I0 J1.217
G1 Y-48.063
G3 X190.637 Y-46.846 I-1.217 J0
G1 X155.523
G2 X152.951 Y-45.132 I0 J2.786
G3 X150.38 Y-43.417 I-2.572 J-1.072
G1 X111.559
G3 X111.468 Y-44.188 I0 J-0.391
G2 X119.356 Y-46.149 I-113.148 J-471.971
X126.998 Y-48.92 I-10.593 J-41.135
X137.087 Y-54.986 I-25.934 J-54.563
X146.314 Y-62.297 I-112.58 J-151.564
X150.677 Y-66.231 I-58.117 J-68.827
X154.664 Y-70.547 I-34.848 J-36.193
G3 X156.448 Y-72.207 I7.053 J5.79
G2 X163.523 Y-77.76 I-52.237 J-73.852
X169.644 Y-84.35 I-27.562 J-31.738
X174.914 Y-93.61 I-34.512 J-25.766
X177.92 Y-103.832 I-45.959 J-19.069
G3 X179.416 Y-105.083 I1.496 J0.27
G1 X194.066
G3 X195.283 Y-103.866 I0 J1.217
G1 Y-44.634
G3 X194.066 Y-43.417 I-1.217 J0
G1 X150.38
X150.309 Y-43.421 Z-3.992
X150.239 Y-43.433 Z-3.984
X150.175 Y-43.451 Z-3.961
X150.113 Y-43.476 Z-3.937
X150.059 Y-43.504 Z-3.899
X150.009 Y-43.537 Z-3.861
X149.932 Y-43.602 Z-3.761
X149.882 Y-43.658 Z-3.641
X149.854 Y-43.696 Z-3.506
X149.845 Y-43.709 Z-3.365
Z5
X42.595 Y-43.896
Z4.835
X42.589 Y-43.91 Z4.696 F333.3
X42.572 Y-43.951 Z4.565
X42.545 Y-44.019 Z4.446
X42.513 Y-44.11 Z4.346
X42.478 Y-44.221 Z4.27
X42.443 Y-44.346 Z4.22
X42.413 Y-44.48 Z4.2
G3 X48.326 Y-45.676 Z3.869 I2.956 J-0.598
X42.413 Y-44.48 Z3.538 I-2.956 J0.598
X48.326 Y-45.676 Z3.207 I2.956 J-0.598
X42.413 Y-44.48 Z2.876 I-2.956 J0.598
X48.326 Y-45.676 Z2.545 I2.956 J-0.598
X42.413 Y-44.48 Z2.215 I-2.956 J0.598
X48.326 Y-45.676 Z1.884 I2.956 J-0.598
X42.413 Y-44.48 Z1.553 I-2.956 J0.598
X48.326 Y-45.676 Z1.222 I2.956 J-0.598
X42.413 Y-44.48 Z0.891 I-2.956 J0.598
X48.326 Y-45.676 Z0.56 I2.956 J-0.598
X42.413 Y-44.48 Z0.229 I-2.956 J0.598
X48.326 Y-45.676 Z-0.102 I2.956 J-0.598
X42.413 Y-44.48 Z-0.433 I-2.956 J0.598
X48.326 Y-45.676 Z-0.764 I2.956 J-0.598
X42.413 Y-44.48 Z-1.094 I-2.956 J0.598
X48.326 Y-45.676 Z-1.425 I2.956 J-0.598
X42.413 Y-44.48 Z-1.756 I-2.956 J0.598
X48.326 Y-45.676 Z-2.087 I2.956 J-0.598
X42.413 Y-44.48 Z-2.418 I-2.956 J0.598
X48.326 Y-45.676 Z-2.749 I2.956 J-0.598
X42.413 Y-44.48 Z-3.08 I-2.956 J0.598
X48.326 Y-45.676 Z-3.411 I2.956 J-0.598
X42.413 Y-44.48 Z-3.742 I-2.956 J0.598
X47.271 Y-47.42 Z-4 I2.956 J-0.598
G2 X47.842 Y-46.977 I9.956 J-12.26 F2000
G3 X48.477 Y-46.499 I-28.378 J38.409
X48.166 Y-45.581 I-0.311 J0.407
G1 X46.478
G3 X45.581 Y-46.477 I0 J-0.896
G1 Y-47.55
G3 X46.579 Y-48.021 I0.61 J0
X46.897 Y-47.743 I-4.327 J5.274
G2 X47.215 Y-47.465 I4.573 J-4.912
G1 X47.271 Y-47.42
G2 X49.251 Y-47.248 I1.117 J-1.375
G3 X51.236 Y-47.146 I0.911 J1.632
G2 X55.867 Y-44.28 I27.03 J-38.511
G3 X55.648 Y-43.417 I-0.219 J0.404
G1 X44.634
G3 X43.417 Y-44.634 I0 J-1.217
G1 Y-52.53
G3 X44.381 Y-52.929 I0.564 J0
G2 X49.81 Y-48.187 I37.324 J-37.255
X51.236 Y-47.146 I28.457 J-37.469
X54.025 Y-47.097 I1.431 J-2.039
G3 X56.814 Y-47.175 I1.458 J2.242
G2 X72.631 Y-41.609 I23.013 J-40.142
X86.192 Y-40.795 I11.14 J-72.159
X99.597 Y-43.004 I-1.735 J-52.302
X103.915 Y-44.569 I-12.272 J-40.602
X108.098 Y-46.467 I-37.217 J-87.573
G3 X109.866 Y-46.999 I2.561 J5.3
G2 X111.68 Y-47.34 I-2.488 J-18.286
X118.977 Y-49.29 I-33.983 J-141.75
X126.031 Y-51.989 I-13.674 J-46.308
X135.952 Y-58.125 I-22.77 J-47.905
X145.083 Y-65.384 I-468.507 J-598.623
X148.96 Y-68.924 I-27.272 J-33.765
X152.44 Y-72.856 I-40.993 J-39.777
G3 X154.303 Y-74.591 I6.962 J5.612
G2 X161.169 Y-79.907 I-47.507 J-68.453
X167.091 Y-86.256 I-25.978 J-30.166
X172.077 Y-95.005 I-32.792 J-24.482
X174.912 Y-104.666 I-42.638 J-17.758
X175.083 Y-105.858 I-17.721 J-3.155
G3 X175.239 Y-107.053 I29.801 J3.27
X176.648 Y-108.265 I1.409 J0.212
G1 X197.273
G3 X198.465 Y-107.073 I0 J1.192
G1 Y-41.427
G3 X197.273 Y-40.235 I-1.192 J0
G1 X41.427
G3 X40.235 Y-41.427 I0 J-1.192
G1 Y-61.721
G3 X41.109 Y-61.982 I0.476 J0
G2 X56.814 Y-47.175 I38.718 J-25.335
X59.539 Y-47.378 I1.212 J-2.115
G3 X62.252 Y-47.707 I1.625 J2.054
G2 X63.307 Y-47.241 I18.979 J-41.562
X73.849 Y-44.379 I15.576 J-36.521
X84.751 Y-43.685 I10.902 J-85.296
X94.919 Y-44.799 I0 J-46.94
X104.625 Y-48.026 I-10.815 J-48.745
X106.079 Y-48.802 I-5.073 J-11.253
G3 X107.612 Y-49.409 I2.429 J3.898
G2 X118.986 Y-52.295 I-21.947 J-110.347
X129.588 Y-57.323 I-12.267 J-39.56
X132.538 Y-59.291 I-295.669 J-446.462
X135.432 Y-61.341 I-39.778 J-59.21
X143.361 Y-67.68 I-91.771 J-122.929
X150.42 Y-74.976 I-34.962 J-40.885
G3 X152.371 Y-76.783 I6.985 J5.583
G2 X159.034 Y-81.873 I-43.503 J-63.862
X164.766 Y-87.992 I-24.471 J-28.669
X170.252 Y-98.428 I-30.143 J-22.505
X172.662 Y-109.97 I-46.364 J-15.705
G3 X173.966 Y-111.167 I1.304 J0.111
G1 X200.174
G3 X201.367 Y-109.974 I0 J1.192
G1 Y-38.526
G3 X200.174 Y-37.333 I-1.192 J0
G1 X38.526
G3 X37.333 Y-38.526 I0 J-1.192
G1 Y-75.932
G3 X38.089 Y-76.024 I0.384 J0
G2 X47.307 Y-58.662 I39.19 J-9.679
X62.252 Y-47.707 I33.924 J-30.607
G1 X62.315 Y-47.674 Z-3.992
X62.373 Y-47.635 Z-3.984
X62.424 Y-47.591 Z-3.961
X62.471 Y-47.543 Z-3.937
X62.508 Y-47.496 Z-3.899
X62.54 Y-47.445 Z-3.861
X62.583 Y-47.354 Z-3.761
X62.606 Y-47.282 Z-3.641
X62.616 Y-47.236 Z-3.506
X62.618 Y-47.22 Z-3.365
Z5
X37.925 Y-111.325
Z4.835
X37.938 Y-111.333 Z4.696 F333.3
X37.976 Y-111.357 Z4.565
X38.038 Y-111.394 Z4.446
X38.123 Y-111.441 Z4.346
X38.226 Y-111.494 Z4.27
X38.344 Y-111.548 Z4.22
X38.471 Y-111.6 Z4.2
G3 X40.625 Y-105.965 Z3.869 I1.077 J2.817
X38.471 Y-111.6 Z3.538 I-1.077 J-2.817
X40.625 Y-105.965 Z3.207 I1.077 J2.817
X38.471 Y-111.6 Z2.876 I-1.077 J-2.817
X40.625 Y-105.965 Z2.545 I1.077 J2.817
X38.471 Y-111.6 Z2.215 I-1.077 J-2.817
X40.625 Y-105.965 Z1.884 I1.077 J2.817
X38.471 Y-111.6 Z1.553 I-1.077 J-2.817
X40.625 Y-105.965 Z1.222 I1.077 J2.817
X38.471 Y-111.6 Z0.891 I-1.077 J-2.817
X40.625 Y-105.965 Z0.56 I1.077 J2.817
X38.471 Y-111.6 Z0.229 I-1.077 J-2.817
X40.625 Y-105.965 Z-0.102 I1.077 J2.817
X38.471 Y-111.6 Z-0.433 I-1.077 J-2.817
X40.625 Y-105.965 Z-0.764 I1.077 J2.817
X38.471 Y-111.6 Z-1.094 I-1.077 J-2.817
X40.625 Y-105.965 Z-1.425 I1.077 J2.817
X38.471 Y-111.6 Z-1.756 I-1.077 J-2.817
X40.625 Y-105.965 Z-2.087 I1.077 J2.817
X38.471 Y-111.6 Z-2.418 I-1.077 J-2.817
X40.625 Y-105.965 Z-2.749 I1.077 J2.817
X38.471 Y-111.6 Z-3.08 I-1.077 J-2.817
X40.625 Y-105.965 Z-3.411 I1.077 J2.817
X38.471 Y-111.6 Z-3.742 I-1.077 J-2.817
X42.171 Y-107.293 Z-4 I1.077 J2.817
G2 X40.862 Y-104.844 I46.895 J26.635 F2000
X38.564 Y-99.166 I34.093 J17.106
X38.321 Y-98.273 I11.361 J3.567
G3 X38.097 Y-97.375 I-24.783 J-5.712
X37.333 Y-97.476 I-0.375 J-0.101
G1 Y-109.974
G3 X38.526 Y-111.167 I1.192 J0
G1 X43.369
G3 X43.916 Y-110.155 I0 J0.654
G2 X42.171 Y-107.293 I45.15 J29.497
X42.391 Y-104.566 I2.116 J1.202
G3 X42.748 Y-101.853 I-2.049 J1.649
G2 X42.396 Y-101.034 I40.07 J17.717
X39.569 Y-86.943 I33.708 J14.092
X73.376 Y-47.484 I39.93 J0
X85.614 Y-46.688 I10.621 J-68.795
X97.725 Y-48.623 I-1.058 J-45.506
X101.619 Y-50.121 I-8.167 J-27.021
X105.383 Y-51.92 I-205.083 J-433.999
G3 X107.573 Y-52.654 I3.97 J8.216
G2 X118.097 Y-55.255 I-23 J-115.642
X127.921 Y-59.84 I-10.429 J-35.167
X130.801 Y-61.76 I-313.654 J-473.62
X133.626 Y-63.76 I-38.385 J-57.202
X140.512 Y-69.107 I-137.299 J-183.915
X146.823 Y-75.123 I-33.37 J-41.327
X148.037 Y-76.767 I-8.386 J-7.463
G3 X149.424 Y-78.268 I4.378 J2.654
G2 X156.327 Y-83.539 I-90.291 J-125.412
X162.347 Y-89.798 I-21.969 J-27.156
X167.915 Y-100.799 I-28.722 J-21.444
X169.78 Y-112.988 I-41.171 J-12.538
G3 X170.991 Y-114.189 I1.211 J0.01
G1 X203.172
G3 X204.389 Y-112.972 I0 J1.217
G1 Y-35.528
G3 X203.172 Y-34.311 I-1.217 J0
G1 X35.528
G3 X34.311 Y-35.528 I0 J-1.217
G1 Y-112.972
G3 X35.528 Y-114.189 I1.217 J0
G1 X49.598
G3 X50.04 Y-113.206 I0 J0.591
G2 X42.748 Y-101.853 I32.779 J29.07
X43.345 Y-98.773 I2.512 J1.111
G3 X44.179 Y-95.749 I-2.164 J2.224
G2 X43.264 Y-91.1 I34.418 J9.186
X49.41 Y-66.289 I35.006 J4.496
X70.347 Y-51.626 I30.775 J-21.664
X76.089 Y-50.658 I7.826 J-28.897
G1 X81.844 Y-50.256
G2 X91.088 Y-50.663 I2.84 J-40.708
X100.016 Y-53.093 I-6.722 J-42.308
X102.134 Y-54.083 I-6.749 J-17.199
G3 X104.208 Y-55.162 I26.826 J49.033
X106.469 Y-55.931 I4.041 J8.181
G2 X116.578 Y-58.361 I-25.578 J-128.603
X126.028 Y-62.699 I-9.186 J-32.477
X128.828 Y-64.564 I-340.302 J-513.859
X131.575 Y-66.507 I-36.814 J-54.936
X138.194 Y-71.634 I-141.589 J-189.662
X144.262 Y-77.402 I-31.44 J-39.147
X145.752 Y-79.272 I-16.43 J-14.621
G3 X147.377 Y-81.025 I7.57 J5.387
X148.883 Y-82.099 I7.889 J9.475
G2 X150.433 Y-83.108 I-14.51 J-23.977
X160.579 Y-93.548 I-22.15 J-31.679
X165.931 Y-107.087 I-29.837 J-19.621
X166.379 Y-111.757 I-30.662 J-5.3
X166.198 Y-116.445 I-39.811 J-0.806
G3 X167.261 Y-117.618 I1.064 J-0.104
G1 X206.601
G3 X207.818 Y-116.401 I0 J1.217
G1 Y-32.099
G3 X206.601 Y-30.882 I-1.217 J0
G1 X32.099
G3 X30.882 Y-32.099 I0 J-1.217
G1 Y-116.401
G3 X32.099 Y-117.618 I1.217 J0
G1 X58.433
G3 X58.742 Y-116.689 I0 J0.516
G2 X48.404 Y-105.467 I24.818 J33.234
X44.179 Y-95.749 I30.193 J18.904
X45.228 Y-92.777 I2.695 J0.719
G3 X46.502 Y-89.896 I-1.862 J2.547
G2 X46.554 Y-82.796 I31.092 J3.322
X53.567 Y-66.295 I32.118 J-3.909
X64.22 Y-57.739 I25.25 J-20.527
X77.338 Y-53.917 I16.962 J-33.795
X88.192 Y-53.82 I5.949 J-58.225
X98.764 Y-56.283 I-3.147 J-37.42
X100.904 Y-57.285 I-6.777 J-17.269
G3 X102.994 Y-58.389 I36.696 J66.937
X105.423 Y-59.22 I4.137 J8.133
G2 X112.915 Y-60.809 I-34.639 J-181.787
X120.145 Y-63.339 I-8.164 J-34.916
X128.953 Y-68.833 I-19.587 J-41.21
G1 X131.659 Y-70.99
X134.359 Y-73.154
X137.054 Y-75.325
G2 X144.361 Y-82.967 I-25.938 J-32.113
G3 X146.101 Y-84.441 I3.994 J2.95
G2 X148.049 Y-85.628 I-6.832 J-13.413
X154.568 Y-91.253 I-28.207 J-39.276
X159.553 Y-98.273 I-20.381 J-19.751
X161.398 Y-102.862 I-26.733 J-13.416
X162.551 Y-107.671 I-36.811 J-11.371
X162.944 Y-113.806 I-28.321 J-4.895
X162.175 Y-119.905 I-37.343 J1.612
G3 X163.101 Y-121.047 I0.926 J-0.195
G1 X210.03
G3 X211.247 Y-119.83 I0 J1.217
G1 Y-28.67
G3 X210.03 Y-27.453 I-1.217 J0
G1 X28.67
G3 X27.453 Y-28.67 I0 J-1.217
G1 Y-119.83
G3 X28.67 Y-121.047 I1.217 J0
G1 X68.53
G3 X68.802 Y-120.152 I0 J0.489
G2 X57.905 Y-111.566 I50.331 J75.078
X49.581 Y-100.467 I25.808 J28.026
X46.502 Y-89.896 I28.013 J13.893
X48.103 Y-86.915 I2.981 J0.319
G3 X49.964 Y-84.09 I-1.595 J3.076
G2 X56.099 Y-68.617 I27.629 J-2.002
X65.147 Y-61.014 I24.357 J-19.801
X76.417 Y-57.458 I14.238 J-25.487
X86.746 Y-57.106 I7.758 J-75.932
X96.867 Y-59.198 I-1.028 J-30.501
X99.233 Y-60.281 I-8.603 J-21.922
G1 X101.759 Y-61.611
G3 X104.427 Y-62.523 I4.25 J8.075
G2 X111.682 Y-63.999 I-24.268 J-137.854
X118.673 Y-66.436 I-7.714 J-33.375
X126.588 Y-71.351 I-17.895 J-37.649
X133.851 Y-77.189 I-307.479 J-389.956
X137.722 Y-80.725 I-30.889 J-37.698
X141.154 Y-84.69 I-29.634 J-29.123
G3 X142.615 Y-86.208 I7.262 J5.525
X144.526 Y-87.517 I8.341 J10.127
G2 X146.488 Y-88.75 I-11.586 J-20.608
X154.78 Y-97.235 I-18.316 J-26.195
X159.171 Y-108.255 I-23.905 J-15.912
X159.41 Y-115.932 I-27.102 J-4.685
X157.555 Y-123.385 I-28.384 J3.107
G3 X158.295 Y-124.476 I0.74 J-0.294
G1 X213.459
G3 X214.676 Y-123.259 I0 J1.217
G1 Y-25.241
G3 X213.459 Y-24.024 I-1.217 J0
G1 X25.241
G3 X24.024 Y-25.241 I0 J-1.217
G1 Y-123.259
G3 X25.241 Y-124.476 I1.217 J0
G1 X76.656
G3 X77.277 Y-123.415 I0 J0.713
G2 X76.636 Y-122.21 I27.488 J15.402
X76.056 Y-120.975 I21.634 J10.919
G3 X75.525 Y-120.237 I-1.972 J-0.86
G2 X75.159 Y-119.901 I17.154 J19.016
G3 X74.644 Y-119.543 I-1.471 J-1.569
G2 X66.44 Y-114.459 I22.741 J45.86
X59.166 Y-108.115 I42.881 J56.505
X50.04 Y-88.956 I22.438 J22.441
X49.964 Y-84.09 I27.553 J2.864
X52.022 Y-81.555 I2.845 J-0.206
G3 X54.338 Y-79.254 I-0.935 J3.258
G2 X62.328 Y-67.197 I23.559 J-6.937
X69.081 Y-62.97 I19.881 J-24.254
X76.766 Y-60.869 I10.149 J-22.017
X86.281 Y-60.504 I7.639 J-74.768
X95.614 Y-62.39 I-0.685 J-27.414
X98.091 Y-63.528 I-8.784 J-22.382
X100.49 Y-64.822 I-91.467 J-172.565
G3 X103.312 Y-65.81 I4.386 J8.002
G2 X109.582 Y-67.014 I-31.082 J-178.724
X115.688 Y-68.878 I-7.4 J-35.168
X119.384 Y-70.776 I-8.777 J-21.643
X122.885 Y-73.01 I-247.252 J-391.439
X129.156 Y-77.579 I-36.65 J-56.887
X134.976 Y-82.709 I-69.428 J-84.627
X135.935 Y-83.727 I-8.363 J-8.835
G1 X136.874 Y-84.847
G3 X143.459 Y-90.976 I28.008 J23.49
X145.936 Y-92.722 I72.588 J100.358
G2 X148.311 Y-94.603 I-12.558 J-18.288
X153.107 Y-100.739 I-15.6 J-17.14
X155.671 Y-108.092 I-21.607 J-11.657
X155.768 Y-117.113 I-26.958 J-4.8
X152.695 Y-125.595 I-23.256 J3.628
X152.273 Y-126.243 I-9.152 J5.491
G3 X151.835 Y-126.881 I27.093 J-19.054
X152.382 Y-127.905 I0.547 J-0.366
G1 X216.888
G3 X218.105 Y-126.688 I0 J1.217
G1 Y-21.812
G3 X216.888 Y-20.595 I-1.217 J0
G1 X21.812
G3 X20.595 Y-21.812 I0 J-1.217
G1 Y-126.688
G3 X21.812 Y-127.905 I1.217 J0
G1 X83.451
G3 X83.89 Y-126.926 I0 J0.588
G2 X79.168 Y-119.531 I20.633 J18.381
G3 X77.881 Y-117.745 I-4.705 J-2.031
G2 X77.465 Y-117.363 I14.797 J16.523
G3 X76.219 Y-116.497 I-3.515 J-3.729
G2 X71.231 Y-113.656 I21.551 J43.643
X66.686 Y-110.15 I19.48 J29.951
G3 X62.975 Y-106.916 I-80.097 J-88.161
G2 X59.502 Y-103.429 I17.324 J20.728
X53.382 Y-84.725 I20.634 J17.105
X54.338 Y-79.254 I24.515 J-1.465
X56.886 Y-77.222 I2.724 J-0.802
G3 X59.662 Y-75.514 I-0.214 J3.459
G2 X64.502 Y-69.849 I18.24 J-10.682
X70.398 Y-66.136 I17.763 J-21.67
X77.114 Y-64.281 I8.837 J-18.902
X84.977 Y-63.882 I7.832 J-76.661
X92.765 Y-65.034 I-0.011 J-26.956
X95.506 Y-66.138 I-4.787 J-15.838
G3 X98.145 Y-67.465 I104.445 J204.438
X103.766 Y-69.378 I10.035 J20.283
G2 X109.848 Y-70.633 I-83.098 J-417.806
X115.729 Y-72.63 I-5.597 J-26.145
X120.526 Y-75.458 I-13.45 J-28.298
X124.966 Y-78.818 I-61.907 J-86.413
G1 X129.789 Y-82.672
G2 X134.427 Y-87.268 I-19.086 J-23.892
G3 X141.219 Y-93.59 I26.083 J21.214
G2 X145.172 Y-96.528 I-50.476 J-72.05
X148.609 Y-100.055 I-11.647 J-14.789
X152.695 Y-114.556 I-16.836 J-12.569
X146.334 Y-128.213 I-22.252 J2.054
G3 X146.024 Y-128.655 I1.144 J-1.131
G2 X145.144 Y-130.297 I-16.947 J8.025
G3 X145.73 Y-131.334 I0.586 J-0.353
G1 X220.317
G3 X221.534 Y-130.117 I0 J1.217
G1 Y-18.383
G3 X220.317 Y-17.166 I-1.217 J0
G1 X18.383
G3 X17.166 Y-18.383 I0 J-1.217
G1 Y-130.117
G3 X18.383 Y-131.334 I1.217 J0
G1 X91.002
G3 X91.585 Y-130.296 I0 J0.683
X90.992 Y-129.582 I-2.715 J-1.652
G2 X90.337 Y-128.923 I5.396 J6.017
G3 X87.43 Y-125.894 I-39.29 J-34.793
G2 X84.718 Y-122.689 I14.248 J14.812
X83.429 Y-120.525 I16.491 J11.286
X82.349 Y-118.25 I36.121 J18.533
G3 X80.106 Y-115.134 I-8.361 J-3.654
G2 X79.859 Y-114.907 I12.573 J13.912
G3 X77.68 Y-113.394 I-6.238 J-6.66
G2 X72.904 Y-110.582 I17.345 J34.925
X68.524 Y-107.187 I27.98 J40.618
G3 X65.212 Y-104.344 I-227.646 J-261.856
G2 X62.142 Y-101.24 I16.093 J18.989
X56.795 Y-85.054 I18.001 J14.923
X59.662 Y-75.514 I21.107 J-1.142
X62.631 Y-74.153 I2.457 J-1.439
G3 X65.754 Y-73.195 I0.638 J3.489
G2 X68.855 Y-70.733 I13.244 J-13.497
X76.673 Y-67.793 I10.926 J-17.19
X83.601 Y-67.264 I6.895 J-44.661
X90.51 Y-67.992 I-0.024 J-33.364
X93.989 Y-69.182 I-3.191 J-15.021
X97.256 Y-70.87 I-28.866 J-59.859
G3 X102.016 Y-72.545 I7.374 J13.349
G2 X107.635 Y-73.594 I-39.872 J-229.265
X113.111 Y-75.234 I-5.936 J-29.778
X116.224 Y-76.862 I-6.834 J-16.851
G3 X119.171 Y-78.775 I297.691 J455.571
G2 X123.9 Y-82.261 I-25.302 J-39.272
G3 X128.436 Y-85.995 I201.253 J239.821
G2 X131.141 Y-88.609 I-13.337 J-16.513
X133.449 Y-91.579 I-26.597 J-23.044
G3 X135.469 Y-93.674 I7.495 J5.205
G2 X136.601 Y-94.593 I-11.423 J-15.231
G3 X138.013 Y-95.612 I6.02 J6.857
G2 X143.367 Y-99.452 I-17.939 J-30.663
X147.409 Y-104.655 I-11.131 J-12.818
X149.258 Y-114.852 I-16.429 J-8.245
X145.218 Y-124.395 I-17.772 J1.897
X144.575 Y-125.108 I-9.575 J7.977
X143.903 Y-125.794 I-94.345 J91.788
G3 X142.92 Y-127.198 I3.647 J-3.6
G2 X140.611 Y-130.798 I-15.224 J7.223
X137.598 Y-133.834 I-19.505 J16.346
G3 X137.94 Y-134.763 I0.342 J-0.402
G1 X223.746
G3 X224.963 Y-133.546 I0 J1.217
G1 Y-14.954
G3 X223.746 Y-13.737 I-1.217 J0
G1 X14.954
G3 X13.737 Y-14.954 I0 J-1.217
G1 Y-133.546
G3 X14.954 Y-134.763 I1.217 J0
G1 X98.623
G3 X98.964 Y-133.834 I0 J0.527
G2 X96.432 Y-131.25 I12.697 J14.969
X94.373 Y-128.276 I18.201 J14.802
G3 X93.769 Y-127.493 I-3.315 J-1.935
G2 X91.87 Y-125.261 I12.65 J12.681
G3 X91.109 Y-124.421 I-4.155 J-2.999
G2 X88.546 Y-121.86 I19.684 J22.268
X86.447 Y-118.907 I12.685 J11.237
X85.841 Y-117.698 I12.827 J7.187
X85.314 Y-116.452 I33.613 J14.959
G3 X82.861 Y-112.991 I-8.467 J-3.401
G2 X82.416 Y-112.597 I39.831 J45.444
X81.981 Y-112.191 I9.146 J10.23
G3 X79.632 Y-110.533 I-6.371 J-6.533
G2 X72.638 Y-106.229 I19.035 J38.768
X66.442 Y-100.838 I35.774 J47.365
X60.482 Y-89.356 I15.153 J15.155
X62.969 Y-76.661 I17.821 J3.1
X65.754 Y-73.195 I16.03 J-10.031
X69.131 Y-72.704 I2.024 J-2.063
G3 X72.543 Y-72.715 I1.717 J3.243
G2 X73.032 Y-72.468 I9.919 J-19.044
X77.811 Y-71.103 I6.218 J-12.721
X84.321 Y-70.708 I8.046 J-78.748
X90.781 Y-71.599 I0.406 J-20.922
X93.723 Y-72.798 I-4.921 J-16.283
X96.479 Y-74.379 I-18.181 J-34.875
G3 X100.601 Y-75.807 I5.135 J8.166
G2 X108.736 Y-77.277 I-5.9 J-55.888
X116.149 Y-80.935 I-5.045 J-19.563
G3 X119.55 Y-83.318 I24.027 J30.674
G2 X122.887 Y-85.793 I-13.701 J-21.96
X127.116 Y-89.521 I-447.901 J-512.268
X130.803 Y-93.787 I-14.305 J-16.09
G3 X133.039 Y-96.14 I7.626 J5.011
G2 X133.773 Y-96.698 I-14.668 J-20.045
X134.477 Y-97.294 I-8.506 J-10.762
G3 X136.12 Y-98.479 I6.127 J6.762
G2 X142.074 Y-103.048 I-13.137 J-23.284
X145.512 Y-109.719 I-9.079 J-8.9
X145.689 Y-115.173 I-18.752 J-3.339
X143.942 Y-120.343 I-12.735 J1.423
X142.738 Y-122.012 I-10.455 J6.273
X141.332 Y-123.515 I-18.365 J15.767
G3 X139.9 Y-125.56 I4.792 J-4.88
G2 X136.208 Y-130.591 I-13.902 J6.333
X130.982 Y-134.001 I-13.605 J15.143
X126.761 Y-135.274 I-6.938 J15.362
X122.396 Y-135.896 I-17.466 J106.938
X115.4 Y-136.154 I-5.025 J41.254
X108.47 Y-135.158 I1.745 J36.747
X102.009 Y-131.978 I3.902 J16.082
X97.316 Y-126.516 I12.302 J15.316
G3 X96.215 Y-125.091 I-5.916 J-3.43
G2 X94.672 Y-123.284 I10.128 J10.213
G3 X93.353 Y-121.828 I-7.383 J-5.363
G2 X91.206 Y-119.691 I18.003 J20.243
X89.442 Y-117.228 I10.203 J9.168
X88.871 Y-116.084 I11.712 J6.563
X88.389 Y-114.898 I20.083 J8.858
G3 X85.883 Y-111.1 I-9.507 J-3.547
X85.012 Y-110.317 I-14.055 J-14.746
G2 X84.156 Y-109.517 I7.979 J9.399
G3 X81.423 Y-107.588 I-6.539 J-6.364
G2 X77.319 Y-105.363 I14.657 J31.93
X73.603 Y-102.536 I14.332 J22.692
G3 X69.982 Y-99.408 I-64.163 J-70.623
G2 X66.706 Y-95.918 I11.735 J14.295
X63.667 Y-85.111 I13.293 J9.57
X68.85 Y-75.153 I14.229 J-1.078
X72.543 Y-72.715 I13.612 J-16.606
X75.903 Y-73.231 I1.329 J-2.551
G3 X79.099 Y-74.393 I2.846 J2.851
G2 X80.3 Y-74.34 I1.213 J-13.914
G3 X85.491 Y-74.264 I-0.148 J188.432
G2 X90.604 Y-75.157 I0.368 J-12.985
X93.109 Y-76.323 I-8.213 J-20.927
X95.43 Y-77.822 I-8.603 J-15.863
G3 X98.788 Y-79.091 I3.813 J5.013
G2 X103.515 Y-79.71 I-2.971 J-40.999
X108.148 Y-80.834 I-9.029 J-47.358
X114.893 Y-84.024 I-6.869 J-23.246
X120.827 Y-88.547 I-38.217 J-56.3
X124.609 Y-91.838 I-161.628 J-189.542
X127.903 Y-95.619 I-13.048 J-14.692
G3 X131.064 Y-98.944 I11.18 J7.465
G2 X133.086 Y-100.609 I-15.599 J-20.993
G3 X133.971 Y-101.135 I1.722 J1.89
G2 X134.903 Y-101.571 I-1.618 J-4.67
X139.078 Y-104.758 I-12.358 J-20.518
X141.862 Y-109.212 I-7.32 J-7.673
X142.445 Y-113.734 I-12.108 J-3.858
X141.243 Y-118.132 I-10.693 J0.559
X140.172 Y-119.733 I-7.917 J4.135
X138.856 Y-121.14 I-13.53 J11.336
G3 X136.822 Y-124.045 I6.314 J-6.588
G2 X133.827 Y-128.131 I-10.757 J4.744
X129.571 Y-130.876 I-11.303 J12.856
X125.837 Y-131.972 I-5.798 J12.837
X121.981 Y-132.492 I-22.025 J148.653
X115.6 Y-132.731 I-4.612 J37.87
X109.278 Y-131.826 I1.547 J33.333
X104.029 Y-129.214 I3.117 J12.844
X100.246 Y-124.733 I10.128 J12.387
G3 X98.682 Y-122.707 I-7.933 J-4.509
G2 X97.343 Y-121.123 I7.514 J7.71
G3 X95.767 Y-119.383 I-7.495 J-5.205
G2 X93.927 Y-117.618 I14.026 J16.458
X92.427 Y-115.556 I7.934 J7.348
X91.83 Y-114.292 I8.803 J4.933
X91.355 Y-112.976 I25.406 J9.914
G3 X89.011 Y-109.341 I-8.233 J-2.735
X87.821 Y-108.269 I-43.282 J-46.822
G2 X86.656 Y-107.17 I14.975 J17.039
G3 X82.798 Y-104.446 I-9.542 J-9.424
G2 X79.608 Y-102.73 I13.728 J29.339
X76.666 Y-100.616 I12.878 J21.027
X71.332 Y-96.003 I137.021 J163.809
X67.51 Y-90.076 I8.861 J9.909
X69.923 Y-78.971 I10.945 J3.437
X79.099 Y-74.393 I10.388 J-9.336
X81.894 Y-75.972 I0.246 J-2.828
G3 X84.591 Y-77.715 I2.798 J1.371
G2 X86.453 Y-77.815 I-1.481 J-45.25
X93.774 Y-80.904 I-0.918 J-12.392
G3 X97.907 Y-82.489 I4.181 J4.721
G2 X101.794 Y-82.916 I-0.147 J-19.243
X105.61 Y-83.768 I-47.849 J-223.224
X108.651 Y-84.548 I-15.703 J-67.586
X111.451 Y-85.967 I-2.183 J-7.781
G3 X114.945 Y-88.414 I24.623 J31.435
G2 X118.372 Y-90.955 I-14.046 J-22.526
G3 X122.105 Y-94.145 I143.111 J163.677
G2 X125.279 Y-97.892 I-9.197 J-11.011
G3 X128.29 Y-101.17 I9.124 J5.358
G2 X130.597 Y-102.816 I-201.611 J-284.832
G3 X132.962 Y-104.377 I20.206 J28.061
G2 X137.538 Y-108.375 I-8.953 J-14.865
X138.996 Y-114.274 I-5.628 J-4.52
X137.955 Y-116.938 I-7.826 J1.523
X136.028 Y-119.052 I-6.573 J4.055
G3 X134.074 Y-121.675 I3.498 J-4.644
G2 X133.311 Y-123.402 I-14.449 J5.356
X132.196 Y-124.926 I-5.453 J2.822
X128.401 Y-127.618 I-9.862 J9.88
X123.913 Y-128.845 I-5.56 J11.521
G3 X119.493 Y-129.366 I5.55 J-65.993
G2 X115.042 Y-129.352 I-2.18 J14.314
X110.574 Y-128.593 I33.135 J208.613
X106.415 Y-126.793 I1.773 J9.799
X104.555 Y-125.017 I6.176 J8.33
X103.136 Y-122.871 I10.003 J8.156
G3 X101.201 Y-120.37 I-8.075 J-4.249
G2 X100.071 Y-119.035 I4.542 J4.992
G3 X98.173 Y-116.923 I-7.654 J-4.968
G2 X95.915 Y-114.517 I7.762 J9.548
X94.498 Y-111.538 I7.703 J5.491
G3 X91.66 Y-107.102 I-8.577 J-2.362
G2 X90.267 Y-105.901 I58.138 J68.853
X88.956 Y-104.612 I11.005 J12.506
G3 X84.437 Y-101.423 I-9.479 J-8.633
G2 X79.908 Y-98.704 I7.151 J17.045
G3 X75.794 Y-95.39 I-285.549 J-350.245
G2 X71.997 Y-91.477 I13.284 J16.688
X70.468 Y-86.242 I6.234 J4.662
X72.975 Y-80.622 I9.048 J-0.667
X78.508 Y-77.926 I6.441 J-6.193
X84.591 Y-77.715 I4.602 J-45.04
X87.298 Y-79.779 I-0.096 J-2.933
G3 X89.519 Y-82.359 I4.079 J1.265
G1 X90.52 Y-82.843
X90.597 Y-82.883
X90.915 Y-83.058
X90.989 Y-83.102
X91.06 Y-83.149
X91.219 Y-83.26
X91.29 Y-83.314
X91.358 Y-83.371
X92.24 Y-84.151
X92.715 Y-84.547
X92.941 Y-84.714
X92.987 Y-84.749
X93.358 Y-85.045
X93.471 Y-85.143
X93.74 Y-85.403
X94.112 Y-85.671
X94.445 Y-85.795
X95.057 Y-85.881
X95.596 Y-85.907
X96.833 Y-85.929
X98.095 Y-85.939
X98.197 Y-85.943
X98.832 Y-85.989
X98.872 Y-85.992
X99.507 Y-86.054
X99.624 Y-86.07
X100.259 Y-86.181
X100.297 Y-86.188
X101.049 Y-86.337
X101.11 Y-86.351
X102.262 Y-86.627
X102.299 Y-86.636
X103.651 Y-86.995
X103.671 Y-87
X104.201 Y-87.148
X104.79 Y-87.294
X106.037 Y-87.564
X106.151 Y-87.593
X107.42 Y-87.968
X107.452 Y-87.978
X107.769 Y-88.079
X107.885 Y-88.121
X108.202 Y-88.249
X108.287 Y-88.287
X108.688 Y-88.477
X108.788 Y-88.529
X108.883 Y-88.588
X109.117 Y-88.742
X109.219 Y-88.816
X109.688 Y-89.183
X109.794 Y-89.275
X109.912 Y-89.385
X109.968 Y-89.43
X110.975 Y-90.101
X111.328 Y-90.299
X111.487 Y-90.379
X111.565 Y-90.42
X111.639 Y-90.465
X112.473 Y-91.002
X112.563 Y-91.065
X112.999 Y-91.39
X113.092 Y-91.465
X113.714 Y-92.008
X114.143 Y-92.366
X114.931 Y-92.968
X115.175 Y-93.145
X115.789 Y-93.531
X115.893 Y-93.602
X115.99 Y-93.68
X116.254 Y-93.911
X116.709 Y-94.289
X116.82 Y-94.391
X116.955 Y-94.527
X117.442 Y-94.968
G2 X117.625 Y-95.163 I-1.065 J-1.177
G1 X117.715 Y-95.279
X118.169 Y-95.702
X118.704 Y-96.133
X119.279 Y-96.517
X119.306 Y-96.535
X119.608 Y-96.746
X119.698 Y-96.814
X120.03 Y-97.082
X120.089 Y-97.132
X120.723 Y-97.697
X120.759 Y-97.73
X120.874 Y-97.838
X120.968 Y-97.936
X121.065 Y-98.045
X121.119 Y-98.109
X121.293 Y-98.327
X121.331 Y-98.376
X121.552 Y-98.675
X121.746 Y-98.908
X121.946 Y-99.127
X122 Y-99.189
X122.05 Y-99.254
X122.14 Y-99.376
X122.222 Y-99.499
X122.296 Y-99.621
X122.368 Y-99.755
X122.438 Y-99.9
X122.482 Y-100
X122.71 Y-100.572
X122.968 Y-101.09
X123.31 Y-101.655
X123.522 Y-101.99
X123.629 Y-102.138
X124.058 Y-102.508
X124.981 Y-103.16
X125.825 Y-103.67
X125.885 Y-103.708
X126.261 Y-103.959
X126.309 Y-103.992
X126.944 Y-104.45
X126.968 Y-104.468
X127.286 Y-104.706
X127.349 Y-104.756
X127.508 Y-104.888
X127.608 Y-104.979
X128.396 Y-105.759
X128.904 Y-106.184
X129.446 Y-106.586
X130.113 Y-106.996
X130.143 Y-107.011
X130.243 Y-107.05
X130.341 Y-107.092
X130.5 Y-107.167
X130.556 Y-107.194
X131.006 Y-107.428
X131.095 Y-107.477
X131.279 Y-107.588
X131.378 Y-107.653
X131.471 Y-107.725
X132.002 Y-108.163
X132.36 Y-108.369
X132.48 Y-108.445
X132.639 Y-108.556
X132.722 Y-108.618
X132.8 Y-108.685
X133.073 Y-108.934
X133.142 Y-109.001
X133.207 Y-109.072
X133.366 Y-109.257
X133.512 Y-109.334
X133.592 Y-109.378
X133.669 Y-109.427
X133.891 Y-109.578
X133.982 Y-109.644
X134.068 Y-109.717
X134.334 Y-109.96
G2 X134.537 Y-110.184 I-1.069 J-1.174
G1 X134.718 Y-110.426
G2 X134.865 Y-110.664 I-1.272 J-0.95
G1 X134.98 Y-110.893
X135.031 Y-111.006
X135.074 Y-111.123
X135.147 Y-111.352
X135.175 Y-111.453
X135.197 Y-111.556
X135.228 Y-111.732
X135.242 Y-111.826
X135.25 Y-111.921
X135.266 Y-112.195
X135.293 Y-112.3
X135.434 Y-112.934
G2 X135.443 Y-113.583 I-1.55 J-0.345
G1 X135.32 Y-114.217
G2 X135.168 Y-114.649 I-1.558 J0.303
G1 X135.041 Y-114.893
X134.995 Y-114.975
X134.761 Y-115.366
X134.694 Y-115.468
X134.619 Y-115.565
X134.219 Y-116.045
G2 X133.887 Y-116.345 I-1.22 J1.016
G1 X133.659 Y-116.499
X133.579 Y-116.55
X133.495 Y-116.596
X132.873 Y-116.915
X132.347 Y-117.206
X132.233 Y-117.264
X131.799 Y-117.461
X131.675 Y-117.528
X131.562 Y-117.68
X131.538 Y-117.718
X131.536 Y-117.724
X131.371 Y-118.174
X131.274 Y-118.594
X131.236 Y-119.11
G2 X131.174 Y-119.444 I-1.583 J0.118
G1 X130.985 Y-120.079
X130.952 Y-120.178
X130.679 Y-120.916
X130.65 Y-120.988
X130.537 Y-121.253
G2 X130.409 Y-121.492 I-1.46 J0.623
G1 X130.238 Y-121.758
G2 X130.079 Y-121.964 I-1.333 J0.863
G1 X129.729 Y-122.348
X129.677 Y-122.403
X128.79 Y-123.288
X128.724 Y-123.35
X128.655 Y-123.408
X128.463 Y-123.56
X128.382 Y-123.62
X128.297 Y-123.675
X128.106 Y-123.791
X128.024 Y-123.837
X127.939 Y-123.878
X126.669 Y-124.452
X126.561 Y-124.496
X126.45 Y-124.532
X125.18 Y-124.893
X125.1 Y-124.914
X123.83 Y-125.204
X123.72 Y-125.225
X123.61 Y-125.238
X122.99 Y-125.29
X122.378 Y-125.353
X121.129 Y-125.495
X119.237 Y-125.741
X119.149 Y-125.75
X117.879 Y-125.843
X117.76 Y-125.847
X116.49 Y-125.845
X116.375 Y-125.84
X115.74 Y-125.793
X115.609 Y-125.778
X115.022 Y-125.684
X114.653 Y-125.648
X114.537 Y-125.632
X112.438 Y-125.27
X111.828 Y-125.184
X111.675 Y-125.155
X110.94 Y-124.976
X110.868 Y-124.957
X110.333 Y-124.8
X110.229 Y-124.765
X110.127 Y-124.724
X109.302 Y-124.352
X109.182 Y-124.291
X108.992 Y-124.185
X108.922 Y-124.144
X108.855 Y-124.099
X108.599 Y-123.92
X108.564 Y-123.895
X107.93 Y-123.424
G2 X107.71 Y-123.228 I0.946 J1.275
G1 X107.075 Y-122.542
X107.016 Y-122.474
X106.96 Y-122.402
X106.543 Y-121.833
X106.482 Y-121.744
X106.264 Y-121.4
X106.201 Y-121.29
X105.714 Y-120.365
X105.681 Y-120.3
X105.533 Y-119.984
X105.506 Y-119.922
X105.335 Y-119.512
X105.327 Y-119.497
X105.16 Y-119.254
X105.114 Y-119.183
X105.056 Y-119.088
X105.027 Y-119.056
X104.957 Y-119
X104.798 Y-118.891
X104.714 Y-118.828
X104.634 Y-118.76
X104.136 Y-118.308
X103.787 Y-118.042
X103.725 Y-117.993
X103.567 Y-117.859
X103.481 Y-117.781
X103.401 Y-117.698
X103.231 Y-117.505
X103.17 Y-117.432
X103.046 Y-117.274
X102.99 Y-117.198
X102.939 Y-117.12
X102.842 Y-116.961
X102.8 Y-116.887
X102.762 Y-116.811
X102.383 Y-116.005
X102.078 Y-115.458
X102.012 Y-115.381
X101.748 Y-115.135
X101.679 Y-115.084
X101.158 Y-114.812
X101.104 Y-114.782
X100.886 Y-114.658
G2 X100.673 Y-114.511 I0.788 J1.378
G1 X100.256 Y-114.172
X100.189 Y-114.115
X100.126 Y-114.054
X99.863 Y-113.787
X99.377 Y-113.341
X99.292 Y-113.256
X99.213 Y-113.165
X99.083 Y-113.004
X99.012 Y-112.907
X98.577 Y-112.272
X98.503 Y-112.152
X98.147 Y-111.517
G2 X98.025 Y-111.242 I1.385 J0.776
G1 X97.846 Y-110.701
X97.823 Y-110.625
X97.803 Y-110.547
X97.64 Y-109.818
X97.624 Y-109.733
X97.612 Y-109.647
X97.541 Y-109.012
X97.536 Y-108.961
X97.495 Y-108.43
X97.488 Y-108.409
X97.407 Y-108.197
X97.368 Y-108.116
X96.711 Y-107.305
X96.203 Y-106.692
X95.626 Y-106.029
X95.044 Y-105.387
X94.594 Y-104.963
X94.012 Y-104.565
X93.945 Y-104.516
X93.88 Y-104.464
X93.729 Y-104.335
X93.644 Y-104.258
X93.198 Y-103.819
X93.051 Y-103.692
X92.963 Y-103.61
X92.405 Y-103.05
X92.035 Y-102.764
X91.958 Y-102.701
X91.632 Y-102.415
G2 X91.438 Y-102.211 I1.046 J1.194
G1 X91.128 Y-101.823
X91.055 Y-101.724
X90.99 Y-101.619
X90.849 Y-101.373
X90.803 Y-101.284
X90.549 Y-100.766
X90.524 Y-100.73
X90.313 Y-100.526
X90.206 Y-100.445
X89.54 Y-100.038
X89.528 Y-100.031
X89.019 Y-99.715
X88.452 Y-99.394
X87.872 Y-99.107
X87.278 Y-98.829
X86.694 Y-98.581
X86.13 Y-98.364
X85.905 Y-98.292
X85.792 Y-98.252
X85.682 Y-98.203
X85.318 Y-98.023
X85.215 Y-97.967
X84.674 Y-97.649
X84.582 Y-97.61
X84.472 Y-97.559
X84.251 Y-97.447
G2 X84.029 Y-97.31 I0.72 J1.415
G1 X83.809 Y-97.147
X83.687 Y-97.048
X83.351 Y-96.744
X83.222 Y-96.65
X82.669 Y-96.298
X82.607 Y-96.264
X82.495 Y-96.195
X81.964 Y-95.84
X81.864 Y-95.768
X81.509 Y-95.488
X81.422 Y-95.414
X81.192 Y-95.205
X80.751 Y-94.866
X80.649 Y-94.781
X79.9 Y-94.101
X79.247 Y-93.557
X79.239 Y-93.551
X78.494 Y-92.923
X78.049 Y-92.558
X77.768 Y-92.341
X77.244 Y-91.965
G2 X77.032 Y-91.784 I0.925 J1.29
G1 X76.632 Y-91.373
X76.575 Y-91.313
X76.522 Y-91.249
X76.298 Y-90.965
X76.223 Y-90.913
X76.105 Y-90.822
X75.987 Y-90.722
X75.926 Y-90.667
X75.868 Y-90.61
X75.75 Y-90.486
X75.674 Y-90.401
X75.488 Y-90.177
X75.422 Y-90.091
X75.21 Y-89.796
G2 X75.08 Y-89.582 I1.288 J0.927
G1 X74.92 Y-89.265
X74.622 Y-88.717
X74.544 Y-88.601
X74.49 Y-88.513
X74.441 Y-88.423
X74.328 Y-88.194
X74.277 Y-88.081
X74.235 Y-87.964
X74.163 Y-87.735
G2 X74.103 Y-87.462 I1.515 J0.476
G1 X74.063 Y-87.145
G2 X74.054 Y-86.826 I1.575 J0.202
G1 X74.077 Y-86.508
X74.097 Y-86.353
X74.205 Y-85.729
X74.305 Y-85.105
G2 X74.405 Y-84.75 I1.568 J-0.251
G1 X74.537 Y-84.432
G2 X74.658 Y-84.197 I1.467 J-0.606
G1 X74.757 Y-84.038
X74.812 Y-83.956
X74.871 Y-83.879
X75 Y-83.72
G2 X75.175 Y-83.537 I1.232 J-1.001
G1 X75.441 Y-83.3
X75.492 Y-83.256
X76.127 Y-82.736
X76.244 Y-82.648
X76.402 Y-82.541
X76.488 Y-82.487
X76.577 Y-82.438
X77.688 Y-81.879
X77.78 Y-81.836
X78.018 Y-81.734
X78.121 Y-81.695
X78.226 Y-81.662
X78.464 Y-81.598
X78.55 Y-81.577
X78.637 Y-81.561
X78.795 Y-81.537
X78.876 Y-81.526
X80.146 Y-81.397
X80.226 Y-81.391
X80.306 Y-81.388
X81.562 Y-81.387
X82.148 Y-81.377
X82.73 Y-81.341
X83.982 Y-81.234
X84.006 Y-81.232
X84.641 Y-81.188
X84.756 Y-81.184
X84.871 Y-81.189
X85.506 Y-81.237
X85.532 Y-81.239
X86.167 Y-81.298
X86.259 Y-81.309
X86.351 Y-81.326
X87.62 Y-81.595
X87.75 Y-81.629
X87.908 Y-81.677
X88.029 Y-81.718
X88.681 Y-81.974
X88.754 Y-82.005
X89.213 Y-82.212
X89.251 Y-82.23
X89.519 Y-82.359
X89.584 Y-82.386 Z-3.992
X89.652 Y-82.406 Z-3.984
X89.718 Y-82.418 Z-3.961
X89.785 Y-82.422 Z-3.937
X89.845 Y-82.42 Z-3.899
X89.905 Y-82.413 Z-3.861
X90.002 Y-82.388 Z-3.761
X90.072 Y-82.359 Z-3.641
X90.113 Y-82.337 Z-3.506
X90.127 Y-82.329 Z-3.365
Z5
X89.492 Y-133.45
Z-3.365
G19 G2 Y-134.085 Z-4 J-0.635 K0
G1 Y-137.557
G17 G3 X90.127 Y-138.192 I0.635 J0
G1 X227.175
G3 X228.392 Y-136.975 I0 J1.217
G1 Y-11.525
G3 X227.175 Y-10.308 I-1.217 J0
G1 X11.525
G3 X10.308 Y-11.525 I0 J-1.217
G1 Y-136.975
G3 X11.525 Y-138.192 I1.217 J0
G1 X90.127
G2 X92.699 Y-139.906 I0 J-2.786
G3 X95.27 Y-141.621 I2.572 J1.072
G1 X230.604
G3 X231.821 Y-140.404 I0 J1.217
G1 Y-8.096
G3 X230.604 Y-6.879 I-1.217 J0
G1 X8.096
G3 X6.879 Y-8.096 I0 J-1.217
G1 Y-140.404
G3 X8.096 Y-141.621 I1.217 J0
G1 X95.27
G2 X97.842 Y-143.335 I0 J-2.786
G3 X100.414 Y-145.05 I2.572 J1.072
G1 X234.033
G3 X235.25 Y-143.833 I0 J1.217
G1 Y-4.667
G3 X234.033 Y-3.45 I-1.217 J0
G1 X4.667
G3 X3.45 Y-4.667 I0 J-1.217
G1 Y-143.833
G3 X4.667 Y-145.05 I1.217 J0
G1 X100.414
G2 X103 Y-146.774 I0 J-2.802
G3 X105.586 Y-148.498 I2.586 J1.078
G1 X238.68
X238.696 Y-148.496
X238.698 Y-148.48
Y-0.02
X238.696 Y-0.004
X238.68 Y-0.002
X0.02
X0.004 Y-0.004
X0.002 Y-0.02
Y-148.48
X0.004 Y-148.496
X0.02 Y-148.498
X105.586
X105.656 Y-148.494 Z-3.992
X105.726 Y-148.482 Z-3.984
X105.791 Y-148.464 Z-3.961
X105.853 Y-148.439 Z-3.937
X105.906 Y-148.411 Z-3.899
X105.957 Y-148.379 Z-3.861
X106.033 Y-148.314 Z-3.761
X106.084 Y-148.257 Z-3.641
X106.112 Y-148.219 Z-3.506
X106.12 Y-148.206 Z-3.365
Z5
X34.139 Y-115.152
Z0.835
X34.152 Y-115.161 Z0.696 F333.3
X34.19 Y-115.185 Z0.565
X34.252 Y-115.222 Z0.446
X34.336 Y-115.27 Z0.346
X34.439 Y-115.324 Z0.27
X34.556 Y-115.38 Z0.22
X34.683 Y-115.433 Z0.2
G3 X36.898 Y-109.822 Z-0.131 I1.107 J2.806
X34.683 Y-115.433 Z-0.462 I-1.107 J-2.806
X36.898 Y-109.822 Z-0.793 I1.107 J2.806
X34.683 Y-115.433 Z-1.124 I-1.107 J-2.806
X36.898 Y-109.822 Z-1.455 I1.107 J2.806
X34.683 Y-115.433 Z-1.785 I-1.107 J-2.806
X36.898 Y-109.822 Z-2.116 I1.107 J2.806
X34.683 Y-115.433 Z-2.447 I-1.107 J-2.806
X36.898 Y-109.822 Z-2.778 I1.107 J2.806
X34.683 Y-115.433 Z-3.109 I-1.107 J-2.806
X36.898 Y-109.822 Z-3.44 I1.107 J2.806
X34.683 Y-115.433 Z-3.771 I-1.107 J-2.806
X36.898 Y-109.822 Z-4.102 I1.107 J2.806
X34.683 Y-115.433 Z-4.433 I-1.107 J-2.806
X36.898 Y-109.822 Z-4.764 I1.107 J2.806
X34.683 Y-115.433 Z-5.094 I-1.107 J-2.806
X36.898 Y-109.822 Z-5.425 I1.107 J2.806
X34.683 Y-115.433 Z-5.756 I-1.107 J-2.806
X36.898 Y-109.822 Z-6.087 I1.107 J2.806
X34.683 Y-115.433 Z-6.418 I-1.107 J-2.806
X36.898 Y-109.822 Z-6.749 I1.107 J2.806
X34.683 Y-115.433 Z-7.08 I-1.107 J-2.806
X36.898 Y-109.822 Z-7.411 I1.107 J2.806
X34.683 Y-115.433 Z-7.742 I-1.107 J-2.806
X38.429 Y-111.167 Z-8 I1.107 J2.806
G2 X36.366 Y-106.757 I31.246 J17.305 F2000
G3 X35.893 Y-106.099 I-1.5 J-0.579
G2 X34.134 Y-104.535 I22.195 J26.737
G3 X33.163 Y-104.952 I-0.396 J-0.416
G1 Y-114.12
G3 X34.38 Y-115.337 I1.217 J0
G1 X39.861
G3 X40.393 Y-114.316 I0 J0.649
G2 X38.429 Y-111.167 I29.281 J20.454
X38.838 Y-108.093 I2.277 J1.261
G3 X39.374 Y-105.04 I-1.981 J1.922
X38.298 Y-103.638 I-3.501 J-1.573
G2 X35.302 Y-100.94 I25.892 J31.761
X32.63 Y-97.921 I22.251 J22.386
X31.579 Y-96.378 I11.789 J9.161
G3 X30.615 Y-94.779 I-114.379 J-67.858
X29.734 Y-95.027 I-0.406 J-0.248
G1 Y-117.549
G3 X30.951 Y-118.766 I1.217 J0
G1 X47.448
G3 X47.842 Y-117.806 I0 J0.561
G2 X44.273 Y-113.91 I36.656 J37.159
X41.292 Y-109.547 I22.297 J18.438
X40.299 Y-107.439 I14.943 J8.321
X39.466 Y-105.262 I179.784 J70.08
G1 X39.374 Y-105.04
X39.346 Y-104.975 Z-7.992
X39.311 Y-104.913 Z-7.984
X39.272 Y-104.859 Z-7.961
X39.227 Y-104.809 Z-7.937
X39.182 Y-104.769 Z-7.899
X39.134 Y-104.733 Z-7.861
X39.047 Y-104.683 Z-7.761
X38.976 Y-104.655 Z-7.641
X38.931 Y-104.642 Z-7.506
X38.916 Y-104.639 Z-7.365
Z5
X38.928 Y-42.056
Z0.835
X38.941 Y-42.049 Z0.696 F333.3
X38.981 Y-42.027 Z0.565
X39.044 Y-41.991 Z0.446
X39.126 Y-41.941 Z0.346
X39.223 Y-41.877 Z0.27
X39.329 Y-41.802 Z0.22
X39.437 Y-41.717 Z0.2
G3 X35.602 Y-37.061 Z-0.131 I-1.918 J2.328
X39.437 Y-41.717 Z-0.462 I1.918 J-2.328
X35.602 Y-37.061 Z-0.793 I-1.918 J2.328
X39.437 Y-41.717 Z-1.124 I1.918 J-2.328
X35.602 Y-37.061 Z-1.455 I-1.918 J2.328
X39.437 Y-41.717 Z-1.785 I1.918 J-2.328
X35.602 Y-37.061 Z-2.116 I-1.918 J2.328
X39.437 Y-41.717 Z-2.447 I1.918 J-2.328
X35.602 Y-37.061 Z-2.778 I-1.918 J2.328
X39.437 Y-41.717 Z-3.109 I1.918 J-2.328
X35.602 Y-37.061 Z-3.44 I-1.918 J2.328
X39.437 Y-41.717 Z-3.771 I1.918 J-2.328
X35.602 Y-37.061 Z-4.102 I-1.918 J2.328
X39.437 Y-41.717 Z-4.433 I1.918 J-2.328
X35.602 Y-37.061 Z-4.764 I-1.918 J2.328
X39.437 Y-41.717 Z-5.094 I1.918 J-2.328
X35.602 Y-37.061 Z-5.425 I-1.918 J2.328
X39.437 Y-41.717 Z-5.756 I1.918 J-2.328
X35.602 Y-37.061 Z-6.087 I-1.918 J2.328
X39.437 Y-41.717 Z-6.418 I1.918 J-2.328
X35.602 Y-37.061 Z-6.749 I-1.918 J2.328
X39.437 Y-41.717 Z-7.08 I1.918 J-2.328
X35.602 Y-37.061 Z-7.411 I-1.918 J2.328
X39.437 Y-41.717 Z-7.742 I1.918 J-2.328
X37.519 Y-36.372 Z-8 I-1.918 J2.328
G1 X37.269 F2000
G3 X36.372 Y-37.269 I0 J-0.896
G1 Y-38.349
G3 X37.412 Y-38.927 I0.68 J0
G2 X40.455 Y-37.223 I20.041 J-32.236
G3 X40.253 Y-36.372 I-0.201 J0.402
G1 X37.519
X37.449 Y-36.376 Z-7.992
X37.379 Y-36.388 Z-7.984
X37.315 Y-36.406 Z-7.961
X37.252 Y-36.431 Z-7.937
X37.199 Y-36.459 Z-7.899
X37.149 Y-36.492 Z-7.861
X37.072 Y-36.557 Z-7.761
X37.022 Y-36.613 Z-7.641
X36.994 Y-36.651 Z-7.506
X36.985 Y-36.664 Z-7.365
Z5
X183.915 Y-58.81
Z0.835
X183.929 Y-58.803 Z0.696 F333.3
X183.968 Y-58.781 Z0.565
X184.031 Y-58.746 Z0.446
X184.114 Y-58.695 Z0.346
X184.211 Y-58.632 Z0.27
X184.316 Y-58.556 Z0.22
X184.424 Y-58.471 Z0.2
G3 X180.589 Y-53.815 Z-0.131 I-1.918 J2.328
X184.424 Y-58.471 Z-0.462 I1.918 J-2.328
X180.589 Y-53.815 Z-0.793 I-1.918 J2.328
X184.424 Y-58.471 Z-1.124 I1.918 J-2.328
X180.589 Y-53.815 Z-1.455 I-1.918 J2.328
X184.424 Y-58.471 Z-1.785 I1.918 J-2.328
X180.589 Y-53.815 Z-2.116 I-1.918 J2.328
X184.424 Y-58.471 Z-2.447 I1.918 J-2.328
X180.589 Y-53.815 Z-2.778 I-1.918 J2.328
X184.424 Y-58.471 Z-3.109 I1.918 J-2.328
X180.589 Y-53.815 Z-3.44 I-1.918 J2.328
X184.424 Y-58.471 Z-3.771 I1.918 J-2.328
X180.589 Y-53.815 Z-4.102 I-1.918 J2.328
X184.424 Y-58.471 Z-4.433 I1.918 J-2.328
X180.589 Y-53.815 Z-4.764 I-1.918 J2.328
X184.424 Y-58.471 Z-5.094 I1.918 J-2.328
X180.589 Y-53.815 Z-5.425 I-1.918 J2.328
X184.424 Y-58.471 Z-5.756 I1.918 J-2.328
X180.589 Y-53.815 Z-6.087 I-1.918 J2.328
X184.424 Y-58.471 Z-6.418 I1.918 J-2.328
X180.589 Y-53.815 Z-6.749 I-1.918 J2.328
X184.424 Y-58.471 Z-7.08 I1.918 J-2.328
X180.589 Y-53.815 Z-7.411 I-1.918 J2.328
X184.424 Y-58.471 Z-7.742 I1.918 J-2.328
X182.506 Y-53.127 Z-8 I-1.918 J2.328
G1 X177.542 F2000
G3 X177.076 Y-54.122 I0 J-0.607
G2 X181.275 Y-59.896 I-41.349 J-34.484
X184.727 Y-66.146 I-52.388 J-33.021
G3 X185.573 Y-65.953 I0.401 J0.192
G1 Y-54.343
G3 X184.357 Y-53.127 I-1.217 J0
G1 X182.506
G2 X179.995 Y-51.452 I0 J2.721
G3 X177.483 Y-49.778 I-2.512 J-1.047
G1 X169.591
G3 X169.22 Y-50.728 I0 J-0.547
G2 X178.759 Y-62.117 I-38.835 J-42.215
X184.944 Y-75.625 I-45.555 J-29.029
X185.627 Y-78.523 I-23.785 J-7.135
G3 X186.291 Y-81.426 I27.438 J4.751
X186.695 Y-82.703 I22.904 J6.548
G2 X187.132 Y-83.968 I-244.02 J-84.855
G3 X187.285 Y-84.244 I0.848 J0.29
G2 X188 Y-85.142 I-42.262 J-34.393
G3 X188.922 Y-84.824 I0.406 J0.318
G1 Y-50.995
G3 X187.705 Y-49.778 I-1.217 J0
G1 X177.483
G2 X174.911 Y-48.063 I0 J2.786
G3 X172.34 Y-46.349 I-2.572 J-1.072
G1 X159.03
G3 X158.788 Y-47.226 I0 J-0.472
G2 X173.506 Y-60.547 I-25.728 J-43.219
X182.166 Y-78.409 I-43.356 J-32.05
X182.988 Y-81.795 I-59.631 J-16.265
G3 X183.913 Y-85.154 I28.923 J6.162
X184.574 Y-86.346 I3.634 J1.236
G2 X188.361 Y-91.623 I-40.412 J-33
X191.504 Y-97.307 I-49.944 J-31.327
G3 X192.351 Y-97.114 I0.401 J0.194
G1 Y-47.566
G3 X191.134 Y-46.349 I-1.217 J0
G1 X172.34
G2 X169.83 Y-44.676 I0 J2.718
G3 X167.321 Y-43.003 I-2.509 J-1.046
G1 X142.807
G3 X142.515 Y-43.911 I0 J-0.501
G2 X143.32 Y-44.503 I-26.022 J-36.208
G3 X143.563 Y-44.618 I0.402 J0.533
G2 X156.028 Y-49.453 I-12.143 J-49.795
X166.708 Y-57.497 I-22.252 J-40.655
X174.232 Y-67.603 I-31.952 J-31.641
X178.938 Y-79.289 I-47.548 J-25.939
X179.798 Y-82.8 I-66.813 J-18.224
G3 X180.763 Y-86.283 I31.41 J6.829
X181.949 Y-88.421 I6.477 J2.194
G2 X186.714 Y-95.281 I-41.001 J-33.564
X190.266 Y-102.841 I-40.598 J-23.689
X190.49 Y-103.53 I-9.429 J-3.445
G3 X190.704 Y-104.223 I15.66 J4.47
X192.473 Y-105.497 I1.769 J0.591
G1 X194.48
G3 X195.697 Y-104.28 I0 J1.217
G1 Y-44.22
G3 X194.48 Y-43.003 I-1.217 J0
G1 X167.321
G2 X164.749 Y-41.288 I0 J2.786
G3 X162.177 Y-39.574 I-2.572 J-1.072
G1 X128.798
G3 X128.653 Y-40.374 I0 J-0.413
G2 X135.228 Y-43.372 I-18.759 J-49.848
X141.307 Y-47.28 I-22.731 J-42.035
G3 X142.689 Y-47.935 I2.268 J3.001
G2 X154.312 Y-52.424 I-11.238 J-46.392
X164.269 Y-59.913 I-20.586 J-37.735
X171.258 Y-69.318 I-29.532 J-29.245
X175.626 Y-80.193 I-44.613 J-24.234
X176.551 Y-83.895 I-85.455 J-23.309
G3 X177.578 Y-87.57 I37.767 J8.572
X179.169 Y-90.44 I8.483 J2.828
G2 X183.72 Y-96.877 I-40.336 J-33.346
X187.115 Y-103.992 I-35.681 J-21.39
X187.682 Y-105.83 I-17.804 J-6.504
G3 X188.168 Y-107.69 I139.247 J35.37
X189.779 Y-108.926 I1.611 J0.432
G1 X197.934
G3 X199.126 Y-107.734 I0 J1.192
G1 Y-40.766
G3 X197.934 Y-39.574 I-1.192 J0
G1 X162.177
G2 X159.776 Y-37.973 I0 J2.601
G3 X157.375 Y-36.372 I-2.401 J-1
G1 X81.482
G3 X81.329 Y-37.19 I0 J-0.423
G2 X86.61 Y-39.69 I-14.593 J-37.647
G3 X87.296 Y-39.897 I0.797 J1.397
G2 X91.652 Y-40.293 I-6.991 J-101.258
X95.961 Y-41.037 I-4.148 J-36.876
X97.274 Y-41.412 I-3.189 J-13.626
G3 X98.598 Y-41.745 I2.703 J7.955
X99.449 Y-41.716 I0.353 J2.122
G2 X120.332 Y-41.308 I11.379 J-47.794
X139.394 Y-49.848 I-8.997 J-45.628
G3 X141.914 Y-51.041 I4.126 J5.454
G2 X152.729 Y-55.204 I-10.469 J-43.328
X161.997 Y-62.163 I-18.987 J-34.937
X168.489 Y-70.917 I-27.28 J-27.015
X172.541 Y-81.034 I-41.885 J-22.647
X173.575 Y-85.095 I-119.706 J-32.651
G3 X174.722 Y-89.126 I45.708 J10.823
X176.415 Y-92.137 I8.657 J2.886
G2 X180.857 Y-98.263 I-38.41 J-32.523
X184.156 Y-105.073 I-31.974 J-19.696
X185 Y-107.951 I-21.649 J-7.909
G3 X185.673 Y-110.875 I231.849 J51.85
X187.258 Y-112.128 I1.585 J0.375
G1 X201.111
G3 X202.328 Y-110.911 I0 J1.217
G1 Y-37.589
G3 X201.111 Y-36.372 I-1.217 J0
G1 X157.375
G2 X154.968 Y-34.768 I0 J2.608
G3 X152.561 Y-33.163 I-2.407 J-1.003
G1 X34.38
G3 X33.163 Y-34.38 I0 J-1.217
G1 Y-44.921
G3 X34.146 Y-45.364 I0.592 J0
G2 X47.211 Y-37.664 I26.388 J-29.839
X62.24 Y-35.642 I12.323 J-34.72
X67.239 Y-36.49 I-1.973 J-26.781
G3 X72.146 Y-37.768 I83.155 J309.306
G1 X76.504 Y-38.866
G2 X81.023 Y-40.366 I-7.882 J-31.284
X83.144 Y-41.405 I-7.5 J-18.014
X85.194 Y-42.578 I-138.845 J-244.972
G3 X86.85 Y-43.084 I1.921 J3.323
G2 X91.062 Y-43.45 I-8.165 J-118.265
X95.231 Y-44.154 I-3.524 J-33.569
X96.666 Y-44.559 I-3.757 J-16.049
G3 X98.112 Y-44.918 I3.044 J9.175
X100.152 Y-44.848 I0.847 J5.054
G2 X119.728 Y-44.455 I10.689 J-44.661
X137.579 Y-52.499 I-8.359 J-42.376
G3 X141.012 Y-54.126 I5.537 J7.253
G2 X151.086 Y-57.961 I-9.509 J-40.123
X159.716 Y-64.421 I-17.393 J-32.229
X165.709 Y-72.521 I-25.023 J-24.779
X169.445 Y-81.879 I-39.155 J-21.056
X170.374 Y-85.641 I-77.498 J-21.138
G3 X171.42 Y-89.372 I34.226 J7.583
X174.379 Y-94.709 I16.342 J5.573
G2 X178.24 Y-100.159 I-38.292 J-31.216
X181.141 Y-106.174 I-28.768 J-17.585
X182.282 Y-110.092 I-28.606 J-10.45
X183.044 Y-114.101 I-70.558 J-15.494
G3 X184.495 Y-115.337 I1.451 J0.234
G1 X204.32
G3 X205.537 Y-114.12 I0 J1.217
G1 Y-34.38
G3 X204.32 Y-33.163 I-1.217 J0
G1 X152.561
G2 X149.989 Y-31.448 I0 J2.786
G3 X147.417 Y-29.734 I-2.572 J-1.072
G1 X30.951
G3 X29.734 Y-30.951 I0 J-1.217
G1 Y-54.445
G3 X30.622 Y-54.706 I0.483 J0
G2 X47.246 Y-41.21 I28.904 J-18.616
X68.637 Y-40.277 I12.096 J-31.628
G1 X76.03 Y-42.388
G2 X83.549 Y-45.587 I-9.05 J-31.7
G3 X86.515 Y-46.498 I3.437 J5.912
G2 X90.503 Y-46.833 I-9.154 J-132.599
X94.451 Y-47.489 I-3.025 J-30.445
X95.947 Y-47.912 I-3.88 J-16.578
G3 X97.457 Y-48.285 I3.109 J9.341
X101.038 Y-48.162 I1.482 J9.004
G2 X119.128 Y-47.831 I9.807 J-41.5
X135.605 Y-55.307 I-7.695 J-38.857
G3 X140.091 Y-57.431 I7.132 J9.259
G2 X149.35 Y-60.917 I-8.532 J-36.704
X157.28 Y-66.834 I-15.704 J-29.32
X163.453 Y-75.666 I-22.561 J-22.341
X166.655 Y-85.956 I-35.509 J-16.694
G3 X167.228 Y-87.96 I9.003 J1.489
G2 X167.87 Y-89.623 I-33.349 J-13.823
X168.452 Y-91.308 I-76.959 J-27.532
G3 X171.311 Y-96.382 I14.527 J4.842
G2 X179.989 Y-117.547 I-28.1 J-23.883
G3 X181.3 Y-118.766 I1.312 J0.096
G1 X207.749
G3 X208.966 Y-117.549 I0 J1.217
G1 Y-30.951
G3 X207.749 Y-29.734 I-1.217 J0
G1 X147.417
G2 X144.845 Y-28.019 I0 J2.786
G3 X142.274 Y-26.305 I-2.572 J-1.072
G1 X27.522
G3 X26.305 Y-27.522 I0 J-1.217
G1 Y-120.978
G3 X27.522 Y-122.195 I1.217 J0
G1 X56.431
G3 X56.986 Y-121.166 I0 J0.665
G2 X56.509 Y-120.412 I23.321 J15.298
G3 X56.29 Y-120.168 I-0.765 J-0.467
X55.115 Y-119.373 I-7.255 J-9.447
G2 X53.926 Y-118.598 I8.747 J14.735
X47.186 Y-112.13 I18.577 J26.102
X42.643 Y-103.968 I24.426 J18.943
G3 X40.537 Y-101.039 I-6.409 J-2.385
G2 X30.133 Y-85.729 I20.144 J24.879
X29.122 Y-67.247 I35.851 J11.231
X38.475 Y-50.628 I29.889 J-5.88
X55.779 Y-42.611 I21.34 J-23.381
X63.182 Y-42.66 I3.521 J-27.387
X70.375 Y-44.412 I-5.328 J-37.518
G3 X72.689 Y-44.99 I4.287 J12.247
G2 X75.015 Y-45.514 I-2.633 J-17.112
X78.602 Y-46.871 I-7.725 J-25.838
X81.997 Y-48.653 I-15.944 J-34.507
G3 X86.011 Y-49.9 I4.643 J7.856
G2 X89.861 Y-50.198 I-15.936 J-230.836
X93.674 Y-50.805 I-2.29 J-26.682
X95.535 Y-51.303 I-6.896 J-29.461
G3 X97.407 Y-51.757 I4.981 J16.475
X101.229 Y-51.644 I1.648 J8.975
G2 X118.597 Y-51.22 I9.65 J-39.355
X134.3 Y-58.653 I-6.676 J-34.411
G3 X138.328 Y-60.561 I5.748 J6.929
G2 X151.11 Y-66.153 I-6.102 J-31.35
X160.22 Y-76.72 I-18.353 J-25.033
X162.188 Y-81.636 I-22.58 J-11.894
X163.319 Y-86.809 I-41.211 J-11.715
G3 X163.945 Y-88.999 I9.018 J1.393
G2 X164.773 Y-91.135 I-31.218 J-13.331
X165.502 Y-93.307 I-88.097 J-30.776
G3 X168.233 Y-98.07 I12.586 J4.053
G2 X174.662 Y-108.724 I-24.958 J-22.327
X176.631 Y-121.01 I-29.769 J-11.072
G3 X177.772 Y-122.195 I1.141 J-0.044
G1 X211.178
G3 X212.395 Y-120.978 I0 J1.217
G1 Y-27.522
G3 X211.178 Y-26.305 I-1.217 J0
G1 X142.274
G2 X140.469 Y-25.101 I0 J1.955
G3 X138.664 Y-23.898 I-1.805 J-0.752
G1 X25.115
G3 X23.898 Y-25.115 I0 J-1.217
G1 Y-123.385
G3 X25.115 Y-124.602 I1.217 J0
G1 X61.492
G3 X61.916 Y-123.629 I0 J0.579
G2 X59.962 Y-121.315 I24.026 J22.285
X58.186 Y-118.862 I41.586 J31.968
G3 X56.826 Y-117.654 I-3.076 J-2.094
G2 X55.274 Y-116.705 I6.022 J11.592
X44.789 Y-102.83 I16.781 J23.579
G3 X42.3 Y-99.367 I-7.279 J-2.606
G2 X32.439 Y-85.061 I18.261 J23.139
X31.483 Y-67.711 I33.597 J10.552
X40.12 Y-52.385 I27.528 J-5.416
X56.086 Y-44.998 I19.696 J-21.625
X62.931 Y-45.054 I3.22 J-25.047
X69.58 Y-46.683 I-5.107 J-35.212
G3 X72.039 Y-47.318 I4.991 J14.256
G2 X74.517 Y-47.873 I-4.088 J-24.047
X77.674 Y-49.068 I-5.112 J-18.29
X80.654 Y-50.655 I-18.903 J-39.077
G3 X86.047 Y-52.315 I6.247 J10.703
G2 X89.604 Y-52.587 I-16.36 J-236.97
X93.127 Y-53.145 I-2.05 J-24.367
X95.041 Y-53.657 I-7.155 J-30.569
G3 X96.967 Y-54.123 I5.131 J17.003
X101.809 Y-53.98 I2.087 J11.377
G2 X118.482 Y-53.667 I9.031 J-36.83
X133.425 Y-61.069 I-6.61 J-32.128
G3 X137.074 Y-62.782 I4.823 J5.534
G2 X158.091 Y-77.842 I-4.646 J-28.677
X159.939 Y-82.496 I-20.798 J-10.955
X160.973 Y-87.397 I-38.075 J-10.593
G3 X161.643 Y-89.739 I9.03 J1.314
G2 X162.565 Y-92.084 I-30.693 J-13.426
X163.347 Y-94.479 I-54.731 J-19.184
G3 X166.133 Y-99.338 I11.91 J3.602
G2 X172.75 Y-110.512 I-22.522 J-20.884
X174.005 Y-123.438 I-27.626 J-9.206
G3 X175.029 Y-124.602 I1.024 J-0.132
G1 X213.585
G3 X214.802 Y-123.385 I0 J1.217
G1 Y-25.115
G3 X213.585 Y-23.898 I-1.217 J0
G1 X138.664
G2 X136.092 Y-22.184 I0 J2.786
G3 X133.52 Y-20.469 I-2.572 J-1.072
G1 X21.686
G3 X20.469 Y-21.686 I0 J-1.217
G1 Y-126.814
G3 X21.686 Y-128.031 I1.217 J0
G1 X72.614
G3 X72.791 Y-127.199 I0 J0.435
G2 X66.747 Y-123.547 I11.402 J25.696
X61.937 Y-118.379 I14.493 J18.315
G1 X60.973 Y-116.965
G3 X59.787 Y-115.712 I-4.466 J-3.042
G2 X55.111 Y-111.979 I85.04 J111.342
X51.005 Y-107.627 I16.043 J19.243
X49.159 Y-104.486 I13.994 J10.342
X47.819 Y-101.097 I33.065 J15.031
G3 X44.857 Y-97.008 I-8.078 J-2.733
G2 X35.729 Y-84.132 I15.484 J20.65
X34.848 Y-68.373 I30.405 J9.604
X42.462 Y-54.889 I24.166 J-4.754
X56.523 Y-48.399 I17.353 J-19.123
X62.574 Y-48.464 I2.793 J-21.727
X68.447 Y-49.92 I-4.806 J-31.962
G3 X71.01 Y-50.589 I5.387 J15.388
G2 X73.593 Y-51.176 I-4.66 J-26.499
X76.655 Y-52.374 I-4.418 J-15.807
X79.526 Y-53.977 I-20.71 J-40.448
G3 X84.912 Y-55.674 I6.156 J10.141
G2 X88.967 Y-55.979 I-13.076 J-201.133
X92.984 Y-56.617 I-2.389 J-28
X95.155 Y-57.157 I-18.061 J-77.161
G3 X97.325 Y-57.698 I16.629 J62.149
X101.584 Y-57.584 I1.909 J8.278
G2 X117.767 Y-56.928 I9.433 J-32.772
X132.086 Y-64.497 I-5.661 J-28.037
G3 X135.293 Y-66.002 I3.769 J3.861
G2 X155.057 Y-79.44 I-2.627 J-25.116
X156.731 Y-83.713 I-18.275 J-9.626
X157.625 Y-88.215 I-33.493 J-8.987
G3 X158.368 Y-90.815 I9.048 J1.18
G2 X159.401 Y-93.413 I-26.114 J-11.887
X160.242 Y-96.08 I-54.51 J-18.652
G3 X163.275 Y-101.307 I11.989 J3.462
G2 X169.484 Y-111.35 I-19.717 J-19.131
X170.716 Y-123.093 I-24.169 J-8.472
X170.316 Y-125.029 I-12.962 J1.669
X169.745 Y-126.921 I-69.521 J19.952
G3 X170.557 Y-128.031 I0.812 J-0.257
G1 X217.014
G3 X218.231 Y-126.814 I0 J1.217
G1 Y-21.686
G3 X217.014 Y-20.469 I-1.217 J0
G1 X133.52
G2 X130.948 Y-18.755 I0 J2.786
G3 X128.377 Y-17.04 I-2.572 J-1.072
G1 X18.257
G3 X17.04 Y-18.257 I0 J-1.217
G1 Y-130.243
G3 X18.257 Y-131.46 I1.217 J0
G1 X80.26
G3 X80.903 Y-130.403 I0 J0.724
G1 X80.803 Y-130.208
X80.766 Y-130.143
X80.722 Y-130.083
X80.672 Y-130.028
G2 X78.696 Y-127.963 I26.529 J27.353
X76.924 Y-125.72 I18.764 J16.647
G3 X75.762 Y-124.755 I-2.353 J-1.65
X73.872 Y-123.973 I-12.085 J-26.539
G2 X72.026 Y-123.093 I4.092 J10.967
X67.575 Y-119.751 I12.625 J21.443
X64.105 Y-115.399 I13.551 J14.364
G3 X61.927 Y-113.023 I-6.655 J-3.915
G1 X59.25 Y-111.118
G2 X56.288 Y-108.57 I12.37 J17.381
X53.763 Y-105.589 I21.22 J20.53
X52.024 Y-102.532 I11.878 J8.778
X50.811 Y-99.231 I35.649 J14.978
G3 X47.434 Y-94.64 I-8.444 J-2.675
G2 X39.016 Y-83.209 I12.635 J18.118
X38.212 Y-69.035 I27.249 J8.655
X44.805 Y-57.393 I20.803 J-4.093
X56.96 Y-51.8 I15.011 J-16.622
X62.216 Y-51.874 I2.369 J-18.426
X67.314 Y-53.156 I-4.526 J-28.773
G3 X71.083 Y-54.153 I8.244 J23.55
G2 X74.823 Y-55.258 I-3.27 J-17.941
X76.797 Y-56.296 I-4.806 J-11.544
G3 X78.688 Y-57.479 I43.924 J68.06
X83.678 Y-59.036 I5.631 J9.276
X87.642 Y-59.237 I14.179 J239.885
G2 X91.575 Y-59.776 I-0.902 J-21.191
X94.589 Y-60.505 I-49.679 J-212.238
X97.585 Y-61.308 I-21.058 J-84.524
G3 X101.537 Y-61.196 I1.8 J6.266
G2 X112.866 Y-59.641 I9.5 J-27.17
X123.883 Y-62.704 I-1.762 J-27.684
X127.536 Y-65.039 I-11.131 J-21.445
X130.694 Y-68.01 I-13.75 J-17.774
G3 X133.394 Y-69.298 I2.845 J2.49
G2 X149.05 Y-76.612 I-0.851 J-22.234
X152.626 Y-82.399 I-14.325 J-12.851
X154.266 Y-89.001 I-23.981 J-9.463
G3 X155.101 Y-91.923 I9.069 J1.012
G2 X156.27 Y-94.806 I-23.173 J-11.072
X157.159 Y-97.786 I-42.629 J-14.341
G3 X159.866 Y-102.668 I10.874 J2.838
G2 X162.149 Y-105.131 I-123.776 J-117.005
X164.097 Y-107.867 I-10.484 J-9.526
X166.897 Y-114.844 I-27.939 J-15.259
X167.404 Y-122.344 I-18.668 J-5.03
X166.342 Y-126.541 I-17.971 J2.315
X164.431 Y-130.425 I-22.539 J8.679
G3 X165.012 Y-131.46 I0.581 J-0.354
G1 X220.443
G3 X221.66 Y-130.243 I0 J1.217
G1 Y-18.257
G3 X220.443 Y-17.04 I-1.217 J0
G1 X128.377
G2 X125.805 Y-15.326 I0 J2.786
G3 X123.233 Y-13.611 I-2.572 J-1.072
G1 X14.828
G3 X13.611 Y-14.828 I0 J-1.217
G1 Y-133.672
G3 X14.828 Y-134.889 I1.217 J0
G1 X87.333
G3 X87.759 Y-133.908 I0 J0.583
X86.581 Y-132.675 I-52.442 J-48.926
G2 X85.459 Y-131.39 I10.693 J10.463
X84.587 Y-130.05 I7.604 J5.907
X83.849 Y-128.632 I47.919 J25.817
G3 X83.084 Y-127.591 I-3.431 J-1.721
G2 X81.35 Y-125.788 I23.485 J24.326
X79.79 Y-123.833 I16.86 J15.058
G3 X77.092 Y-121.592 I-5.573 J-3.964
X75.414 Y-120.9 I-8.978 J-19.374
G2 X73.773 Y-120.126 I3.391 J9.322
X69.784 Y-117.085 I10.697 J18.169
X66.737 Y-113.099 I11.881 J12.238
G3 X64.548 Y-110.664 I-6.357 J-3.515
G2 X61.873 Y-108.776 I253.131 J361.309
X57.312 Y-104.564 I14.21 J19.965
X54.269 Y-99.152 I12.862 J10.794
X53.656 Y-97.255 I67.031 J22.683
G3 X52.928 Y-95.4 I-12.597 J-3.871
X50.311 Y-92.451 I-6.505 J-3.138
G2 X42.716 Y-83.138 I10.337 J16.183
X41.344 Y-71.198 I22.553 J8.64
X44.308 Y-63.089 I20.201 J-2.786
X50.746 Y-57.335 I13.309 J-8.413
X57.677 Y-55.335 I9.271 J-19.114
X64.861 Y-55.982 I1.998 J-18.025
X66.617 Y-56.532 I-19.355 J-64.853
G3 X68.406 Y-56.968 I3.676 J11.197
G2 X71.099 Y-57.582 I-3.492 J-21.518
X73.702 Y-58.506 I-7.339 J-24.803
X75.668 Y-59.563 I-4.357 J-10.464
G3 X77.529 Y-60.798 I107.711 J160.236
X82.231 Y-62.382 I5.384 J8.214
X85.955 Y-62.559 I5.885 J84.5
G2 X89.669 Y-62.896 I-0.733 J-28.717
X98.089 Y-65.05 I-7.084 J-45.215
G3 X101.242 Y-64.969 I1.471 J4.144
G2 X114.355 Y-63.162 I10.014 J-24.187
X126.475 Y-68.485 I-2.693 J-22.587
X127.958 Y-70 I-7.969 J-9.287
X129.242 Y-71.687 I-21.965 J-18.063
G3 X131.517 Y-72.758 I2.079 J1.465
G2 X143.211 Y-76.102 I1.34 J-17.431
X150.22 Y-86.042 I-11.355 J-15.449
X150.541 Y-87.374 I-11.958 J-3.587
X150.771 Y-88.725 I-50.161 J-9.212
G3 X152.28 Y-94.005 I21.985 J3.43
G2 X153.305 Y-96.789 I-27.768 J-11.81
X154.076 Y-99.655 I-34.495 J-10.813
G3 X155.919 Y-103.391 I8.669 J1.954
X158.236 Y-105.831 I19.996 J16.668
G2 X160.415 Y-108.394 I-9.566 J-10.339
X163.787 Y-116.696 I-18.898 J-12.511
X163.123 Y-125.631 I-17.063 J-3.225
X160.483 Y-130.274 I-13.936 J4.852
X156.632 Y-133.975 I-19.293 J16.217
G3 X156.945 Y-134.889 I0.313 J-0.403
G1 X223.872
G3 X225.089 Y-133.672 I0 J1.217
G1 Y-14.828
G3 X223.872 Y-13.611 I-1.217 J0
G1 X123.233
G2 X120.661 Y-11.896 I0 J2.786
G3 X118.089 Y-10.182 I-2.572 J-1.072
G1 X11.374
G3 X10.182 Y-11.374 I0 J-1.192
G1 Y-137.126
G3 X11.374 Y-138.318 I1.192 J0
G1 X98.002
G3 X98.173 Y-137.5 I0 J0.427
G2 X91.603 Y-133.244 I9.698 J22.168
X86.871 Y-127.007 I14.359 J15.809
G3 X85.51 Y-125.166 I-5.991 J-3.004
G2 X84.047 Y-123.7 I29.919 J31.313
X82.71 Y-122.119 I12.826 J12.199
X82.176 Y-121.345 I9.677 J7.255
G3 X81.599 Y-120.603 I-4.162 J-2.641
X78.798 Y-118.601 I-6.503 J-6.138
X76.828 Y-117.77 I-16.074 J-35.345
G2 X74.904 Y-116.836 I4.849 J12.437
X71.905 Y-114.248 I5.614 J9.535
X69.538 Y-111.071 I40.195 J32.418
G3 X65.642 Y-107.331 I-10.992 J-7.552
G2 X61.416 Y-103.969 I12.967 J20.633
X58.628 Y-100.29 I11.744 J11.798
X56.899 Y-96.01 I16.1 J8.995
G3 X56.346 Y-94.612 I-6.168 J-1.631
G2 X55.687 Y-93.261 I16.179 J8.729
X55.545 Y-92.909 I5.502 J2.411
G3 X55.41 Y-92.554 I-12.032 J-4.389
X53.298 Y-90.221 I-4.193 J-1.672
G2 X46.425 Y-82.987 I7.059 J13.59
X44.617 Y-73.174 I18.653 J8.51
X45.98 Y-67.112 I19.758 J-1.258
X49.666 Y-62.109 I11.387 J-4.532
X54.772 Y-59.306 I10.374 J-12.844
X60.551 Y-58.576 I4.697 J-13.951
X63.014 Y-59.075 I-0.734 J-9.961
X65.376 Y-59.934 I-17.571 J-52.005
G3 X67.466 Y-60.469 I3.247 J8.332
G2 X72.097 Y-61.714 I-2.341 J-17.945
X76.259 Y-64.095 I-7.463 J-17.876
G3 X80.502 Y-65.678 I4.808 J6.408
X85.592 Y-65.94 I9.39 J132.837
G2 X90.645 Y-66.606 I-0.834 J-25.818
G3 X93.152 Y-67.169 I32.336 J138.145
G2 X95.643 Y-67.794 I-7.95 J-36.967
X96.977 Y-68.269 I-3.123 J-10.87
G3 X98.283 Y-68.816 I32.644 J76.128
X101.458 Y-68.658 I1.418 J3.47
G2 X111.803 Y-66.391 I9.241 J-17.426
X121.935 Y-69.471 I-1.252 J-22.325
X124.842 Y-71.715 I-7.606 J-12.858
X127.096 Y-74.613 I-10.025 J-10.122
X127.35 Y-75.078 I-7.3 J-4.294
G3 X127.604 Y-75.542 I7.554 J3.83
X129.44 Y-76.411 I1.557 J0.916
G2 X133.236 Y-76.124 I3.703 J-23.735
X137.003 Y-76.674 I-0.053 J-13.533
X144.264 Y-81.702 I-3.969 J-13.491
X147.468 Y-89.933 I-13.007 J-9.801
G3 X148.838 Y-94.725 I13.711 J1.328
G2 X150.098 Y-97.873 I-19.117 J-9.479
X150.884 Y-101.172 I-24.109 J-7.491
G3 X152.754 Y-104.985 I7.347 J1.237
X155.668 Y-108.009 I70.491 J65.001
G2 X158.19 Y-111.366 I-10.283 J-10.351
X160.542 Y-118.707 I-17.931 J-9.793
X159.095 Y-126.279 I-12.576 J-1.521
X152.756 Y-132.599 I-13.803 J7.505
X144.107 Y-134.908 I-9.164 J16.975
X143.506 Y-134.911 I-0.35 J13.116
G3 X142.906 Y-134.908 I-0.379 J-19.861
X142.331 Y-135.024 I0.018 J-1.576
X141.598 Y-135.417 I1.461 J-3.603
G2 X140.896 Y-135.863 I-6.917 J10.12
X139.326 Y-136.71 I-12.382 J21.053
X137.721 Y-137.489 I-56.368 J114.168
G3 X137.909 Y-138.318 I0.188 J-0.394
G1 X227.326
G3 X228.518 Y-137.126 I0 J1.192
G1 Y-11.374
G3 X227.326 Y-10.182 I-1.192 J0
G1 X118.089
G2 X115.612 Y-8.53 I0 J2.683
G3 X113.135 Y-6.879 I-2.477 J-1.032
G1 X8.096
G3 X6.879 Y-8.096 I0 J-1.217
G1 Y-140.404
G3 X8.096 Y-141.621 I1.217 J0
G1 X230.604
G3 X231.821 Y-140.404 I0 J1.217
G1 Y-8.096
G3 X230.604 Y-6.879 I-1.217 J0
G1 X113.135
G2 X110.563 Y-5.165 I0 J2.786
G3 X107.991 Y-3.45 I-2.572 J-1.072
G1 X4.667
G3 X3.45 Y-4.667 I0 J-1.217
G1 Y-143.833
G3 X4.667 Y-145.05 I1.217 J0
G1 X234.033
G3 X235.25 Y-143.833 I0 J1.217
G1 Y-4.667
G3 X234.033 Y-3.45 I-1.217 J0
G1 X107.991
G2 X105.405 Y-1.726 I0 J2.802
G3 X102.819 Y-0.002 I-2.586 J-1.078
G1 X0.02
X0.004 Y-0.004
X0.002 Y-0.02
Y-148.48
X0.004 Y-148.496
X0.02 Y-148.498
X238.68
X238.696 Y-148.496
X238.698 Y-148.48
Y-0.02
X238.696 Y-0.004
X238.68 Y-0.002
X102.819
X102.749 Y-0.006 Z-7.992
X102.679 Y-0.018 Z-7.984
X102.615 Y-0.036 Z-7.961
X102.552 Y-0.061 Z-7.937
X102.499 Y-0.089 Z-7.899
X102.449 Y-0.121 Z-7.861
X102.372 Y-0.186 Z-7.761
X102.322 Y-0.243 Z-7.641
X102.294 Y-0.281 Z-7.506
X102.285 Y-0.294 Z-7.365
Z5
X107.917 Y-65.127
Z1
Z-7.365
Y-65.135 Z-7.464
X107.92 Y-65.158 Z-7.561
X107.923 Y-65.196 Z-7.653
X107.928 Y-65.248 Z-7.738
X107.934 Y-65.312 Z-7.814
X107.942 Y-65.388 Z-7.879
X107.95 Y-65.472 Z-7.931
X107.959 Y-65.564 Z-7.969
X107.968 Y-65.66 Z-7.992
X107.978 Y-65.759 Z-8
X108.312 Y-69.215
G3 X109.005 Y-69.786 I0.632 J0.061
G2 X112.965 Y-69.8 I1.912 J-19.771
X119.443 Y-71.853 I-1.733 J-16.715
X122.898 Y-74.544 I-7.099 J-12.676
X125.302 Y-78.206 I-9.044 J-8.556
X125.513 Y-78.741 I-9.414 J-4.025
G1 X125.72 Y-79.313
G3 X127.251 Y-80.218 I1.315 J0.477
X128.893 Y-79.835 I-1.748 J11.208
G2 X130.544 Y-79.496 I2.498 J-7.977
X134.277 Y-79.541 I1.668 J-16.387
X137.867 Y-80.564 I-1.545 J-12.227
X142.559 Y-84.945 I-4.233 J-9.237
X144.225 Y-91.143 I-12.071 J-6.569
G3 X145.25 Y-94.951 I8.432 J0.227
G2 X146.807 Y-98.415 I-21.841 J-11.898
X147.684 Y-102.11 I-15.861 J-5.717
G3 X149.929 Y-106.81 I8.09 J0.977
G2 X154.023 Y-111.125 I-184.228 J-178.929
X156.82 Y-116.373 I-8.548 J-7.926
X157.248 Y-120.683 I-15.928 J-3.759
X156.11 Y-124.861 I-9.406 J0.317
X152.194 Y-129.108 I-10.382 J5.645
X146.862 Y-131.331 I-8.64 J13.218
X144.774 Y-131.575 I-2.317 J10.814
X142.671 Y-131.608 I-4.573 J221.29
G3 X141.254 Y-131.896 I0.043 J-3.838
X139.171 Y-133.014 I4.408 J-10.716
G2 X137.156 Y-134.247 I-14.562 J21.535
X131.248 Y-136.997 I-23.148 J42.01
X124.85 Y-138.226 I-6.619 J17.184
G3 X121.307 Y-138.506 I0.318 J-26.609
G2 X117.763 Y-138.764 I-3.544 J24.169
G3 X112.367 Y-138.801 I0 J-400.041
G2 X107.037 Y-137.962 I-0.216 J15.989
X104.373 Y-136.796 I5.343 J15.828
G3 X101.75 Y-135.538 I-13.175 J-24.123
G2 X98.417 Y-134.038 I24.202 J58.21
X95.313 Y-132.105 I7.618 J15.69
X92.159 Y-129.057 I12.704 J16.301
X89.754 Y-125.389 I14.581 J12.186
G3 X87.844 Y-122.828 I-8.157 J-4.09
G2 X86.397 Y-121.35 I16.989 J18.089
X85.128 Y-119.717 I10.549 J9.505
G3 X84.082 Y-118.421 I-7.594 J-5.059
G2 X83.9 Y-118.228 I6.074 J5.895
G1 X83.706 Y-118.015
G3 X80.674 Y-115.826 I-6.744 J-6.147
X77.789 Y-114.581 I-56.317 J-126.501
G2 X75.1 Y-112.957 I4.135 J9.885
X72.706 Y-110.057 I6.336 J7.671
G3 X70.54 Y-106.983 I-14.566 J-7.96
X66.759 Y-103.863 I-11.953 J-10.636
G2 X62.933 Y-100.798 I8.998 J15.149
X60.423 Y-96.558 I8.178 J7.706
G3 X58.672 Y-91.953 I-47.192 J-15.304
G2 X58.297 Y-90.95 I8.972 J3.931
G3 X57.968 Y-89.932 I-58.303 J-18.266
X56.18 Y-87.891 I-3.317 J-1.103
X55.189 Y-87.477 I-4.193 J-8.624
G2 X54.215 Y-87.026 I1.946 J5.491
X48.843 Y-80.517 I6.072 J10.482
X48.013 Y-72.118 I17.08 J5.928
X49.755 Y-67.045 I13.805 J-1.904
X53.684 Y-63.392 I7.923 J-4.583
X57.747 Y-62.049 I7.075 J-14.587
X62.022 Y-62.244 I1.725 J-9.126
X63.347 Y-62.69 I-4.145 J-14.52
G3 X64.652 Y-63.19 I54.936 J141.354
X66.862 Y-63.723 I3.227 J8.535
G2 X69.023 Y-64.072 I-2.498 J-22.281
X71.113 Y-64.723 I-2.46 J-11.579
X73.471 Y-66.104 I-3.89 J-9.343
G3 X75.663 Y-67.735 I32.998 J42.055
X79.231 Y-68.912 I3.716 J5.27
G2 X85.129 Y-69.139 I-4.338 J-189.397
X90.95 Y-70.122 I-1.413 J-26.106
G3 X93.614 Y-70.713 I6.11 J21.223
G2 X96.242 Y-71.447 I-1.845 J-11.679
X97.644 Y-72.038 I-25.817 J-63.168
G3 X99.046 Y-72.629 I22.765 J52.019
X101.545 Y-72.425 I1.047 J2.578
G2 X103.782 Y-71.166 I18.318 J-29.929
X106.186 Y-70.265 I5.005 J-9.708
X109.005 Y-69.786 I4.731 J-19.292
X111.901 Y-71.465 I0.277 J-2.86
G3 X114.471 Y-73.608 I3.492 J1.574
G2 X118.509 Y-75.262 I-3.616 J-14.593
X121.35 Y-77.827 I-4.898 J-8.279
X122.843 Y-81.351 I-6.601 J-4.874
X122.894 Y-83.194 I-6.627 J-1.105
X122.615 Y-85.017 I-22.096 J2.443
G3 X122.884 Y-85.69 I0.655 J-0.128
G1 X122.932 Y-85.724
G3 X123.803 Y-85.65 I0.392 J0.54
G2 X126.803 Y-83.811 I5.123 J-4.99
X130.212 Y-82.936 I10.452 J-33.631
X134.939 Y-83.15 I1.938 J-9.494
X138.934 Y-85.687 I-2.518 J-8.38
X140.624 Y-89.09 I-5.297 J-4.752
X140.778 Y-92.887 I-12.478 J-2.408
G3 X141.546 Y-95.558 I3.636 J-0.4
G2 X144.308 Y-102.835 I-10.091 J-7.992
G3 X146.32 Y-107.952 I8.806 J0.508
X147.572 Y-109.292 I11.777 J9.751
G2 X148.824 Y-110.632 I-10.365 J-10.94
G3 X151.01 Y-113.068 I30.977 J25.601
G2 X152.939 Y-115.711 I-8.305 J-8.087
X153.995 Y-119.752 I-7.976 J-4.242
X152.773 Y-123.746 I-6.652 J-0.148
X148.546 Y-127.193 I-8.334 J5.902
X143.215 Y-128.344 I-5.484 J12.482
G3 X141.102 Y-128.59 I0.114 J-10.167
X139.096 Y-129.295 I1.992 J-8.88
X134.881 Y-131.474 I46.992 J-96.078
G2 X130.614 Y-133.55 I-24.509 J44.942
X127.021 Y-134.499 I-4.973 J11.551
X123.324 Y-134.875 I-23.644 J214.233
X116.591 Y-135.453 I-44.736 J481.316
X109.843 Y-135.108 I-2.052 J26.018
X105.533 Y-133.598 I2.644 J14.451
G3 X101.369 Y-131.727 I-15.288 J-28.456
G2 X97.302 Y-129.375 I4.702 J12.82
X94.043 Y-125.993 I14.18 J16.929
X92.824 Y-124.079 I9.604 J7.46
G3 X91.775 Y-122.067 I-144.582 J-74.091
X90.44 Y-120.57 I-3.719 J-1.972
G2 X88.942 Y-119.237 I4.562 J6.637
X88.139 Y-118.213 I9.036 J7.909
X87.481 Y-117.09 I6.659 J4.66
G3 X86.99 Y-116.474 I-1.613 J-0.78
G2 X86.416 Y-115.934 I3.202 J3.981
X86.163 Y-115.638 I4.468 J4.072
G3 X85.914 Y-115.338 I-8.651 J-6.919
X82.306 Y-112.792 I-6.861 J-5.895
G2 X78.85 Y-111.276 I14.878 J38.612
X76.003 Y-108.799 I3.289 J6.655
X74.627 Y-106.709 I65.888 J44.871
G3 X73.129 Y-104.704 I-14.028 J-8.922
X69.456 Y-101.697 I-10.726 J-9.354
G2 X65.725 Y-98.76 I7.961 J13.952
X63.643 Y-95.226 I6.74 J6.351
G3 X62.124 Y-91.416 I-27.839 J-8.889
G2 X61.263 Y-89.205 I13.7 J6.61
X60.733 Y-86.893 I16.752 J5.061
G3 X59.368 Y-85.392 I-1.828 J-0.291
G2 X55.108 Y-83.554 I3.771 J14.599
X52.304 Y-79.858 I3.506 J5.57
X51.267 Y-73.923 I25.023 J7.432
X53.072 Y-68.176 I8.495 J0.488
X55.6 Y-66.182 I5.395 J-4.241
X58.695 Y-65.294 I4.455 J-9.689
X61.21 Y-65.555 I0.704 J-5.477
X63.574 Y-66.45 I-14.768 J-42.545
G3 X66.029 Y-67.08 I3.471 J8.439
G2 X67.938 Y-67.359 I-3.215 J-28.678
X69.789 Y-67.904 I-1.59 J-8.809
X72.81 Y-69.731 I-4.561 J-10.954
G3 X75.63 Y-71.857 I23.957 J28.839
X77.48 Y-72.269 I1.442 J2.112
G2 X79.373 Y-72.178 I1.349 J-8.344
X88.938 Y-73.132 I-8.855 J-137.298
X98.122 Y-75.973 I-3.902 J-28.88
G3 X102.866 Y-75.658 I2.105 J4.189
G2 X105.293 Y-74.261 I10.428 J-15.31
X107.959 Y-73.402 I4.498 J-9.392
X113.401 Y-73.384 I2.773 J-15.514
X114.471 Y-73.608 I-2.546 J-14.817
X116.924 Y-76.307 I-0.788 J-3.181
G3 X118.241 Y-79.708 I8.201 J1.22
G1 X118.243 Y-79.712
X118.293 Y-79.791
X118.853 Y-80.743
X118.902 Y-80.832
X118.945 Y-80.924
X119.223 Y-81.574
G2 X119.329 Y-81.937 I-1.46 J-0.624
G1 X119.432 Y-82.556
G2 X119.44 Y-83.027 I-1.566 J-0.261
G1 X119.337 Y-83.802
X119.321 Y-83.897
X119.224 Y-84.391
X119.195 Y-84.515
X119.017 Y-85.149
X119.006 Y-85.188
X118.811 Y-85.823
X118.767 Y-85.946
X118.519 Y-86.568
X118.45 Y-86.747
X119.14 Y-87.219
X119.205 Y-87.266
X119.268 Y-87.317
X119.385 Y-87.416
X120.007 Y-87.878
X120.889 Y-88.502
X120.954 Y-88.55
X121.016 Y-88.602
X121.205 Y-88.767
X121.291 Y-88.847
X121.37 Y-88.933
X121.51 Y-89.098
X121.551 Y-89.148
X121.753 Y-89.405
X122.279 Y-89.98
X123.49 Y-91.234
X123.552 Y-91.301
X124.059 Y-91.891
X124.44 Y-92.271
Y-91.702
Y-91.659
X124.458 Y-91.025
G2 X124.56 Y-90.505 I1.587 J-0.043
G1 X124.801 Y-89.87
G2 X125.071 Y-89.41 I1.484 J-0.563
G1 X125.437 Y-88.976
X125.476 Y-88.931
X126.235 Y-88.096
X126.33 Y-88
X126.585 Y-87.764
X126.679 Y-87.683
X126.78 Y-87.609
X126.907 Y-87.523
X127.035 Y-87.446
X127.163 Y-87.377
X127.242 Y-87.336
X127.324 Y-87.3
X127.642 Y-87.172
G2 X127.933 Y-87.085 I0.596 J-1.471
G1 X128.25 Y-87.023
X128.347 Y-87.007
X128.938 Y-86.929
X129.49 Y-86.824
X130.722 Y-86.527
X130.777 Y-86.514
X130.936 Y-86.482
X131.093 Y-86.458
X131.251 Y-86.442
X131.35 Y-86.435
X131.449 Y-86.434
X131.649 Y-86.439
X132.485 Y-86.334
G2 X132.82 Y-86.328 I0.197 J-1.575
G1 X133.137 Y-86.356
G2 X133.447 Y-86.414 I-0.138 J-1.581
G1 X134.082 Y-86.601
X134.19 Y-86.637
X134.295 Y-86.681
X134.93 Y-86.972
X135.032 Y-87.023
X135.13 Y-87.082
X135.307 Y-87.196
G2 X135.573 Y-87.412 I-0.861 J-1.333
G1 X136.032 Y-87.875
X136.085 Y-87.932
X136.239 Y-88.104
G2 X136.462 Y-88.424 I-1.182 J-1.06
G1 X136.797 Y-89.059
G2 X136.913 Y-89.342 I-1.405 J-0.74
G1 X137.103 Y-89.977
X137.114 Y-90.015
X137.287 Y-90.65
G2 X137.342 Y-91.025 I-1.532 J-0.418
G1 X137.36 Y-91.659
Y-91.702
Y-92.337
G2 X137.338 Y-92.599 I-1.587 J0
G1 X137.232 Y-93.234
X137.207 Y-93.355
X137.172 Y-93.473
X136.961 Y-94.108
X136.944 Y-94.155
X136.71 Y-94.79
G2 X136.551 Y-95.107 I-1.49 J0.549
G1 X136.166 Y-95.699
X136.255 Y-95.722
G2 X136.544 Y-95.827 I-0.399 J-1.536
G1 X136.868 Y-95.983
G2 X137.113 Y-96.13 I-0.688 J-1.431
G1 X137.742 Y-96.587
X137.817 Y-96.645
X138.033 Y-96.823
X138.105 Y-96.885
X138.172 Y-96.952
X138.591 Y-97.391
X138.688 Y-97.501
X138.968 Y-97.856
X139.035 Y-97.946
X139.094 Y-98.04
X139.187 Y-98.199
X139.223 Y-98.264
X139.389 Y-98.582
X139.434 Y-98.673
X139.51 Y-98.844
X139.706 Y-99.223
X139.747 Y-99.31
X139.784 Y-99.4
X140.019 Y-100.034
X140.037 Y-100.085
X140.46 Y-101.354
X140.479 Y-101.416
X140.663 Y-102.05
X140.686 Y-102.142
X140.829 Y-102.776
G2 X140.867 Y-103.074 I-1.549 J-0.349
G1 X140.909 Y-104.343
Y-104.386
X140.912 Y-104.952
X140.963 Y-105.506
X141.017 Y-106.002
X141.127 Y-106.403
X141.337 Y-106.885
X141.354 Y-106.917
X141.597 Y-107.285
X141.883 Y-107.662
X141.923 Y-107.717
X142.557 Y-108.634
X142.582 Y-108.67
X142.928 Y-109.201
X143.342 Y-109.763
X143.822 Y-110.343
X144.343 Y-110.93
X145.242 Y-111.856
X145.285 Y-111.902
X145.427 Y-112.06
X145.479 Y-112.121
X145.528 Y-112.184
X145.694 Y-112.411
X146.076 Y-112.902
X146.588 Y-113.486
X146.826 Y-113.744
X147.424 Y-114.312
X147.525 Y-114.417
X148.124 Y-115.1
X148.566 Y-115.539
X148.632 Y-115.609
X148.693 Y-115.682
X148.777 Y-115.789
X148.854 Y-115.895
X148.924 Y-116.001
X148.994 Y-116.117
X149.108 Y-116.326
X149.141 Y-116.39
X149.328 Y-116.771
X149.497 Y-116.993
G2 X149.637 Y-117.211 I-1.262 J-0.963
G1 X149.743 Y-117.411
X149.792 Y-117.51
X149.833 Y-117.612
X149.906 Y-117.812
X149.936 Y-117.901
X149.96 Y-117.992
X149.997 Y-118.151
X150.014 Y-118.23
X150.026 Y-118.309
X150.047 Y-118.468
X150.058 Y-118.577
X150.085 Y-118.636
G2 X150.174 Y-118.873 I-1.438 J-0.673
G1 X150.264 Y-119.191
G2 X150.321 Y-119.51 I-1.527 J-0.435
G1 X150.344 Y-119.827
G2 X150.335 Y-120.146 I-1.583 J-0.116
G1 X150.295 Y-120.463
G2 X150.219 Y-120.782 I-1.574 J0.203
G1 X150.109 Y-121.1
G2 X150.004 Y-121.336 I-1.499 J0.522
G1 X149.918 Y-121.495
X149.871 Y-121.576
X149.819 Y-121.654
X149.707 Y-121.812
X149.64 Y-121.9
X149.568 Y-121.983
X149.392 Y-122.169
X149.339 Y-122.223
X148.425 Y-123.107
X148.337 Y-123.185
X148.244 Y-123.257
X147.73 Y-123.625
X147.662 Y-123.671
X147.591 Y-123.713
X147.432 Y-123.803
X147.342 Y-123.851
X147.249 Y-123.892
X146.932 Y-124.022
X146.899 Y-124.035
X146.258 Y-124.281
G2 X146.005 Y-124.355 I-0.568 J1.482
G1 X145.394 Y-124.479
X144.776 Y-124.618
X144.674 Y-124.638
X144.515 Y-124.663
X144.436 Y-124.673
X144.356 Y-124.68
X144.197 Y-124.689
X144.109 Y-124.691
X143.834
X143.241 Y-124.723
X143.174 Y-124.725
X142.539 Y-124.732
X142.428 Y-124.729
X141.825 Y-124.694
X141.221 Y-124.682
X141.132 Y-124.689
X141.04 Y-124.715
X140.938 Y-124.739
X140.349 Y-124.861
X139.989 Y-124.957
X139.881 Y-124.992
X139.345 Y-125.204
X138.713 Y-125.503
X138.63 Y-125.539
X138.039 Y-125.779
X138.001 Y-125.794
X137.819 Y-125.862
X137.625 Y-125.979
X137.506 Y-126.043
X136.926 Y-126.327
X135.708 Y-127.043
X135.657 Y-127.072
X133.935 Y-128.001
X133.765 Y-128.094
X133.682 Y-128.137
X133.047 Y-128.439
X132.973 Y-128.473
X132.381 Y-128.718
X131.797 Y-129.002
X131.171 Y-129.315
X131.078 Y-129.358
X130.454 Y-129.622
X129.871 Y-129.879
X129.275 Y-130.182
X129.183 Y-130.226
X128.548 Y-130.499
X128.438 Y-130.541
X127.803 Y-130.76
X127.786 Y-130.766
X127.468 Y-130.872
X127.357 Y-130.904
X127.199 Y-130.944
X127.117 Y-130.963
X127.035 Y-130.977
X126.242 Y-131.091
X126.192 Y-131.097
X125.557 Y-131.168
X125.469 Y-131.175
X125.381 Y-131.178
X124.765
X123.582 Y-131.206
X123.015 Y-131.268
X122.989 Y-131.271
X122.403 Y-131.325
X121.817 Y-131.417
X121.754 Y-131.425
X121.168 Y-131.493
X120.423 Y-131.626
X120.308 Y-131.643
X120.149 Y-131.659
X120.019 Y-131.667
X119.074 Y-131.687
X118.446 Y-131.706
X118.419 Y-131.707
X117.784 Y-131.716
X117.728 Y-131.715
X116.492 Y-131.688
X115.275 Y-131.713
X113.39 Y-131.798
X113.309 Y-131.799
X112.039 Y-131.791
X111.925 Y-131.786
X111.812 Y-131.773
X111.177 Y-131.677
X111.115 Y-131.667
X110.494 Y-131.547
X109.873 Y-131.44
X109.809 Y-131.427
X109.636 Y-131.39
X109.55 Y-131.368
X109.464 Y-131.342
X109.292 Y-131.284
X109.149 Y-131.228
X108.86 Y-131.098
X108.784 Y-131.062
X108.149 Y-130.735
X108.084 Y-130.7
X107.811 Y-130.543
X107.556 Y-130.414
X105.06 Y-129.29
X104.457 Y-129.029
X103.692 Y-128.724
X102.615 Y-128.329
X102.525 Y-128.293
X101.995 Y-128.061
X101.906 Y-128.019
X101.819 Y-127.971
X100.445 Y-127.152
X100.361 Y-127.099
X100.281 Y-127.04
X99.646 Y-126.545
X99.571 Y-126.483
X98.903 Y-125.892
X98.793 Y-125.786
X97.568 Y-124.473
X97.017 Y-123.906
X96.957 Y-123.841
X96.901 Y-123.773
X96.285 Y-122.98
X96.222 Y-122.893
X96.165 Y-122.801
X96.074 Y-122.643
X96.029 Y-122.56
X95.551 Y-121.607
X95.521 Y-121.543
X95.247 Y-120.931
X94.974 Y-120.37
X94.817 Y-120.097
X94.665 Y-119.854
X94.314 Y-119.331
X93.862 Y-118.883
X93.306 Y-118.456
X93.246 Y-118.407
X92.611 Y-117.868
X92.512 Y-117.776
X92.309 Y-117.571
X92.27 Y-117.531
X91.683 Y-116.897
X91.653 Y-116.864
X91.097 Y-116.229
X91.022 Y-116.136
X90.903 Y-115.977
X90.848 Y-115.899
X90.798 Y-115.818
X90.706 Y-115.659
X90.652 Y-115.557
X90.531 Y-115.307
X90.424 Y-115.131
X89.877 Y-114.426
X89.633 Y-114.151
X89.307 Y-113.896
X89.202 Y-113.807
X89.074 Y-113.688
X88.983 Y-113.595
X88.657 Y-113.237
X88.626 Y-113.202
X88.024 Y-112.503
X87.698 Y-112.169
X87.639 Y-112.106
X87.584 Y-112.039
X87.459 Y-111.881
X87.41 Y-111.814
X87.364 Y-111.745
X87.264 Y-111.586
X87.179 Y-111.48
X86.966 Y-111.289
X86.899 Y-111.226
X86.799 Y-111.125
X86.731 Y-111.052
X86.668 Y-110.975
X86.462 Y-110.708
X86.381 Y-110.593
X86.374 Y-110.581
X86.191 Y-110.42
X86.186 Y-110.417
X85.649 Y-110.125
X84.998 Y-109.924
X84.164 Y-109.761
X84.085 Y-109.743
X83.909 Y-109.699
X83.822 Y-109.675
X83.737 Y-109.646
X83.561 Y-109.58
X83.459 Y-109.538
X82.824 Y-109.249
X82.723 Y-109.199
X82.288 Y-108.962
X82.205 Y-108.913
X82.124 Y-108.86
X82.06 Y-108.814
X81.774 Y-108.732
X81.733 Y-108.719
X81.415 Y-108.619
X81.285 Y-108.571
X81.126 Y-108.506
X81.051 Y-108.472
X80.977 Y-108.434
X80.781 Y-108.328
X80.735 Y-108.301
X80.137 Y-107.949
G2 X79.931 Y-107.805 I0.805 J1.368
G1 X79.589 Y-107.523
G2 X79.288 Y-107.192 I1.011 J1.224
G1 X78.995 Y-106.762
X78.939 Y-106.673
X78.819 Y-106.469
X78.798 Y-106.432
X78.302 Y-105.536
X78.151 Y-105.292
X77.742 Y-104.749
X77.187 Y-104.089
X77.152 Y-104.045
X76.517 Y-103.233
X76.446 Y-103.135
X76.206 Y-102.773
X75.891 Y-102.354
X75.844 Y-102.299
X75.424 Y-101.883
X73.572 Y-100.312
X72.969 Y-99.81
X72.314 Y-99.31
X72.252 Y-99.26
X71.553 Y-98.668
X71.15 Y-98.381
X70.746 Y-98.109
X69.936 Y-97.597
X69.864 Y-97.548
X69.229 Y-97.097
X69.144 Y-97.032
X69.064 Y-96.962
X68.751 Y-96.668
X68.717 Y-96.635
X68.395 Y-96.315
X68.359 Y-96.278
X68.063 Y-95.964
X68.001 Y-95.893
X67.942 Y-95.819
X67.603 Y-95.36
X67.545 Y-95.277
X67.493 Y-95.189
X67.395 Y-95.013
G2 X67.278 Y-94.75 I1.387 J0.772
G1 X67.063 Y-94.115
X67.038 Y-94.034
X66.861 Y-93.4
X66.855 Y-93.377
X66.693 Y-92.767
X66.534 Y-92.231
X66.31 Y-91.686
X66.211 Y-91.459
X66.114 Y-91.313
X66.064 Y-91.233
X66.019 Y-91.15
X65.376 Y-89.881
X65.363 Y-89.854
X65.057 Y-89.219
X65.032 Y-89.166
X64.887 Y-88.833
X64.859 Y-88.765
X64.743 Y-88.464
X64.728 Y-88.425
X64.503 Y-87.79
X64.478 Y-87.712
X64.457 Y-87.632
X64.308 Y-87.018
X64.173 Y-86.515
X64.153 Y-86.433
X64.138 Y-86.349
X64.12 Y-86.237
X64.107 Y-86.129
X64.101 Y-86.019
X64.09 Y-85.437
X64.046 Y-84.908
X63.963 Y-84.367
X63.843 Y-83.786
X63.728 Y-83.273
X63.66 Y-83.092
X63.516 Y-83.023
X61.393 Y-82.314
X61.365 Y-82.304
X60.909 Y-82.142
X60.463 Y-82.095
G2 X60.177 Y-82.038 I0.164 J1.579
G1 X59.542 Y-81.851
X59.443 Y-81.818
X59.347 Y-81.779
X59.236 Y-81.73
X59.146 Y-81.686
X59.059 Y-81.637
X58.714 Y-81.428
X58.281 Y-81.303
G2 X57.927 Y-81.152 I0.441 J1.525
G1 X57.696 Y-81.018
X57.584 Y-80.947
X57.18 Y-80.665
G2 X56.947 Y-80.466 I0.908 J1.302
G1 X56.605 Y-80.113
X56.547 Y-80.05
X56.493 Y-79.984
X56.199 Y-79.606
X56.147 Y-79.535
X56.099 Y-79.461
X55.942 Y-79.204
G2 X55.774 Y-78.827 I1.354 J0.829
G1 X55.592 Y-78.216
X55.39 Y-77.605
X55.352 Y-77.469
X55.273 Y-77.134
X55.202 Y-76.833
X55.181 Y-76.724
X54.976 Y-75.455
X54.962 Y-75.348
X54.956 Y-75.239
X54.941 Y-74.605
X54.94 Y-74.567
Y-73.933
X54.944 Y-73.832
X54.984 Y-73.197
X54.996 Y-73.081
X55.083 Y-72.447
X55.098 Y-72.357
X55.223 Y-71.722
G2 X55.319 Y-71.41 I1.558 J-0.306
G1 X55.415 Y-71.182
X55.451 Y-71.103
X55.491 Y-71.027
X55.566 Y-70.892
X55.632 Y-70.785
X55.705 Y-70.684
X55.918 Y-70.413
G2 X56.168 Y-70.159 I1.248 J-0.981
G1 X56.455 Y-69.927
G2 X56.76 Y-69.734 I0.998 J-1.235
G1 X57.077 Y-69.58
G2 X57.319 Y-69.486 I0.693 J-1.428
G1 X57.353 Y-69.476
X57.394 Y-69.456
X57.46 Y-69.426
X57.722 Y-69.313
X58.04 Y-69.162
X58.119 Y-69.127
X58.201 Y-69.096
X58.518 Y-68.985
G2 X58.837 Y-68.91 I0.522 J-1.499
G1 X59.155 Y-68.869
G2 X59.474 Y-68.861 I0.202 J-1.575
G1 X59.791 Y-68.884
G2 X60.111 Y-68.941 I-0.117 J-1.583
G1 X60.428 Y-69.031
G2 X60.675 Y-69.125 I-0.436 J-1.527
G1 X60.855 Y-69.21
X60.869 Y-69.217
X60.949 Y-69.226
X61.051 Y-69.239
X61.151 Y-69.26
X61.31 Y-69.297
X61.39 Y-69.318
X61.469 Y-69.344
X61.628 Y-69.399
X61.712 Y-69.432
X61.794 Y-69.468
X61.917 Y-69.528
X62.112 Y-69.586
X62.218 Y-69.622
X62.321 Y-69.664
X62.559 Y-69.774
X62.587 Y-69.787
X62.735 Y-69.842
X62.951 Y-69.934
X63.058 Y-69.984
X63.16 Y-70.042
X63.362 Y-70.166
X63.439 Y-70.216
X63.452 Y-70.225
X63.604 Y-70.269
X63.664 Y-70.287
X63.785 Y-70.327
X64.576 Y-70.417
X65.173 Y-70.455
X65.248 Y-70.462
X66.121 Y-70.56
X66.198 Y-70.57
X66.595 Y-70.635
X66.71 Y-70.658
X66.823 Y-70.689
X67.43 Y-70.883
X68.038 Y-71.053
X68.13 Y-71.081
X68.22 Y-71.116
X68.417 Y-71.198
X68.526 Y-71.248
X68.631 Y-71.306
X70.021 Y-72.15
X70.111 Y-72.209
X70.196 Y-72.273
X70.654 Y-72.644
X71.006 Y-72.87
X71.063 Y-72.908
X71.698 Y-73.355
X71.77 Y-73.408
X71.839 Y-73.466
X72.413 Y-73.977
X72.983 Y-74.388
X73.024 Y-74.418
X73.586 Y-74.851
X74.216 Y-75.23
X74.239 Y-75.24
X74.45 Y-75.318
X75.315 Y-75.563
X76.096 Y-75.724
X76.641 Y-75.773
X76.719 Y-75.782
X77.189 Y-75.848
X77.659 Y-75.816
X77.706 Y-75.813
X78.34 Y-75.788
X78.403 Y-75.787
X79.037
X79.14 Y-75.79
X79.774 Y-75.831
X79.809 Y-75.834
X81.066 Y-75.943
X81.679 Y-75.985
X83.575 Y-76.098
X83.591 Y-76.099
X85.495 Y-76.23
X85.55 Y-76.235
X86.185 Y-76.301
X86.266 Y-76.311
X87.536 Y-76.51
X87.652 Y-76.533
X88.287 Y-76.681
X88.39 Y-76.709
X88.999 Y-76.896
X89.567 Y-77.049
X90.159 Y-77.175
X90.199 Y-77.184
X90.777 Y-77.322
X92.623 Y-77.621
X92.716 Y-77.639
X92.808 Y-77.663
X93.442 Y-77.845
X93.524 Y-77.871
X93.605 Y-77.901
X94.868 Y-78.418
X95.764 Y-78.775
X96.139 Y-78.882
X96.217 Y-78.907
X96.295 Y-78.935
X96.454 Y-78.999
X96.543 Y-79.039
X96.631 Y-79.084
X96.881 Y-79.222
X97.425 Y-79.459
X97.997 Y-79.688
X98.518 Y-79.863
X99.061 Y-79.991
X99.517 Y-80.066
X100.674 Y-80.116
X101.293 Y-80.13
X101.356 Y-80.133
X101.991 Y-80.172
X102.017 Y-80.174
X102.472 Y-80.21
X102.54 Y-80.169
X102.6 Y-80.113
X102.661 Y-80.059
X102.724 Y-80.009
X102.841 Y-79.921
X102.956 Y-79.842
X103.552 Y-79.471
X104.185 Y-79.022
X104.676 Y-78.608
X104.746 Y-78.552
X104.818 Y-78.501
X105.081 Y-78.325
X105.161 Y-78.275
X106.168 Y-77.685
X106.234 Y-77.648
X106.319 Y-77.603
X106.411 Y-77.559
X106.507 Y-77.52
X107.136 Y-77.288
X107.221 Y-77.26
X107.307 Y-77.236
X107.862 Y-77.1
X107.961 Y-77.079
X108.596 Y-76.965
X108.717 Y-76.949
X109.352 Y-76.885
X109.407 Y-76.881
X110.042 Y-76.839
X110.125 Y-76.836
X110.208 Y-76.837
X110.811 Y-76.861
X111.097
X111.174 Y-76.863
X111.332 Y-76.871
X111.46 Y-76.882
X112.229 Y-76.982
X113.473 Y-77.104
X113.526 Y-77.11
X113.843 Y-77.151
X113.947 Y-77.168
X114.049 Y-77.192
X114.287 Y-77.256
X114.434 Y-77.304
X115.148 Y-77.572
X115.235 Y-77.608
X115.32 Y-77.649
X115.955 Y-77.979
X115.999 Y-78.003
X116.634 Y-78.358
X116.667 Y-78.377
X117.301 Y-78.752
G2 X117.527 Y-78.914 I-0.808 J-1.366
G1 X117.714 Y-79.074
X117.798 Y-79.152
X117.876 Y-79.235
X118.014 Y-79.394
X118.078 Y-79.471
X118.137 Y-79.553
X118.241 Y-79.708
X118.283 Y-79.765 Z-7.992
X118.332 Y-79.816 Z-7.984
X118.383 Y-79.859 Z-7.961
X118.438 Y-79.897 Z-7.937
X118.491 Y-79.926 Z-7.899
X118.547 Y-79.949 Z-7.861
X118.643 Y-79.977 Z-7.761
X118.718 Y-79.987 Z-7.641
X118.765 Y-79.989 Z-7.506
X118.781 Z-7.365
Z5
X144.756 Y-35.45
Z-3.165 F333.3
X144.741 Y-35.449 Z-3.304
X144.696 Y-35.445 Z-3.435
X144.624 Y-35.442 Z-3.554
X144.527 Y-35.439 Z-3.654
X144.411 Y-35.44 Z-3.73
X144.281 Y-35.447 Z-3.78
X144.144 Y-35.46 Z-3.8
G3 X144.856 Y-41.45 Z-4.131 I0.356 J-2.995
X144.144 Y-35.46 Z-4.462 I-0.356 J2.995
X144.856 Y-41.45 Z-4.793 I0.356 J-2.995
X144.144 Y-35.46 Z-5.124 I-0.356 J2.995
X144.856 Y-41.45 Z-5.455 I0.356 J-2.995
X144.144 Y-35.46 Z-5.785 I-0.356 J2.995
X144.856 Y-41.45 Z-6.116 I0.356 J-2.995
X144.144 Y-35.46 Z-6.447 I-0.356 J2.995
X144.856 Y-41.45 Z-6.778 I0.356 J-2.995
X144.144 Y-35.46 Z-7.109 I-0.356 J2.995
X144.856 Y-41.45 Z-7.44 I0.356 J-2.995
X144.144 Y-35.46 Z-7.771 I-0.356 J2.995
X144.856 Y-41.45 Z-8.102 I0.356 J-2.995
X144.144 Y-35.46 Z-8.433 I-0.356 J2.995
X144.856 Y-41.45 Z-8.764 I0.356 J-2.995
X144.144 Y-35.46 Z-9.094 I-0.356 J2.995
X144.856 Y-41.45 Z-9.425 I0.356 J-2.995
X144.144 Y-35.46 Z-9.756 I-0.356 J2.995
X144.856 Y-41.45 Z-10.087 I0.356 J-2.995
X144.144 Y-35.46 Z-10.418 I-0.356 J2.995
X144.856 Y-41.45 Z-10.749 I0.356 J-2.995
X144.144 Y-35.46 Z-11.08 I-0.356 J2.995
X144.856 Y-41.45 Z-11.411 I0.356 J-2.995
X144.144 Y-35.46 Z-11.742 I-0.356 J2.995
X142.87 Y-40.993 Z-12 I0.356 J-2.995
G2 X143.188 Y-41.199 I-27.849 J-43.367 F2000
G3 X145.406 Y-41.173 I1.089 J1.669
G2 X153.231 Y-37.031 I21.873 J-31.865
G3 X153.078 Y-36.226 I-0.153 J0.388
G1 X135.367
G3 X135.217 Y-37.027 I0 J-0.414
G2 X139.312 Y-38.904 I-13.383 J-34.585
X142.87 Y-40.993 I-24.29 J-45.456
G1 X142.932 Y-41.028 Z-11.992
X142.997 Y-41.055 Z-11.984
X143.061 Y-41.075 Z-11.961
X143.127 Y-41.087 Z-11.937
X143.187 Y-41.093 Z-11.899
X143.247 Y-41.092 Z-11.861
X143.347 Y-41.079 Z-11.761
X143.42 Y-41.058 Z-11.641
X143.463 Y-41.041 Z-11.506
X143.478 Y-41.035 Z-11.365
Z5
X201.092 Y-41.909
Z-3.165 F333.3
X201.106 Y-41.902 Z-3.304
X201.145 Y-41.88 Z-3.435
X201.208 Y-41.845 Z-3.554
X201.291 Y-41.794 Z-3.654
X201.388 Y-41.731 Z-3.73
X201.493 Y-41.655 Z-3.78
X201.602 Y-41.57 Z-3.8
G3 X197.766 Y-36.914 Z-4.131 I-1.918 J2.328
X201.602 Y-41.57 Z-4.462 I1.918 J-2.328
X197.766 Y-36.914 Z-4.793 I-1.918 J2.328
X201.602 Y-41.57 Z-5.124 I1.918 J-2.328
X197.766 Y-36.914 Z-5.455 I-1.918 J2.328
X201.602 Y-41.57 Z-5.785 I1.918 J-2.328
X197.766 Y-36.914 Z-6.116 I-1.918 J2.328
X201.602 Y-41.57 Z-6.447 I1.918 J-2.328
X197.766 Y-36.914 Z-6.778 I-1.918 J2.328
X201.602 Y-41.57 Z-7.109 I1.918 J-2.328
X197.766 Y-36.914 Z-7.44 I-1.918 J2.328
X201.602 Y-41.57 Z-7.771 I1.918 J-2.328
X197.766 Y-36.914 Z-8.102 I-1.918 J2.328
X201.602 Y-41.57 Z-8.433 I1.918 J-2.328
X197.766 Y-36.914 Z-8.764 I-1.918 J2.328
X201.602 Y-41.57 Z-9.094 I1.918 J-2.328
X197.766 Y-36.914 Z-9.425 I-1.918 J2.328
X201.602 Y-41.57 Z-9.756 I1.918 J-2.328
X197.766 Y-36.914 Z-10.087 I-1.918 J2.328
X201.602 Y-41.57 Z-10.418 I1.918 J-2.328
X197.766 Y-36.914 Z-10.749 I-1.918 J2.328
X201.602 Y-41.57 Z-11.08 I1.918 J-2.328
X197.766 Y-36.914 Z-11.411 I-1.918 J2.328
X201.602 Y-41.57 Z-11.742 I1.918 J-2.328
X199.684 Y-36.226 Z-12 I-1.918 J2.328
G1 X191.037 F2000
G3 X190.86 Y-37.046 I0 J-0.429
G2 X201.521 Y-44.19 I-16.069 J-35.51
G3 X202.474 Y-43.779 I0.388 J0.41
G1 Y-37.418
G3 X201.282 Y-36.226 I-1.192 J0
G1 X199.684
G2 X197.247 Y-34.602 I0 J2.639
G3 X194.811 Y-32.977 I-2.436 J-1.015
G1 X76.368
G3 X76.233 Y-33.769 I0 J-0.407
X79.909 Y-35.052 I150.226 J424.497
G2 X83.56 Y-36.406 I-26.903 J-78.164
G3 X84.067 Y-36.515 I0.583 J1.465
G1 X90.28 Y-36.798
G3 X90.889 Y-36.708 I0.078 J1.574
G2 X95.694 Y-35.223 I19.361 J-54.141
X100.639 Y-34.31 I8.696 J-33.232
X107.4 Y-33.948 I6.609 J-60.172
X114.167 Y-34.163 I-0.289 J-115.744
X122.238 Y-35.46 I-2.538 J-41.551
X129.951 Y-38.17 I-12.997 J-49.315
G3 X133.908 Y-39.822 I38.342 J86.281
G2 X137.815 Y-41.589 I-15.021 J-38.413
X140.657 Y-43.315 I-11.093 J-21.477
X143.343 Y-45.275 I-59.894 J-84.89
G3 X145.322 Y-45.257 I0.977 J1.295
G2 X156.766 Y-39.13 I23.218 J-29.616
X169.488 Y-36.545 I17.291 J-52.496
X187.694 Y-39.169 I3.395 J-40.919
X202.618 Y-49.921 I-13.139 J-33.97
X203.739 Y-51.4 I-16.691 J-13.809
G1 X204.84 Y-52.99
G3 X205.723 Y-52.715 I0.398 J0.276
G1 Y-34.17
G3 X204.53 Y-32.977 I-1.192 J0
G1 X194.811
X194.741 Y-32.981 Z-11.992
X194.671 Y-32.993 Z-11.984
X194.607 Y-33.011 Z-11.961
X194.544 Y-33.036 Z-11.937
X194.491 Y-33.064 Z-11.899
X194.44 Y-33.097 Z-11.861
X194.364 Y-33.162 Z-11.761
X194.313 Y-33.218 Z-11.641
X194.286 Y-33.256 Z-11.506
X194.277 Y-33.269 Z-11.365
Z5
X203.154 Y-105.809
Z-3.165 F333.3
X203.143 Y-105.799 Z-3.304
X203.108 Y-105.771 Z-3.435
X203.051 Y-105.726 Z-3.554
X202.973 Y-105.669 Z-3.654
X202.877 Y-105.603 Z-3.73
X202.767 Y-105.535 Z-3.78
X202.647 Y-105.467 Z-3.8
G3 X199.799 Y-110.785 Z-4.131 I-1.424 J-2.659
X202.647 Y-105.467 Z-4.462 I1.424 J2.659
X199.799 Y-110.785 Z-4.793 I-1.424 J-2.659
X202.647 Y-105.467 Z-5.124 I1.424 J2.659
X199.799 Y-110.785 Z-5.455 I-1.424 J-2.659
X202.647 Y-105.467 Z-5.785 I1.424 J2.659
X199.799 Y-110.785 Z-6.116 I-1.424 J-2.659
X202.647 Y-105.467 Z-6.447 I1.424 J2.659
X199.799 Y-110.785 Z-6.778 I-1.424 J-2.659
X202.647 Y-105.467 Z-7.109 I1.424 J2.659
X199.799 Y-110.785 Z-7.44 I-1.424 J-2.659
X202.647 Y-105.467 Z-7.771 I1.424 J2.659
X199.799 Y-110.785 Z-8.102 I-1.424 J-2.659
X202.647 Y-105.467 Z-8.433 I1.424 J2.659
X199.799 Y-110.785 Z-8.764 I-1.424 J-2.659
X202.647 Y-105.467 Z-9.094 I1.424 J2.659
X199.799 Y-110.785 Z-9.425 I-1.424 J-2.659
X202.647 Y-105.467 Z-9.756 I1.424 J2.659
X199.799 Y-110.785 Z-10.087 I-1.424 J-2.659
X202.647 Y-105.467 Z-10.418 I1.424 J2.659
X199.799 Y-110.785 Z-10.749 I-1.424 J-2.659
X202.647 Y-105.467 Z-11.08 I1.424 J2.659
X199.799 Y-110.785 Z-11.411 I-1.424 J-2.659
X202.647 Y-105.467 Z-11.742 I1.424 J2.659
X198.433 Y-109.273 Z-12 I-1.424 J-2.659
G1 X198.903 Y-110.416 F2000
G2 X199.161 Y-111.062 I-29.616 J-12.174
G3 X200.282 Y-111.831 I1.121 J0.433
G1 X200.814
G3 X202.031 Y-110.615 I0 J1.217
G1 Y-105.76
G3 X201.053 Y-105.329 I-0.584 J0
G2 X199.994 Y-106.262 I-25.367 J27.726
X198.913 Y-107.169 I-87.747 J103.449
G3 X198.406 Y-109.207 I1.132 J-1.364
G1 X198.433 Y-109.273
G2 X197.438 Y-112.084 I-2.067 J-0.85
G3 X197.491 Y-115.066 I0.807 J-1.477
X198.315 Y-115.26 I0.824 J1.645
G1 X204.243
G3 X205.46 Y-114.044 I0 J1.217
G1 Y-96.347
G3 X204.554 Y-96.06 I-0.498 J0
G2 X201.373 Y-100.199 I-49.071 J34.425
X197.68 Y-103.887 I-22.956 J19.291
X196.134 Y-105.078 I-15.118 J18.036
G1 X194.557 Y-106.191
G3 X194.1 Y-108.009 I0.829 J-1.174
G2 X196.567 Y-113.993 I-39.66 J-19.844
G3 X197.491 Y-115.066 I1.748 J0.573
G1 X197.62 Y-115.124 Z-11.984
X197.746 Y-115.17 Z-11.937
X197.861 Y-115.204 Z-11.861
X197.959 Y-115.226 Z-11.761
X198.034 Y-115.239 Z-11.641
X198.08 Y-115.245 Z-11.506
X198.096 Y-115.247 Z-11.365
Z5
X25.126 Y-123.84
Z-3.165 F333.3
X25.139 Y-123.848 Z-3.304
X25.177 Y-123.871 Z-3.435
X25.24 Y-123.906 Z-3.554
X25.326 Y-123.951 Z-3.654
X25.431 Y-124.002 Z-3.73
X25.55 Y-124.053 Z-3.78
X25.678 Y-124.102 Z-3.8
G3 X27.696 Y-118.417 Z-4.131 I1.009 J2.842
X25.678 Y-124.102 Z-4.462 I-1.009 J-2.842
X27.696 Y-118.417 Z-4.793 I1.009 J2.842
X25.678 Y-124.102 Z-5.124 I-1.009 J-2.842
X27.696 Y-118.417 Z-5.455 I1.009 J2.842
X25.678 Y-124.102 Z-5.785 I-1.009 J-2.842
X27.696 Y-118.417 Z-6.116 I1.009 J2.842
X25.678 Y-124.102 Z-6.447 I-1.009 J-2.842
X27.696 Y-118.417 Z-6.778 I1.009 J2.842
X25.678 Y-124.102 Z-7.109 I-1.009 J-2.842
X27.696 Y-118.417 Z-7.44 I1.009 J2.842
X25.678 Y-124.102 Z-7.771 I-1.009 J-2.842
X27.696 Y-118.417 Z-8.102 I1.009 J2.842
X25.678 Y-124.102 Z-8.433 I-1.009 J-2.842
X27.696 Y-118.417 Z-8.764 I1.009 J2.842
X25.678 Y-124.102 Z-9.094 I-1.009 J-2.842
X27.696 Y-118.417 Z-9.425 I1.009 J2.842
X25.678 Y-124.102 Z-9.756 I-1.009 J-2.842
X27.696 Y-118.417 Z-10.087 I1.009 J2.842
X25.678 Y-124.102 Z-10.418 I-1.009 J-2.842
X27.696 Y-118.417 Z-10.749 I1.009 J2.842
X25.678 Y-124.102 Z-11.08 I-1.009 J-2.842
X27.696 Y-118.417 Z-11.411 I1.009 J2.842
X25.678 Y-124.102 Z-11.742 I-1.009 J-2.842
X29.274 Y-119.708 Z-12 I1.009 J2.842
G2 X28.933 Y-119.128 I31.083 J18.657 F2000
X28.01 Y-117.386 I24.415 J14.045
X27.742 Y-116.767 I7.033 J3.415
G3 X27.489 Y-116.143 I-16.318 J-6.251
X26.66 Y-116.313 I-0.397 J-0.17
G1 Y-120.623
G3 X27.877 Y-121.84 I1.217 J0
G1 X29.403
G3 X29.962 Y-120.809 I0 J0.667
G2 X29.274 Y-119.708 I30.395 J19.759
G1 X29.234 Y-119.649 Z-11.992
X29.189 Y-119.595 Z-11.984
X29.141 Y-119.548 Z-11.961
X29.088 Y-119.507 Z-11.937
X29.037 Y-119.475 Z-11.899
X28.983 Y-119.448 Z-11.861
X28.888 Y-119.415 Z-11.761
X28.814 Y-119.4 Z-11.641
X28.767 Y-119.395 Z-11.506
X28.751 Y-119.394 Z-11.365
Z5
X35.716 Y-38.661
Z-3.165 F333.3
X35.73 Y-38.654 Z-3.304
X35.769 Y-38.632 Z-3.435
X35.832 Y-38.596 Z-3.554
X35.915 Y-38.546 Z-3.654
X36.012 Y-38.482 Z-3.73
X36.117 Y-38.407 Z-3.78
X36.225 Y-38.322 Z-3.8
G3 X32.39 Y-33.666 Z-4.131 I-1.918 J2.328
X36.225 Y-38.322 Z-4.462 I1.918 J-2.328
X32.39 Y-33.666 Z-4.793 I-1.918 J2.328
X36.225 Y-38.322 Z-5.124 I1.918 J-2.328
X32.39 Y-33.666 Z-5.455 I-1.918 J2.328
X36.225 Y-38.322 Z-5.785 I1.918 J-2.328
X32.39 Y-33.666 Z-6.116 I-1.918 J2.328
X36.225 Y-38.322 Z-6.447 I1.918 J-2.328
X32.39 Y-33.666 Z-6.778 I-1.918 J2.328
X36.225 Y-38.322 Z-7.109 I1.918 J-2.328
X32.39 Y-33.666 Z-7.44 I-1.918 J2.328
X36.225 Y-38.322 Z-7.771 I1.918 J-2.328
X32.39 Y-33.666 Z-8.102 I-1.918 J2.328
X36.225 Y-38.322 Z-8.433 I1.918 J-2.328
X32.39 Y-33.666 Z-8.764 I-1.918 J2.328
X36.225 Y-38.322 Z-9.094 I1.918 J-2.328
X32.39 Y-33.666 Z-9.425 I-1.918 J2.328
X36.225 Y-38.322 Z-9.756 I1.918 J-2.328
X32.39 Y-33.666 Z-10.087 I-1.918 J2.328
X36.225 Y-38.322 Z-10.418 I1.918 J-2.328
X32.39 Y-33.666 Z-10.749 I-1.918 J2.328
X36.225 Y-38.322 Z-11.08 I1.918 J-2.328
X32.39 Y-33.666 Z-11.411 I-1.918 J2.328
X36.225 Y-38.322 Z-11.742 I1.918 J-2.328
X34.308 Y-32.977 Z-12 I-1.918 J2.328
G1 X34.17 F2000
G3 X32.977 Y-34.17 I0 J-1.192
G1 Y-35.504
G3 X33.992 Y-36.062 I0.661 J0
G2 X38.102 Y-33.809 I19.668 J-31.004
G3 X37.919 Y-32.977 I-0.183 J0.396
G1 X34.308
G2 X32.228 Y-31.637 I0 J2.282
G3 X29.81 Y-32.159 I-1.153 J-0.522
G1 Y-42.079
G3 X30.77 Y-42.505 I0.574 J0
G2 X43.46 Y-35.027 I24.45 J-26.989
X58.057 Y-33.049 I12.33 J-36.137
X70.548 Y-35.233 I-3.317 J-55.78
X82.524 Y-39.402 I-37.242 J-126.264
G3 X83.751 Y-39.671 I1.406 J3.489
G1 X90.074 Y-39.959
G3 X92 Y-39.674 I0.242 J5.016
G2 X96.428 Y-38.304 I18.528 J-52.063
X100.985 Y-37.458 I7.965 J-30.184
X107.476 Y-37.114 I6.284 J-57.209
X113.973 Y-37.324 I-0.408 J-113.277
X121.486 Y-38.538 I-2.342 J-38.348
X128.664 Y-41.067 I-12.308 J-46.378
G3 X132.537 Y-42.679 I35.692 J80.318
G2 X136.361 Y-44.403 I-14.291 J-36.798
X139.506 Y-46.335 I-11.43 J-22.129
X142.431 Y-48.586 I-35.008 J-48.513
G3 X143.686 Y-49.174 I1.786 J2.178
G1 X143.871 Y-49.211
G3 X146.25 Y-48.589 I0.548 J2.763
G2 X157.3 Y-42.296 I21.937 J-25.671
X169.75 Y-39.701 I16.744 J-49.164
X186.481 Y-42.067 I3.155 J-38.027
X200.217 Y-51.908 I-11.785 J-30.956
X206.447 Y-62.907 I-27.847 J-23.039
X208.291 Y-75.412 I-31.028 J-10.963
X203.61 Y-91.364 I-35.142 J1.649
X192.392 Y-103.634 I-33.478 J19.345
X191.152 Y-104.441 I-11.597 J16.47
G3 X189.919 Y-105.258 I8.39 J-13.995
X189.585 Y-106.953 I0.751 J-1.028
G2 X194.001 Y-117.463 I-31.799 J-19.542
G3 X195.572 Y-118.69 I1.571 J0.393
G1 X207.697
G3 X208.89 Y-117.497 I0 J1.192
G1 Y-31.003
G3 X207.697 Y-29.81 I-1.192 J0
G1 X31.003
G3 X29.81 Y-31.003 I0 J-1.192
G1 Y-32.159
G2 X28.332 Y-34.377 I-2.403 J0
G3 X26.853 Y-36.596 I0.924 J-2.218
G1 Y-50.166
G3 X27.75 Y-50.444 I0.492 J0
G2 X39.535 Y-39.822 I27.862 J-19.064
X54.913 Y-35.925 I15.379 J-28.395
X61.604 Y-36.391 I0 J-48.268
X68.173 Y-37.743 I-7.276 J-51.983
X73.234 Y-39.238 I-34.215 J-125.125
X78.241 Y-40.902 I-60.198 J-189.488
X79.505 Y-41.376 I-9.125 J-26.285
G1 X81.403 Y-42.139
G3 X83.629 Y-42.626 I2.554 J6.344
G1 X90.149 Y-42.924
G3 X92.822 Y-42.522 I0.339 J6.831
G2 X97.001 Y-41.204 I17.423 J-47.987
X101.307 Y-40.394 I7.437 J-27.687
X107.548 Y-40.067 I5.982 J-54.455
X113.793 Y-40.273 I-0.525 J-111.058
X120.785 Y-41.409 I-2.159 J-35.351
X127.463 Y-43.77 I-11.679 J-43.669
G3 X132.655 Y-46.013 I110.829 J249.399
G2 X137.659 Y-48.649 I-12.551 J-29.898
X139.196 Y-49.761 I-9.466 J-14.701
X140.664 Y-50.963 I-107.798 J-133.128
G3 X142.99 Y-52.053 I3.269 J3.947
G2 X144.52 Y-52.383 I-5.23 J-27.953
G3 X147.206 Y-51.698 I0.7 J2.862
G2 X152.306 Y-47.818 I24.268 J-26.606
X158.078 Y-45.034 I15.277 J-24.297
X165.273 Y-43.156 I14.99 J-42.71
X172.683 Y-42.534 I7.17 J-41.011
X185.507 Y-44.925 I-0.212 J-36.733
X196.41 Y-52.085 I-10.685 J-28.15
X204.988 Y-77.87 I-22.389 J-21.768
X190.944 Y-101.133 I-33.482 J4.342
X185.668 Y-104.505 I-40.245 J57.158
G3 X185.366 Y-106.038 I0.521 J-0.899
G2 X191.596 Y-120.415 I-25.341 J-19.52
G3 X193.051 Y-121.647 I1.454 J0.242
G1 X210.631
G3 X211.847 Y-120.431 I0 J1.217
G1 Y-28.069
G3 X210.631 Y-26.853 I-1.217 J0
G1 X28.069
G3 X26.853 Y-28.069 I0 J-1.217
G1 Y-36.596
G2 X25.138 Y-39.168 I-2.786 J0
G3 X23.423 Y-41.74 I1.072 J-2.572
G1 Y-123.884
G3 X24.616 Y-125.077 I1.192 J0
G1 X36.498
G3 X36.882 Y-124.138 I0 J0.548
G2 X33.498 Y-120.343 I27.009 J27.491
X30.809 Y-116.027 I19.118 J14.905
X28.758 Y-110.254 I24.932 J12.106
X27.848 Y-104.195 I36.677 J8.609
G3 X27.158 Y-100.212 I-19.464 J-1.321
G2 X26.292 Y-96.264 I32.783 J9.262
X25.947 Y-91.639 I27.868 J4.4
X26.262 Y-87.013 I38.639 J-0.307
G3 X26.206 Y-86.474 I-1.168 J0.15
G2 X24.641 Y-81.249 I56.817 J19.869
X23.972 Y-75.837 I21.578 J5.413
X24.155 Y-72.488 I30.769 J0
X24.613 Y-69.166 I59.727 J-6.538
X26.134 Y-61.781 I97.086 J-16.151
X37.164 Y-45.395 I27.732 J-6.762
X55.971 Y-39.362 I18.674 J-25.88
X68.436 Y-41.225 I-0.183 J-43.85
X80.326 Y-45.403 I-40.14 J-133.249
G3 X83.286 Y-46.043 I3.343 J8.294
G1 X90.248 Y-46.362
G3 X93.809 Y-45.812 I0.444 J8.931
G2 X97.684 Y-44.566 I15.785 J-42.442
X101.682 Y-43.807 I6.837 J-25.078
X107.631 Y-43.499 I5.632 J-51.27
X113.584 Y-43.699 I-0.667 J-108.601
X119.951 Y-44.649 I-2.254 J-36.913
X125.991 Y-46.872 I-6.407 J-26.727
G3 X130.952 Y-49.084 I24.249 J47.734
G2 X135.794 Y-51.545 I-9.628 J-24.933
X137.136 Y-52.513 I-8.516 J-13.224
X138.419 Y-53.557 I-90.647 J-112.711
G3 X142.432 Y-55.438 I5.684 J6.904
G2 X143.984 Y-55.777 I-5.405 J-28.427
X145.519 Y-56.184 I-11.633 J-46.963
G3 X148.192 Y-55.488 I0.743 J2.627
G2 X152.62 Y-51.672 I27.894 J-27.894
X157.732 Y-48.838 I13.325 J-18.006
X165.696 Y-46.632 I14.429 J-36.613
X173.933 Y-45.975 I7.958 J-47.779
X192.082 Y-52.606 I-0.165 J-28.601
X201.603 Y-69.42 I-17.532 J-21.031
X200.368 Y-83.195 I-28.273 J-4.408
X193.025 Y-94.916 I-29.142 J10.097
X187.003 Y-99.785 I-26.103 J26.125
X180.167 Y-103.424 I-24.579 J37.937
G3 X179.881 Y-104.732 I0.323 J-0.756
G2 X184.567 Y-110.961 I-31.6 J-28.65
X187.728 Y-118.085 I-24.48 J-15.126
X188.298 Y-120.967 I-16.302 J-4.719
X188.542 Y-123.895 I-57.561 J-6.268
G3 X189.794 Y-125.077 I1.252 J0.072
G1 X214.084
G3 X215.277 Y-123.884 I0 J1.192
G1 Y-24.616
G3 X214.084 Y-23.423 I-1.192 J0
G1 X24.616
G3 X23.423 Y-24.616 I0 J-1.192
G1 Y-41.74
G2 X21.768 Y-44.223 I-2.69 J0
G3 X20.113 Y-46.706 I1.035 J-2.483
G1 Y-127.171
G3 X21.329 Y-128.387 I1.217 J0
G1 X47.378
G3 X47.566 Y-127.547 I0 J0.441
G2 X41.498 Y-123.88 I14.693 J31.17
X36.438 Y-118.914 I16.544 J21.917
X32.647 Y-111.567 I17.323 J13.591
X31.288 Y-103.412 I32.428 J9.591
G3 X31.089 Y-102.2 I-5.12 J-0.218
G2 X29.547 Y-94.833 I47.31 J13.749
X29.563 Y-87.307 I28.361 J3.705
G3 X29.382 Y-85.527 I-3.804 J0.513
G2 X27.922 Y-80.77 I60.796 J21.26
X27.279 Y-75.837 I18.611 J4.934
X27.451 Y-72.761 I27.672 J0
X27.875 Y-69.709 I57.274 J-6.406
X28.375 Y-67.473 I20.465 J-3.404
G3 X28.85 Y-65.232 I-16.541 J4.673
G2 X36.832 Y-49.977 I25.543 J-3.65
X52.482 Y-42.8 I18.705 J-20.138
X63.875 Y-43.526 I3.644 J-32.572
X74.805 Y-46.824 I-24.838 J-102.077
X77.201 Y-47.725 I-35.743 J-98.71
X79.579 Y-48.671 I-67.615 J-173.404
G3 X82.774 Y-49.338 I3.432 J8.455
G2 X85.507 Y-49.441 I-2.994 J-115.43
G1 X89.661 Y-49.648
G3 X95.21 Y-48.825 I0.711 J14.326
G2 X98.576 Y-47.759 I16.004 J-44.679
X102.043 Y-47.094 I5.878 J-21.275
X107.711 Y-46.805 I5.296 J-48.218
X113.382 Y-47 I-0.814 J-106.386
X119.083 Y-47.84 I-2.06 J-33.726
X124.494 Y-49.821 I-5.566 J-23.589
G3 X129.304 Y-51.956 I22.828 J44.937
G2 X133.998 Y-54.334 I-9.125 J-23.839
X135.257 Y-55.244 I-7.856 J-12.199
X136.457 Y-56.23 I-54.027 J-66.918
G3 X141.632 Y-58.656 I7.166 J8.555
G2 X143.462 Y-59.024 I-8.708 J-48.019
X145.266 Y-59.508 I-4.564 J-20.635
G3 X146.091 Y-59.722 I2.49 J7.881
X146.928 Y-59.882 I6.092 J29.616
X149.334 Y-59.061 I0.458 J2.595
G2 X154.519 Y-54.459 I24.183 J-22.023
X160.673 Y-51.266 I14.318 J-20.067
X164.802 Y-50.214 I8.025 J-22.864
X169.01 Y-49.545 I88.833 J-545.364
X189.767 Y-55.07 I4.09 J-26.388
X198.622 Y-74.64 I-14.75 J-18.462
X190.769 Y-92.446 I-26.982 J1.266
X173.851 Y-102.061 I-25.827 J25.75
G3 X173.594 Y-103.164 I0.156 J-0.618
G2 X179.035 Y-108.574 I-31.686 J-37.306
X183.102 Y-115.08 I-19.338 J-16.614
X184.881 Y-121.022 I-24.445 J-10.557
X185.197 Y-127.216 I-24.856 J-4.375
G3 X186.287 Y-128.387 I1.09 J-0.079
G1 X217.371
G3 X218.587 Y-127.171 I0 J1.217
G1 Y-21.329
G3 X217.371 Y-20.113 I-1.217 J0
G1 X21.329
G3 X20.113 Y-21.329 I0 J-1.217
G1 Y-46.706
G2 X18.476 Y-49.16 I-2.659 J0
G3 X16.84 Y-51.615 I1.023 J-2.455
G1 Y-130.443
G3 X18.057 Y-131.66 I1.217 J0
G1 X67.9
G3 X67.944 Y-130.935 I0 J0.364
G2 X60.379 Y-129.422 I5.976 J49.562
X53.341 Y-126.264 I7.138 J25.327
G3 X52.58 Y-125.921 I-1.548 J-2.421
G2 X43.292 Y-121.228 I7.555 J26.492
X36.728 Y-113.153 I13.929 J18.027
X35.117 Y-108.258 I17.352 J8.426
X34.553 Y-103.136 I34.01 J6.334
G3 X34.271 Y-101.418 I-6.835 J-0.24
G2 X32.807 Y-94.636 I42.846 J12.799
X32.813 Y-87.697 I25.4 J3.449
G3 X32.493 Y-84.508 I-6.775 J0.931
G2 X31.157 Y-80.254 I65.514 J22.91
X30.552 Y-75.837 I15.829 J4.418
X30.97 Y-71.478 I22.938 J0
X31.881 Y-67.195 I117.12 J-22.668
G3 X32.4 Y-64.319 I-28.948 J6.713
G2 X33.085 Y-61.478 I13.553 J-1.765
X42.045 Y-50.076 I21.551 J-7.714
X55.943 Y-45.942 I13.794 J-20.941
X61.751 Y-46.603 I-0.112 J-26.801
G1 X67.908 Y-47.998
G2 X73.401 Y-49.678 I-8.554 J-37.774
X78.716 Y-51.858 I-57.813 J-148.549
G3 X82.281 Y-52.604 I3.614 J8.379
G2 X86.391 Y-52.72 I-0.484 J-89.944
X90.496 Y-52.97 I-10.746 J-210.091
G3 X95.433 Y-52.238 I0.815 J11.52
G2 X99.836 Y-50.827 I15.104 J-39.534
X104.422 Y-50.236 I4.595 J-17.583
X114.072 Y-50.501 I0.085 J-172.676
X123.412 Y-52.942 I-1.344 J-24.23
G3 X127.881 Y-54.884 I23.325 J47.569
G2 X132.229 Y-57.082 I-8.344 J-21.909
X133.548 Y-58.051 I-7.23 J-11.228
X134.792 Y-59.116 I-38.889 J-46.664
G3 X140.296 Y-61.746 I7.398 J8.406
G2 X144.358 Y-62.57 I-11.696 J-68.131
X148.383 Y-63.559 I-43.194 J-184.497
G3 X150.461 Y-62.823 I0.492 J1.912
G2 X155.03 Y-58.055 I21.138 J-15.684
X160.734 Y-54.727 I13.661 J-16.863
X165.78 Y-53.293 I9.776 J-24.805
X170.98 Y-52.61 I9.74 J-54.032
X181.531 Y-54.031 I2.047 J-24.677
X190.226 Y-60.174 I-6.991 J-19.12
X194.147 Y-67.012 I-17.897 J-14.807
X195.338 Y-74.804 I-18.77 J-6.856
X192.272 Y-85.15 I-22.559 J1.059
X184.97 Y-93.093 I-21.927 J12.828
X179.703 Y-96.427 I-36.521 J51.868
X173.947 Y-98.821 I-12.714 J22.457
X171.254 Y-99.357 I-4.848 J17.316
X168.521 Y-99.614 I-6.233 J51.613
G3 X167.383 Y-100.856 I0.082 J-1.218
G2 X167.383 Y-101.586 I-18.422 J-0.365
G3 X168.004 Y-102.887 I1.608 J-0.032
G2 X172.506 Y-106.521 I-96.52 J-124.179
X176.532 Y-110.677 I-17.947 J-21.415
X181.277 Y-120.036 I-21.127 J-16.596
X181.324 Y-130.53 I-19.061 J-5.331
G3 X182.189 Y-131.66 I0.866 J-0.234
G1 X220.643
G3 X221.86 Y-130.443 I0 J1.217
G1 Y-18.057
G3 X220.643 Y-16.84 I-1.217 J0
G1 X18.057
G3 X16.84 Y-18.057 I0 J-1.217
G1 Y-51.615
G2 X15.125 Y-54.187 I-2.786 J0
G3 X13.411 Y-56.758 I1.072 J-2.572
G1 Y-133.872
G3 X14.628 Y-135.089 I1.217 J0
G1 X75.153
G3 X75.713 Y-134.065 I0 J0.665
G2 X74.149 Y-131.553 I94.517 J60.583
X72.702 Y-128.973 I39.198 J23.691
G3 X70.574 Y-127.661 I-2.162 J-1.123
G2 X62.518 Y-126.582 I0.479 J34.193
X55.08 Y-123.305 I6.265 J24.305
G3 X53.645 Y-122.659 I-2.798 J-4.293
G2 X45.542 Y-118.648 I6.353 J23.025
X39.813 Y-111.655 I11.781 J15.496
X38.431 Y-107.387 I14.559 J7.069
X37.977 Y-102.925 I30.481 J5.358
G3 X37.583 Y-100.524 I-9.121 J-0.264
G2 X36.227 Y-94.429 I38.615 J11.791
X36.207 Y-88.185 I22.411 J3.194
G3 X35.718 Y-83.343 I-10.321 J1.404
G2 X34.533 Y-79.663 I73.216 J25.604
X33.981 Y-75.837 I12.985 J3.826
X34.385 Y-71.869 I19.676 J0
X35.238 Y-67.974 I157.147 J-32.351
G3 X35.973 Y-64.254 I-56.447 J13.091
G2 X37.161 Y-60.652 I12.029 J-1.971
X42.654 Y-53.72 I20.27 J-10.419
X50.628 Y-49.893 I11.239 J-13.197
X57.674 Y-49.499 I4.991 J-26.02
X64.628 Y-50.709 I-2.898 J-37.236
