(mission ridge smoothing)
(T5  D=12.7 CR=0.5 TAPER=5deg - ZMIN=-33.584 - tapered mill)
G90 G94
G17
G21
(When using Fusion 360 for Personal Use, the feedrate of)
(rapid moves is reduced to match the feedrate of cutting)
(moves, which can increase machining time. Unrestricted rapid)
(moves are available with a Fusion 360 Subscription.)
G28 G91 Z0
G90

(Parallel3)
T5
S15000 M3
G54
G0 X229.05 Y-140.359
Z15
G1 Z-2.378 F2000
Z-3.124 F333.3
G18 G3 X227.744 Z-4.393 I-1.27 K0 F2000
G1 X225.97 Z-4.343
X224.541 Z-4.272
X223.423 Z-4.212
X222.397 Z-4.17
X221.419 Z-4.108
X220.674 Z-4.076
X219.863 Z-4.043
X219.045 Z-4.02
X218.38 Z-4.014
X215.572 Z-4.005
X203.101 Z-4.008
X202.137 Z-4.026
X201.31 Z-4.069
X200.631 Z-4.127
X200.002 Z-4.2
X199.25 Z-4.31
X199.096 Z-4.331
X197.258 Z-4.429
X196.072 Z-4.512
X193.696 Z-4.691
X192.726 Z-4.786
X191.881 Z-4.891
X191.039 Z-5.014
X190.025 Z-5.182
X188.929 Z-5.384
X186.093 Z-5.949
X184.939 Z-6.191
X184.073 Z-6.388
X183.052 Z-6.636
X181.777 Z-6.963
X179.828 Z-7.477
X179.097 Z-7.642
X178.149 Z-7.819
X177.301 Z-7.946
X175.702 Z-8.124
X173.5 Z-8.343
X172.383 Z-8.471
X171.492 Z-8.591
X169.85 Z-8.84
X167.882 Z-9.154
X166.503 Z-9.35
X165.233 Z-9.545
X164.332 Z-9.672
X163.645 Z-9.787
X161.5 Z-10.192
X160.523 Z-10.396
X159.17 Z-10.677
X157.587 Z-10.959
X155.832 Z-11.245
X154.171 Z-11.512
X153.44 Z-11.621
X153.082 Z-11.635
X151.758 Z-11.604
X150.582 Z-11.586
X149.635 Z-11.602
X149.207 Z-11.614
X148.923 Z-11.612
X147.617 Z-11.536
X145.696 Z-11.395
X144.449 Z-11.261
X141.139 Z-10.861
X140.338 Z-10.778
X137.995 Z-10.614
X136.875 Z-10.56
X134.525 Z-10.353
X133.178 Z-10.232
X132.414 Z-10.187
X131.605 Z-10.17
X129.904 Z-10.168
X127.285 Z-9.931
X126.075 Z-9.855
X125.311 Z-9.834
X124.138 Z-9.836
X123.043 Z-9.852
X120.869 Z-9.885
X120.322 Z-9.897
X119.662 Z-9.903
X118.684 Z-9.832
X118.253 Z-9.789
X117.84 Z-9.726
X116.986 Z-9.636
X116.174 Z-9.566
X115.015 Z-9.477
X113.44 Z-9.41
X110.869 Z-9.348
X109.895 Z-9.298
X108.773 Z-9.212
X108.276 Z-9.155
X107.168 Z-8.994
X106.33 Z-8.875
X105.114 Z-8.67
X104.689 Z-8.618
X103.228 Z-8.49
X101.802 Z-8.362
X100.953 Z-8.272
X99.684 Z-8.177
X98.96 Z-8.088
X98.442 Z-8.006
X96.962 Z-7.836
X95.707 Z-7.71
X94.598 Z-7.619
X93.993 Z-7.541
X93.38 Z-7.438
X92.477 Z-7.256
X91.821 Z-7.118
X91.081 Z-6.915
X90.716 Z-6.827
X90.518 Z-6.82
X90.378 Z-6.818
X89.216 Z-6.612
X88.25 Z-6.413
X87.555 Z-6.256
X86.016 Z-5.945
X84.856 Z-5.736
X84.218 Z-5.656
X83.326 Z-5.59
X82.001 Z-5.491
X80.484 Z-5.37
X78.748 Z-5.2
X77.316 Z-5.053
X75.716 Z-4.93
X74.494 Z-4.884
X72.416 Z-4.84
X71.033
X69.682 Z-4.868
X68.319 Z-4.871
X66.914 Z-4.903
X65.417 Z-4.974
X64.208 Z-5.044
X62.726 Z-5.15
X61.745 Z-5.219
X60.804 Z-5.303
X59.875 Z-5.4
X58.961 Z-5.511
X58.012 Z-5.645
X56.907 Z-5.825
X56.148 Z-5.962
X55.549 Z-6.08
X54.86 Z-6.235
X54.205 Z-6.399
X53.33 Z-6.64
X52.579 Z-6.869
X51.964 Z-7.073
X51.152 Z-7.365
X48.278 Z-8.396
X45.696 Z-9.288
X43.913 Z-9.866
X42.13 Z-10.446
X41.001 Z-10.785
X39.976 Z-11.056
X38.786 Z-11.333
X36.11 Z-11.928
X34.377 Z-12.276
X33.049 Z-12.518
X32.839 Z-12.553
X29.398 Z-12.556
X28.685 Z-12.696
X26.555 Z-12.702
X26.015 Z-12.73
X25.539 Z-12.781
X24.722 Z-12.895
X24.133 Z-12.956
X23.364 Z-13.015
X22.927 Z-13.083
X22.367 Z-13.22
X20.778 Z-13.687
X20.119 Z-13.854
X19.094 Z-14.102
X17.448 Z-14.538
X16.812 Z-14.721
X16.336 Z-14.897
X14.768 Z-15.595
X13.57 Z-16.103
X12.793 Z-16.407
X12.253 Z-16.596
X11.579 Z-16.807
X10.099 Z-17.223
X8.383 Z-17.688
X7.861 Z-17.808
X7.178 Z-17.944
X6.332 Z-18.082
X5.271 Z-18.231
X3.312 Z-18.459
X2.101 Z-18.611
X1.088 Z-18.763
X0.125 Z-18.947
X-0.004 Z-18.973
G3 X-0.411 Z-18.921 I-0.128 K0.622
G1 X-0.467 Z-18.894
G2 X-0.746 Z-18.829 I-0.279 K-0.57
G17 G2 X-0.746 Y-139.959 I0 J0.2
G1 X-0.699
G18 G3 X-0.419 Z-18.894 I0 K-0.635
G2 X-0.009 Z-18.945 I0.279 K0.57
G1 X0.081 Z-18.926
X0.944 Z-18.761
X2.131 Z-18.583
X5.068 Z-18.229
X6.129 Z-18.081
X6.975 Z-17.943
X7.711 Z-17.795
X8.284 Z-17.66
X10.528 Z-17.052
X11.677 Z-16.729
X12.275 Z-16.542
X12.826 Z-16.35
X13.648 Z-16.025
X15.629 Z-15.185
X16.4 Z-14.863
X16.737 Z-14.741
X17.183 Z-14.603
X17.896 Z-14.406
X19.067 Z-14.102
X20.088 Z-13.857
X20.867 Z-13.657
X22.383 Z-13.219
X22.956 Z-13.08
X23.387 Z-13.014
X24.105 Z-12.957
X24.693 Z-12.896
X25.552 Z-12.781
X26.028 Z-12.73
X26.568 Z-12.702
X28.694 Z-12.696
X29.411 Z-12.556
X32.382 Z-12.553
X32.55 Z-12.523
X33.969 Z-12.25
X35.898 Z-11.844
X39.351 Z-11.039
X40.491 Z-10.74
X41.608 Z-10.402
X44.403 Z-9.47
X45.78 Z-9.027
X47.463 Z-8.452
X51.729 Z-6.953
X52.287 Z-6.767
X52.933 Z-6.57
X53.572 Z-6.389
X54.256 Z-6.212
X54.992 Z-6.039
X55.753 Z-5.883
X56.564 Z-5.737
X57.653 Z-5.559
X58.553 Z-5.428
X59.493 Z-5.309
X60.459 Z-5.207
X61.343 Z-5.13
X62.326 Z-5.065
X64.52 Z-4.96
X66.934 Z-4.856
X68.338 Z-4.826
X69.841 Z-4.824
X71.024 Z-4.799
X72.448
X74.719 Z-4.849
X76.182 Z-4.91
X77.771 Z-5.037
X78.933 Z-5.168
X80.896 Z-5.37
X82.605 Z-5.514
X84.223 Z-5.629
X84.599 Z-5.668
X85.128 Z-5.749
X86.183 Z-5.939
X87.642 Z-6.238
X88.362 Z-6.406
X89.274 Z-6.597
X90.503 Z-6.818
X90.563 Z-6.82
X90.717 Z-6.829
X91.643 Z-7.053
X93.282 Z-7.383
X94 Z-7.509
X94.723 Z-7.602
X95.696 Z-7.684
X96.106 Z-7.709
X97.334 Z-7.834
X98.708 Z-7.989
X99.026 Z-8.035
X99.926 Z-8.151
X101.354 Z-8.256
X102.141 Z-8.352
X102.559 Z-8.395
X105.155 Z-8.631
X106.383 Z-8.839
X106.956 Z-8.922
X108.526 Z-9.145
X109.218 Z-9.216
X110.326 Z-9.297
X111.339 Z-9.345
X113.845 Z-9.401
X115.429 Z-9.469
X116.641 Z-9.562
X117.289 Z-9.619
X118.343 Z-9.739
X119.513 Z-9.849
X120.018 Z-9.839
X121.021 Z-9.811
X124.373 Z-9.739
X125.362 Z-9.735
X126.131 Z-9.757
X127.62 Z-9.854
X129.961 Z-10.06
X131.576
X132.402 Z-10.077
X133.168 Z-10.122
X136.761 Z-10.444
X138.2 Z-10.53
X139.942 Z-10.665
X140.81 Z-10.741
X144.395 Z-11.195
X145.599 Z-11.339
X147.072 Z-11.459
X148.505 Z-11.55
X148.817 Z-11.548
X150.02 Z-11.498
X150.947 Z-11.482
X151.87 Z-11.498
X152.888 Z-11.512
X153.26 Z-11.494
X154.617 Z-11.291
X158.033 Z-10.74
X159.393 Z-10.493
X160.969 Z-10.155
X161.709 Z-10.008
X163.521 Z-9.676
X164.325 Z-9.549
X165.276 Z-9.424
X166.17 Z-9.288
X167.59 Z-9.078
X169.452 Z-8.782
X170.491 Z-8.63
X171.829 Z-8.448
X172.839 Z-8.327
X175.961 Z-7.993
X177.034 Z-7.857
X177.838 Z-7.731
X178.774 Z-7.554
X179.716 Z-7.346
X182.05 Z-6.742
X183.36 Z-6.418
X184.455 Z-6.161
X185.438 Z-5.947
X188.011 Z-5.424
X189.314 Z-5.166
X190.231 Z-5.002
X191.172 Z-4.85
X192.057 Z-4.729
X192.818 Z-4.643
X193.822 Z-4.552
X195.758 Z-4.434
X196.358 Z-4.398
X197.482 Z-4.331
X199.441 Z-4.24
X200.12 Z-4.154
X200.944 Z-4.075
X201.645 Z-4.034
X202.684 Z-4.009
X217.077 Z-4.005
X219.472 Z-4.02
X221.736 Z-4.091
X222.393 Z-4.128
X223.63 Z-4.18
X224.795 Z-4.248
X226.198 Z-4.324
X227.75 Z-4.38
G2 X228.052 Z-4.316 I0.023 K0.635
G1 X228.085 Z-4.3
G3 X228.365 Z-4.235 I0.279 K-0.57
G17 G3 X228.365 Y-139.559 I0 J0.2
G1 X228.339
G18 G2 X228.059 Z-4.3 I0 K-0.635
G3 X227.75 Z-4.364 I-0.279 K0.57
G1 X226.027 Z-4.283
X223.722 Z-4.143
X221.413 Z-4.053
X220.343 Z-4.022
X219.459 Z-4.016
X217.134 Z-4.005
X202.379 Z-4.009
X201.575 Z-4.027
X200.735 Z-4.073
X199.995 Z-4.142
X199.599 Z-4.166
X197.281 Z-4.254
X196.197 Z-4.319
X195.37 Z-4.345
X194.557 Z-4.385
X193.786 Z-4.426
X192.658 Z-4.529
X191.992 Z-4.601
X191.243 Z-4.7
X190.508 Z-4.812
X189.542 Z-4.981
X188.68 Z-5.147
X185.373 Z-5.82
X184.389 Z-6.034
X182.491 Z-6.476
X181.493 Z-6.722
X179.467 Z-7.233
X178.39 Z-7.472
X177.465 Z-7.652
X176.376 Z-7.826
X175.11 Z-7.985
X171.931 Z-8.335
X170.65 Z-8.495
X169.62 Z-8.637
X168.532 Z-8.812
X167.21 Z-9.022
X165.559 Z-9.274
X164.912 Z-9.357
X164.02 Z-9.475
X163.238 Z-9.6
X161.656 Z-9.88
X160.931 Z-10.022
X159.433 Z-10.341
X158.189 Z-10.566
X154.889 Z-11.094
X153.063 Z-11.36
X152.704 Z-11.379
X152.169 Z-11.382
X151.447 Z-11.366
X150.456 Z-11.381
X149.59 Z-11.42
X148.28 Z-11.469
X148.06 Z-11.463
X146.605 Z-11.368
X145.253 Z-11.243
X142.062 Z-10.82
X140.851 Z-10.663
X139.264 Z-10.513
X137.929 Z-10.413
X136.645 Z-10.327
X133.162 Z-10.014
X132.371 Z-9.972
X131.523 Z-9.958
X129.955 Z-9.951
X128.001 Z-9.782
X126.581 Z-9.689
X125.55 Z-9.659
X124.471 Z-9.66
X121.237 Z-9.735
X119.44 Z-9.792
X118.298 Z-9.687
X117.286 Z-9.574
X115.8 Z-9.458
X114.245 Z-9.392
X112.482 Z-9.355
X112.003 Z-9.35
X110.784 Z-9.298
X109.747 Z-9.227
X108.756 Z-9.133
X106.665 Z-8.843
X105.381 Z-8.627
X102.97 Z-8.4
X102.554 Z-8.354
X101.731 Z-8.245
X100.404 Z-8.151
X98.869 Z-7.961
X97.708 Z-7.831
X96.506 Z-7.709
X95.855 Z-7.675
X94.956 Z-7.599
X94.007 Z-7.478
X93.114 Z-7.314
X92.085 Z-7.105
X90.572 Z-6.806
X89.379 Z-6.593
X88.561 Z-6.421
X87.737 Z-6.228
X86.436 Z-5.954
X86.069 Z-5.882
X85.119 Z-5.716
X84.593 Z-5.636
X83.026 Z-5.525
X81.252 Z-5.368
X79.802 Z-5.212
X77.746 Z-4.98
X76.537 Z-4.885
X74.674 Z-4.807
X72.717 Z-4.759
X71.445 Z-4.755
X70.268 Z-4.773
X69.831 Z-4.781
X68.347 Z-4.783
X66.821 Z-4.816
X65.234 Z-4.875
X62.962 Z-4.932
X61.698 Z-4.99
X60.741 Z-5.057
X59.945 Z-5.13
X59.136 Z-5.22
X58.244 Z-5.335
X57.238 Z-5.484
X56.176 Z-5.661
X55.434 Z-5.799
X54.742 Z-5.943
X54.053 Z-6.101
X53.368 Z-6.276
X52.78 Z-6.439
X51.929 Z-6.698
X51.107 Z-6.975
X47.236 Z-8.306
X45.956 Z-8.733
X44.625 Z-9.154
X43.683 Z-9.471
X41.351 Z-10.271
X40.394 Z-10.574
X39.446 Z-10.84
X37.96 Z-11.211
X35.815 Z-11.731
X33.879 Z-12.157
X32.44 Z-12.447
X31.83 Z-12.553
X29.451 Z-12.556
X28.798 Z-12.685
X28.635 Z-12.696
X26.609 Z-12.702
X26.068 Z-12.73
X25.545 Z-12.787
X24.552 Z-12.911
X23.908 Z-12.976
X23.384 Z-13.019
X22.961 Z-13.087
X22.377 Z-13.231
X20.909 Z-13.643
X19.985 Z-13.877
X18.59 Z-14.215
X17.513 Z-14.5
X17.061 Z-14.632
X16.577 Z-14.791
X16.21 Z-14.926
X15.169 Z-15.349
X13.429 Z-16.076
X12.7 Z-16.355
X12.244 Z-16.512
X11.62 Z-16.704
X10.422 Z-17.034
X8.116 Z-17.659
X7.594 Z-17.781
X6.912 Z-17.92
X6.066 Z-18.062
X5.006 Z-18.215
X1.963 Z-18.586
X0.918 Z-18.745
X-0.009 Z-18.92
G3 X-0.406 Z-18.866 I-0.118 K0.624
G2 X-0.686 Z-18.801 I-0.279 K-0.57
G1 X-0.805
G17 G2 X-0.805 Y-139.159 I0 J0.2
G18 G3 X-0.525 Z-18.866 I0 K-0.635
G1 X-0.52 Z-18.868
G2 X-0.11 Z-18.92 I0.279 K0.57
G1 X-0.009 Z-18.901
X0.023 Z-18.894
X1.104 Z-18.696
X2.074 Z-18.555
X4.702 Z-18.235
X5.921 Z-18.059
X6.767 Z-17.916
X7.449 Z-17.776
X8.022 Z-17.642
X10.241 Z-17.044
X11.646 Z-16.66
X12.154 Z-16.506
X12.631 Z-16.346
X13.219 Z-16.126
X14.387 Z-15.649
X15.535 Z-15.174
X16.139 Z-14.939
X16.683 Z-14.745
X17.107 Z-14.61
X17.637 Z-14.457
X18.435 Z-14.248
X20.485 Z-13.752
X22.315 Z-13.264
X23.023 Z-13.088
X23.425 Z-13.023
X24.124 Z-12.961
X25.518 Z-12.798
X26.137 Z-12.73
X26.677 Z-12.702
X28.601 Z-12.696
X28.874 Z-12.68
X29.087 Z-12.642
X29.541 Z-12.554
X31.213 Z-12.553
X31.77 Z-12.455
X33.128 Z-12.195
X34.655 Z-11.862
X36.168 Z-11.509
X39.011 Z-10.778
X40.031 Z-10.487
X40.918 Z-10.202
X42.706 Z-9.572
X43.798 Z-9.188
X44.61 Z-8.915
X46.532 Z-8.315
X50.131 Z-7.117
X51.525 Z-6.654
X52.221 Z-6.438
X52.9 Z-6.242
X53.501 Z-6.083
X54.408 Z-5.869
X55.089 Z-5.726
X55.911 Z-5.571
X56.788 Z-5.421
X57.792 Z-5.268
X58.635 Z-5.154
X59.598 Z-5.043
X60.503 Z-4.959
X61.458 Z-4.893
X62.317 Z-4.853
X63.605 Z-4.819
X65.342 Z-4.805
X66.321 Z-4.785
X67.04 Z-4.766
X68.53 Z-4.738
X69.936 Z-4.737
X71.288 Z-4.715
X72.936 Z-4.716
X74.59 Z-4.753
X76.941 Z-4.863
X77.765 Z-4.927
X78.577 Z-5.021
X80.234 Z-5.216
X81.66 Z-5.372
X83.557 Z-5.546
X84.838 Z-5.638
X86.263 Z-5.881
X86.786 Z-5.998
X87.814 Z-6.216
X88.574 Z-6.397
X89.444 Z-6.582
X90.848 Z-6.83
X92.469 Z-7.143
X93.613 Z-7.375
X94.12 Z-7.465
X94.96 Z-7.573
X95.811 Z-7.653
X96.865 Z-7.708
X97.558 Z-7.775
X99.051 Z-7.938
X100.796 Z-8.15
X102.093 Z-8.242
X102.89 Z-8.347
X103.411 Z-8.413
X105.629 Z-8.629
X106.886 Z-8.842
X107.099 Z-8.869
X108.161 Z-9.013
X109.021 Z-9.125
X110.214 Z-9.231
X111.337 Z-9.303
X112.511 Z-9.35
X113.194 Z-9.353
X114.64 Z-9.383
X116.227 Z-9.451
X117.486 Z-9.552
X118.339 Z-9.646
X119.288 Z-9.73
X121.234 Z-9.667
X124.495 Z-9.591
X125.585
X126.878 Z-9.63
X128.551 Z-9.733
X129.147 Z-9.784
X129.92 Z-9.842
X131.61 Z-9.858
X132.486 Z-9.876
X133.31 Z-9.924
X136.101 Z-10.174
X136.755 Z-10.228
X138.51 Z-10.344
X140.103 Z-10.489
X141.145 Z-10.615
X143.036 Z-10.87
X145.113 Z-11.155
X146.163 Z-11.256
X147.901 Z-11.371
X148.479 Z-11.362
X150.076 Z-11.285
X151.232 Z-11.254
X152.084 Z-11.25
X152.616 Z-11.231
X153.153 Z-11.183
X154.956 Z-10.922
X157.645 Z-10.505
X159.514 Z-10.182
X160.918 Z-9.887
X161.602 Z-9.758
X162.932 Z-9.531
X163.818 Z-9.389
X165.009 Z-9.235
X165.646 Z-9.157
X166.725 Z-8.986
X168.597 Z-8.681
X169.435 Z-8.546
X170.302 Z-8.425
X171.536 Z-8.277
X174.126 Z-7.998
X175.89 Z-7.775
X176.842 Z-7.622
X177.778 Z-7.44
X179.033 Z-7.161
X181.291 Z-6.603
X182.384 Z-6.34
X184.213 Z-5.928
X185.291 Z-5.695
X187.864 Z-5.173
X189.082 Z-4.925
X190.013 Z-4.754
X190.875 Z-4.616
X191.607 Z-4.516
X192.376 Z-4.429
X193.519 Z-4.329
X194.301 Z-4.277
X195.103 Z-4.255
X195.551 Z-4.241
X196.462 Z-4.221
X197.036 Z-4.199
X200.366 Z-4.077
X201.161 Z-4.034
X202.022 Z-4.011
X203.832 Z-4.004
X206.572 Z-4.001
X217.658 Z-4.005
X220.02 Z-4.016
X221.154 Z-4.02
X223.877 Z-4.11
X225.633 Z-4.223
X227.75 Z-4.342
G2 X228.065 Z-4.278 I0.036 K0.634
G1 X228.116 Z-4.253
G3 X228.396 Z-4.189 I0.279 K-0.57
G17 G3 X228.396 Y-138.759 I0 J0.2
G1 X228.349
G18 G2 X228.07 Z-4.253 I0 K-0.635
G3 X227.75 Z-4.317 I-0.279 K0.57
G1 X225.6 Z-4.18
X224.344 Z-4.099
X221.855 Z-4.02
X220.958 Z-4.016
X217.543 Z-4.005
X208.26 Z-4.001
X203.806 Z-3.976
X202.599 Z-3.972
X200.256 Z-4.025
X197.032 Z-4.126
X196.041 Z-4.131
X195.411 Z-4.136
X194.608 Z-4.146
X193.825 Z-4.186
X192.113 Z-4.332
X191.165 Z-4.442
X190.308 Z-4.567
X189.706 Z-4.668
X188.905 Z-4.817
X184.948 Z-5.62
X182.507 Z-6.142
X181.505 Z-6.375
X179.925 Z-6.766
X178.186 Z-7.188
X176.868 Z-7.474
X175.919 Z-7.646
X174.12 Z-7.896
X173.093 Z-8.015
X171.545 Z-8.172
X170.368 Z-8.304
X169.524 Z-8.415
X168.731 Z-8.539
X165.836 Z-9.024
X165.518 Z-9.07
X164.041 Z-9.25
X163.258 Z-9.364
X161.424 Z-9.663
X160.85 Z-9.769
X159.61 Z-10.017
X157.54 Z-10.369
X155.347 Z-10.703
X153.609 Z-10.953
X153.195 Z-11.011
X152.405 Z-11.096
X151.462 Z-11.134
X149.944 Z-11.182
X148.156 Z-11.262
X147.76
X146.072 Z-11.154
X144.826 Z-11.036
X142.744 Z-10.744
X141.116 Z-10.511
X140.378 Z-10.409
X139.574 Z-10.331
X138.333 Z-10.22
X136.699 Z-10.115
X135.608 Z-10.032
X133.302 Z-9.824
X132.475 Z-9.776
X130.363 Z-9.732
X129.71 Z-9.729
X128.52 Z-9.648
X127.231 Z-9.573
X125.661 Z-9.524
X124.638 Z-9.521
X121.256 Z-9.598
X119.281 Z-9.662
X119.045 Z-9.651
X118.355 Z-9.602
X117.298 Z-9.493
X116.639 Z-9.442
X115.187 Z-9.38
X113.804 Z-9.353
X113.019 Z-9.35
X112.011 Z-9.314
X110.907 Z-9.25
X109.575 Z-9.141
X108.75 Z-9.057
X107.487 Z-8.886
X107.06 Z-8.84
X105.749 Z-8.621
X105.161 Z-8.562
X103.686 Z-8.411
X102.422 Z-8.242
X101.13 Z-8.151
X99.497 Z-7.95
X98.432 Z-7.831
X97.23 Z-7.709
X95.933 Z-7.643
X94.994 Z-7.554
X94.213 Z-7.453
X93.818 Z-7.38
X92.242 Z-7.064
X91.241 Z-6.874
X89.526 Z-6.575
X88.661 Z-6.392
X87.822 Z-6.191
X86.342 Z-5.862
X84.996 Z-5.635
X83.939 Z-5.559
X82.009 Z-5.371
X80.625 Z-5.215
X78.731 Z-4.987
X77.933 Z-4.889
X77.217 Z-4.833
X74.743 Z-4.709
X73.507 Z-4.677
X72.035 Z-4.672
X70.626 Z-4.683
X70.01 Z-4.694
X68.66 Z-4.693
X67.589 Z-4.696
X66.214 Z-4.691
X64.909 Z-4.726
X63.625
X62.407 Z-4.749
X61.332 Z-4.793
X60.488 Z-4.848
X59.684 Z-4.917
X58.743 Z-5.018
X57.875 Z-5.13
X56.916 Z-5.27
X55.96 Z-5.429
X55.159 Z-5.577
X54.55 Z-5.7
X53.86 Z-5.853
X53.215 Z-6.009
X52.562 Z-6.183
X51.801 Z-6.403
X50.83 Z-6.707
X47.211 Z-7.877
X45.911 Z-8.279
X44.916 Z-8.578
X44.222 Z-8.801
X43.368 Z-9.094
X41.689 Z-9.704
X40.285 Z-10.2
X39.366 Z-10.49
X37.745 Z-10.937
X36.004 Z-11.399
X34.243 Z-11.818
X32.776 Z-12.135
X30.617 Z-12.553
X29.614 Z-12.556
X29.069 Z-12.665
X28.623 Z-12.696
X26.775 Z-12.702
X26.234 Z-12.73
X25.067 Z-12.858
X23.991 Z-12.979
X23.489 Z-13.027
X23.087 Z-13.095
X22.233 Z-13.3
X20.236 Z-13.816
X18.432 Z-14.246
X17.586 Z-14.467
X17.082 Z-14.612
X16.521 Z-14.792
X15.946 Z-14.998
X15.199 Z-15.293
X13.275 Z-16.079
X12.592 Z-16.332
X12.135 Z-16.484
X11.55 Z-16.658
X7.856 Z-17.65
X7.335 Z-17.772
X6.653 Z-17.912
X5.86 Z-18.047
X4.8 Z-18.204
X3.79 Z-18.331
X2.216 Z-18.525
X1.229 Z-18.663
X0.474 Z-18.792
X-0.009 Z-18.887
G3 X-0.411 Z-18.834 I-0.123 K0.623
G2 X-0.691 Z-18.77 I-0.279 K-0.57
G1 X-0.75
G17 G2 X-0.75 Y-138.359 I0 J0.2
G18 G3 X-0.47 Z-18.834 I0 K-0.635
G2 X-0.068 Z-18.887 I0.279 K0.57
G1 X-0.009 Z-18.876
X0.212 Z-18.832
X0.99 Z-18.691
X2.159 Z-18.522
X3.733 Z-18.328
X5.061 Z-18.152
X6.081 Z-17.995
X6.858 Z-17.851
X7.642 Z-17.677
X9.185 Z-17.265
X11.444 Z-16.664
X12.12 Z-16.467
X12.598 Z-16.31
X13.3 Z-16.049
X15.542 Z-15.144
X16.217 Z-14.892
X16.643 Z-14.747
X17.042 Z-14.622
X17.795 Z-14.409
X18.543 Z-14.219
X20.112 Z-13.85
X22.162 Z-13.335
X22.967 Z-13.144
X23.416 Z-13.056
X23.82 Z-13.003
X24.397 Z-12.941
X26.362 Z-12.729
X26.884 Z-12.702
X28.648 Z-12.696
X29.207 Z-12.659
X29.751 Z-12.555
X30.057 Z-12.553
X30.293 Z-12.504
X33.196 Z-11.905
X34.637 Z-11.575
X36.175 Z-11.19
X38.301 Z-10.598
X39.432 Z-10.267
X40.438 Z-9.93
X42.418 Z-9.198
X43.317 Z-8.869
X44.166 Z-8.581
X44.942 Z-8.337
X45.723 Z-8.108
X47.52 Z-7.576
X51.041 Z-6.481
X51.924 Z-6.217
X52.927 Z-5.945
X53.613 Z-5.777
X54.418 Z-5.597
X55.122 Z-5.455
X55.875 Z-5.316
X56.821 Z-5.16
X57.615 Z-5.044
X58.422 Z-4.939
X59.22 Z-4.849
X59.93 Z-4.783
X60.914 Z-4.711
X61.942 Z-4.664
X63.053 Z-4.638
X64.228 Z-4.635
X66.397 Z-4.596
X68.14 Z-4.616
X69.048 Z-4.639
X70.066 Z-4.65
X70.89 Z-4.637
X72.341 Z-4.631
X73.853 Z-4.636
X74.82 Z-4.662
X77.307 Z-4.793
X78.244 Z-4.869
X79.209 Z-4.998
X80.97 Z-5.208
X82.189 Z-5.353
X84.285 Z-5.572
X85.14 Z-5.635
X86.487 Z-5.861
X87.809 Z-6.16
X88.595 Z-6.352
X89.506 Z-6.548
X91.491 Z-6.894
X92.281 Z-7.042
X93.805 Z-7.346
X94.284 Z-7.439
X95.14 Z-7.548
X96.107 Z-7.637
X96.411 Z-7.65
X97.562 Z-7.712
X98.714 Z-7.828
X99.566 Z-7.922
X100.938 Z-8.092
X101.498 Z-8.155
X102.73 Z-8.244
X103.951 Z-8.409
X105.797 Z-8.604
X107.108 Z-8.82
X107.844 Z-8.9
X108.885 Z-9.037
X110.785 Z-9.208
X111.895 Z-9.286
X112.815 Z-9.33
X113.798 Z-9.35
X114.351 Z-9.353
X115.701 Z-9.379
X117.174 Z-9.443
X117.953 Z-9.517
X118.539 Z-9.564
X119.389 Z-9.591
X120.91 Z-9.542
X123.201 Z-9.486
X124.765 Z-9.456
X125.835 Z-9.463
X127.643 Z-9.519
X129.791 Z-9.639
X130.705 Z-9.646
X132.785 Z-9.695
X133.321 Z-9.725
X135.885 Z-9.957
X138.326 Z-10.11
X139.916 Z-10.253
X140.662 Z-10.335
X141.975 Z-10.538
X143.429 Z-10.742
X144.553 Z-10.905
X145.988 Z-11.035
X147.712 Z-11.148
X148.162 Z-11.146
X150.365 Z-11.033
X151.116 Z-11.006
X152.126 Z-10.955
X152.879 Z-10.883
X153.517 Z-10.8
X155.648 Z-10.498
X157.206 Z-10.267
X159.394 Z-9.907
X160.544 Z-9.699
X161.334 Z-9.556
X163.223 Z-9.263
X164.102 Z-9.137
X165.49 Z-8.973
X168.76 Z-8.417
X169.673 Z-8.28
X170.911 Z-8.129
X173.324 Z-7.892
X174.174 Z-7.779
X175.931 Z-7.512
X176.726 Z-7.355
X178.026 Z-7.06
X180.677 Z-6.399
X181.76 Z-6.14
X182.648 Z-5.941
X184.569 Z-5.547
X185.903 Z-5.28
X188.172 Z-4.824
X189.181 Z-4.624
X190.08 Z-4.47
X190.92 Z-4.35
X191.659 Z-4.264
X192.79 Z-4.159
X193.789 Z-4.073
X194.775 Z-4.046
X197.819 Z-4.043
X199.964 Z-3.98
X202.016 Z-3.93
X203.734 Z-3.927
X205.814 Z-3.967
X209.192 Z-4.001
X219.736 Z-4.006
X222.925 Z-4.027
X224.737 Z-4.085
X225.992 Z-4.166
X227.75 Z-4.29
G2 X228.074 Z-4.227 I0.045 K0.633
G1 X228.131 Z-4.199
G3 X228.411 Z-4.134 I0.279 K-0.57
G17 G3 X228.411 Y-137.959 I0 J0.2
G1 X228.357
G18 G2 X228.078 Z-4.199 I0 K-0.635
G3 X227.75 Z-4.262 I-0.279 K0.57
G1 X226.444 Z-4.162
X225.273 Z-4.077
X223.529 Z-4.02
X222.36 Z-4.016
X219.673 Z-4.005
X209.81 Z-4.001
X207.332 Z-3.971
X204.103 Z-3.903
X202.368 Z-3.899
X200.111 Z-3.937
X198.289 Z-3.977
X195.048 Z-3.975
X194.018 Z-3.996
X193.051 Z-4.045
X191.891 Z-4.137
X191.268 Z-4.196
X190.553 Z-4.281
X189.877 Z-4.376
X189.169 Z-4.492
X188.485 Z-4.621
X186.236 Z-5.068
X184.711 Z-5.364
X182.626 Z-5.78
X181.679 Z-5.987
X180.667 Z-6.225
X179.379 Z-6.548
X177.436 Z-7.036
X176.204 Z-7.317
X175.466 Z-7.455
X173.498 Z-7.765
X172.702 Z-7.85
X171.327 Z-7.984
X170.56 Z-8.059
X169.764 Z-8.159
X168.921 Z-8.278
X167.939 Z-8.443
X165.448 Z-8.873
X164.131 Z-9.029
X163.181 Z-9.165
X162.201 Z-9.312
X161.395 Z-9.427
X160.618 Z-9.555
X157.421 Z-10.082
X155.418 Z-10.38
X153.783 Z-10.599
X152.336 Z-10.769
X151.415 Z-10.835
X150.681 Z-10.865
X149.576 Z-10.945
X148.194 Z-11.017
X147.871 Z-11.03
X147.384 Z-11.01
X145.856 Z-10.9
X144.196 Z-10.748
X141.936 Z-10.426
X141.312 Z-10.325
X140.528 Z-10.206
X139.782 Z-10.123
X138.218 Z-9.983
X136.758 Z-9.901
X135.58 Z-9.831
X134.941 Z-9.776
X133.868 Z-9.682
X132.764 Z-9.625
X130.658 Z-9.577
X129.797 Z-9.568
X128.706 Z-9.512
X127.597 Z-9.463
X125.869 Z-9.409
X124.628 Z-9.403
X121.792 Z-9.464
X120.303 Z-9.518
X119.965 Z-9.524
X118.875 Z-9.502
X118.158 Z-9.471
X116.193 Z-9.381
X115.255 Z-9.352
X113.174 Z-9.304
X112.454 Z-9.296
X111.369 Z-9.221
X108.768 Z-8.984
X108.139 Z-8.907
X107.163 Z-8.803
X106.47 Z-8.691
X105.889 Z-8.594
X104.93 Z-8.489
X104.188 Z-8.409
X102.917 Z-8.24
X101.958 Z-8.171
X100.988 Z-8.067
X100.318 Z-7.981
X99.681 Z-7.898
X98.72 Z-7.797
X97.956 Z-7.721
X96.787 Z-7.65
X96.323 Z-7.637
X95.17 Z-7.53
X94.447 Z-7.442
X94.057 Z-7.373
X92.48 Z-7.058
X91.585 Z-6.89
X89.664 Z-6.555
X88.934 Z-6.407
X87.626 Z-6.092
X86.581 Z-5.857
X85.26 Z-5.635
X84.596 Z-5.585
X83.069 Z-5.414
X82.121 Z-5.302
X80.578 Z-5.117
X79.684 Z-5.008
X78.473 Z-4.847
X77.555 Z-4.765
X75.315 Z-4.636
X74.156 Z-4.601
X72.708 Z-4.59
X70.977 Z-4.595
X70.262 Z-4.603
X68.407 Z-4.538
X66.607 Z-4.504
X65.096 Z-4.52
X64.246 Z-4.541
X63.914 Z-4.543
X62.703 Z-4.548
X61.504 Z-4.579
X60.568 Z-4.628
X59.619 Z-4.7
X58.677 Z-4.795
X57.737 Z-4.91
X56.821 Z-5.041
X55.727 Z-5.221
X54.81 Z-5.395
X53.95 Z-5.574
X53.095 Z-5.773
X52.306 Z-5.976
X51.151 Z-6.302
X48.082 Z-7.22
X45.742 Z-7.885
X44.856 Z-8.138
X44.16 Z-8.352
X43.399 Z-8.604
X42.621 Z-8.884
X40.243 Z-9.776
X39.229 Z-10.122
X36.733 Z-10.86
X35.389 Z-11.227
X33.756 Z-11.629
X32.082 Z-12.001
X29.679 Z-12.52
X28.914 Z-12.684
X28.696 Z-12.696
X27.045 Z-12.702
X26.522 Z-12.729
X25.058 Z-12.875
X23.585 Z-13.053
X23.153 Z-13.13
X22.067 Z-13.375
X20.072 Z-13.867
X18.367 Z-14.266
X17.614 Z-14.46
X17.13 Z-14.597
X16.597 Z-14.761
X15.904 Z-15.003
X15.199 Z-15.275
X13.151 Z-16.096
X12.538 Z-16.315
X12.033 Z-16.477
X11.259 Z-16.695
X9.229 Z-17.229
X7.692 Z-17.641
X7.171 Z-17.764
X6.489 Z-17.906
X5.75 Z-18.035
X4.743 Z-18.186
X3.159 Z-18.39
X1.81 Z-18.564
X0.719 Z-18.731
X-0.009 Z-18.869
G3 X-0.407 Z-18.816 I-0.118 K0.624
G2 X-0.687 Z-18.751 I-0.279 K-0.57
G1 X-0.692
G17 G2 X-0.692 Y-137.559 I0 J0.2
G18 G3 X-0.412 Z-18.816 I0 K-0.635
G2 X-0.013 Z-18.869 I0.279 K0.57
G1 X-0.009
X0.618 Z-18.749
X1.809 Z-18.56
X4.381 Z-18.229
X5.494 Z-18.067
X6.392 Z-17.911
X7.073 Z-17.769
X7.595 Z-17.648
X9.386 Z-17.168
X11.215 Z-16.694
X12.046 Z-16.463
X12.576 Z-16.294
X13.311 Z-16.027
X15.442 Z-15.18
X16.226 Z-14.891
X16.648 Z-14.75
X17.094 Z-14.613
X17.744 Z-14.432
X18.599 Z-14.218
X20.183 Z-13.852
X21.742 Z-13.472
X22.927 Z-13.203
X23.433 Z-13.101
X24.013 Z-13.014
X25.033 Z-12.888
X26.697 Z-12.73
X27.244 Z-12.702
X28.406 Z-12.696
X30.459 Z-12.224
X33.083 Z-11.635
X34.635 Z-11.258
X35.949 Z-10.905
X37.573 Z-10.42
X39.269 Z-9.894
X40.078 Z-9.611
X42.434 Z-8.722
X43.119 Z-8.474
X43.698 Z-8.279
X44.28 Z-8.095
X45.005 Z-7.882
X48.484 Z-6.936
X50.985 Z-6.217
X52.079 Z-5.913
X52.774 Z-5.733
X53.618 Z-5.531
X54.687 Z-5.304
X55.497 Z-5.149
X56.447 Z-4.987
X57.401 Z-4.846
X58.458 Z-4.71
X59.391 Z-4.614
X60.369 Z-4.538
X61.548 Z-4.479
X62.732 Z-4.453
X63.905 Z-4.454
X64.726 Z-4.425
X66.778 Z-4.414
X68.56 Z-4.459
X69.464 Z-4.496
X70.664 Z-4.548
X72.936 Z-4.549
X74.229 Z-4.561
X75.429 Z-4.6
X77.782 Z-4.737
X78.64 Z-4.821
X80.174 Z-5.027
X81.521 Z-5.185
X83.466 Z-5.431
X84.855 Z-5.593
X85.346 Z-5.633
X86.666 Z-5.856
X87.921 Z-6.138
X88.597 Z-6.304
X89.182 Z-6.438
X90.298 Z-6.645
X90.603 Z-6.701
X91.648 Z-6.885
X92.438 Z-7.032
X94.057 Z-7.355
X94.66 Z-7.452
X95.23 Z-7.517
X96.438 Z-7.63
X97.066 Z-7.648
X98.374 Z-7.731
X99.699 Z-7.865
X100.244 Z-7.933
X101.154 Z-8.055
X102.295 Z-8.18
X103.138 Z-8.242
X104.36 Z-8.406
X105.895 Z-8.572
X106.582 Z-8.688
X107.196 Z-8.785
X107.73 Z-8.842
X108.689 Z-8.933
X109.983 Z-9.049
X111.032 Z-9.153
X112.244 Z-9.257
X113.365 Z-9.261
X114.848 Z-9.29
X117.635 Z-9.372
X119.035 Z-9.428
X120.475 Z-9.463
X121.308 Z-9.428
X122.785 Z-9.386
X124.666 Z-9.348
X125.885 Z-9.354
X127.899 Z-9.419
X129.12 Z-9.481
X129.742 Z-9.502
X130.705 Z-9.509
X132.785 Z-9.558
X133.955 Z-9.618
X134.624 Z-9.667
X135.584 Z-9.736
X136.325 Z-9.77
X137.132 Z-9.805
X138.208 Z-9.864
X139.611 Z-9.989
X140.359 Z-10.066
X141.102 Z-10.171
X141.524 Z-10.244
X142.35 Z-10.371
X144.08 Z-10.606
X146.344 Z-10.807
X147.611 Z-10.895
X148.015 Z-10.897
X149.735 Z-10.797
X150.528 Z-10.731
X151.383 Z-10.676
X152.315 Z-10.598
X153.394 Z-10.468
X154.065 Z-10.403
X155.308 Z-10.246
X156.655 Z-10.052
X158.856 Z-9.701
X161.407 Z-9.307
X162.32 Z-9.186
X163.052 Z-9.082
X164.074 Z-8.932
X165.429 Z-8.768
X167.381 Z-8.431
X168.573 Z-8.225
X169.32 Z-8.113
X170.378 Z-7.984
X172.394 Z-7.778
X173.418 Z-7.665
X174.696 Z-7.45
X175.887 Z-7.234
X176.827 Z-7.019
X179.392 Z-6.369
X180.473 Z-6.101
X181.464 Z-5.87
X182.532 Z-5.64
X184.854 Z-5.181
X187.832 Z-4.616
X188.806 Z-4.43
X189.551 Z-4.308
X190.347 Z-4.2
X191.291 Z-4.097
X192.178 Z-4.027
X193.84 Z-3.934
X194.805 Z-3.908
X197.84 Z-3.906
X198.878 Z-3.92
X200.089 Z-3.903
X201.654 Z-3.88
X203.403 Z-3.87
X204.988 Z-3.892
X208.232 Z-3.973
X210.306 Z-4.001
X219.853 Z-4.005
X223.347 Z-4.017
X224.295 Z-4.02
X225.787 Z-4.07
X226.756 Z-4.15
X227.75 Z-4.231
G2 X228.081 Z-4.168 I0.051 K0.633
G1 X228.14 Z-4.139
G3 X228.419 Z-4.074 I0.279 K-0.57
G17 G3 X228.419 Y-137.159 I0 J0.2
G1 X228.365
G18 G2 X228.086 Z-4.139 I0 K-0.635
G3 X227.75 Z-4.202 I-0.279 K0.57
G1 X227.012 Z-4.135
X226.252 Z-4.065
X224.819 Z-4.02
X224.097 Z-4.016
X220.9 Z-4.005
X210.748 Z-4.001
X208.865 Z-3.973
X207.112 Z-3.919
X205.307 Z-3.872
X203.624 Z-3.844
X201.879 Z-3.85
X199.727 Z-3.871
X198.21 Z-3.843
X194.588 Z-3.845
X193.739 Z-3.87
X192.41 Z-3.939
X191.275 Z-4.015
X190.469 Z-4.092
X189.958 Z-4.149
X189.448 Z-4.216
X188.654 Z-4.338
X185.724 Z-4.864
X184.431 Z-5.112
X182.319 Z-5.531
X181.335 Z-5.74
X180.343 Z-5.966
X179.322 Z-6.215
X176.291 Z-6.988
X175.445 Z-7.175
X173.549 Z-7.526
X172.912 Z-7.612
X169.801 Z-7.951
X168.931 Z-8.067
X168.328 Z-8.161
X165.985 Z-8.567
X165.457 Z-8.654
X164.212 Z-8.805
X163.312 Z-8.935
X162.58 Z-9.042
X161.549 Z-9.17
X160.436 Z-9.328
X159.089 Z-9.522
X156.602 Z-9.917
X155.351 Z-10.096
X154.55 Z-10.183
X153.275 Z-10.305
X151.972 Z-10.462
X149.874 Z-10.639
X148.332 Z-10.737
X147.799 Z-10.752
X147.319 Z-10.737
X145.929 Z-10.631
X143.657 Z-10.423
X142.055 Z-10.206
X141.431 Z-10.101
X140.477 Z-9.962
X139.73 Z-9.882
X138.22 Z-9.746
X137.583 Z-9.712
X135.287 Z-9.631
X133.191 Z-9.507
X132.247 Z-9.474
X130.521 Z-9.439
X129.179 Z-9.429
X127.917 Z-9.365
X125.86 Z-9.299
X124.574 Z-9.294
X122.346 Z-9.343
X120.798 Z-9.405
X117.876 Z-9.31
X113.915 Z-9.221
X112.118 Z-9.215
X111.001 Z-9.104
X110.359 Z-9.037
X109.074 Z-8.923
X107.764 Z-8.819
X107.287 Z-8.778
X106.742 Z-8.692
X105.923 Z-8.555
X104.568 Z-8.413
X103.246 Z-8.237
X102.574 Z-8.185
X101.243 Z-8.034
X100.256 Z-7.899
X99.671 Z-7.83
X98.762 Z-7.74
X97.348 Z-7.647
X96.495 Z-7.62
X95.294 Z-7.507
X94.501 Z-7.41
X93.815 Z-7.292
X92.985 Z-7.124
X91.933 Z-6.923
X91.005 Z-6.754
X89.984 Z-6.563
X88.984 Z-6.373
X87.857 Z-6.109
X86.759 Z-5.861
X85.397 Z-5.63
X85.08 Z-5.599
X84.096 Z-5.48
X82.566 Z-5.278
X80.969 Z-5.089
X78.675 Z-4.779
X77.977 Z-4.71
X75.464 Z-4.561
X74.278 Z-4.521
X73.106 Z-4.509
X71.451 Z-4.502
X70.558 Z-4.473
X68.832 Z-4.385
X67.038 Z-4.328
X65.588 Z-4.324
X64.496 Z-4.333
X63.72 Z-4.363
X62.556
X61.5 Z-4.386
X60.344 Z-4.44
X59.213 Z-4.527
X58.412 Z-4.61
X57.509 Z-4.724
X56.411 Z-4.886
X55.394 Z-5.06
X54.49 Z-5.236
X53.38 Z-5.477
X52.578 Z-5.67
X51.687 Z-5.901
X50.396 Z-6.258
X48.696 Z-6.722
X45.166 Z-7.638
X44.475 Z-7.831
X43.787 Z-8.038
X43.105 Z-8.26
X42.438 Z-8.495
X41.365 Z-8.899
X39.77 Z-9.497
X38.685 Z-9.867
X36.236 Z-10.644
X35.208 Z-10.944
X34.068 Z-11.245
X32.365 Z-11.654
X30.585 Z-12.065
X29.564 Z-12.31
X27.99 Z-12.696
X27.295 Z-12.71
X26.814 Z-12.738
X25.404 Z-12.863
X24.451 Z-12.973
X23.576 Z-13.103
X22.988 Z-13.217
X21.849 Z-13.468
X20.094 Z-13.888
X18.439 Z-14.268
X17.641 Z-14.471
X17.108 Z-14.62
X16.396 Z-14.84
X15.625 Z-15.119
X14.688 Z-15.488
X13.262 Z-16.047
X12.536 Z-16.305
X11.993 Z-16.473
X11.343 Z-16.652
X9.17 Z-17.214
X7.581 Z-17.64
X7.06 Z-17.763
X6.379 Z-17.905
X5.534 Z-18.053
X4.528 Z-18.206
X1.69 Z-18.577
X0.707 Z-18.736
X-0.009 Z-18.873
X-0.05 Z-18.881
G3 X-0.449 Z-18.828 I-0.119 K0.624
G2 X-0.726 Z-18.764 I-0.278 K-0.571
G17 G2 X-0.726 Y-136.759 I0 J0.2
G1 X-0.689
G18 G3 X-0.411 Z-18.828 I0 K-0.635
G1 X-0.41
G2 X-0.009 Z-18.881 I0.279 K0.57
G1 X0.735 Z-18.736
X1.718 Z-18.577
X4.141 Z-18.259
X5.043 Z-18.129
X6.153 Z-17.945
X6.783 Z-17.819
X7.514 Z-17.652
X9.407 Z-17.144
X11.41 Z-16.631
X12.091 Z-16.445
X12.743 Z-16.239
X13.413 Z-15.998
X14.386 Z-15.619
X15.794 Z-15.071
X16.349 Z-14.873
X16.882 Z-14.7
X17.713 Z-14.467
X18.619 Z-14.241
X20.156 Z-13.893
X21.948 Z-13.47
X23.03 Z-13.237
X23.738 Z-13.103
X24.636 Z-12.967
X25.295 Z-12.889
X26.723 Z-12.762
X27.547 Z-12.712
X29.475 Z-12.21
X30.681 Z-11.91
X32.088 Z-11.576
X33.816 Z-11.156
X35.064 Z-10.817
X36.112 Z-10.5
X38.176 Z-9.818
X39.676 Z-9.304
X41.372 Z-8.67
X42.257 Z-8.343
X42.996 Z-8.086
X43.628 Z-7.882
X44.306 Z-7.681
X44.988 Z-7.494
X46.031 Z-7.23
X49.179 Z-6.459
X50.857 Z-6.015
X51.954 Z-5.724
X52.838 Z-5.504
X53.756 Z-5.291
X54.721 Z-5.089
X55.774 Z-4.894
X56.661 Z-4.745
X57.477 Z-4.624
X58.428 Z-4.506
X59.327 Z-4.418
X60.38 Z-4.344
X61.57 Z-4.294
X62.518 Z-4.276
X63.697
X63.924 Z-4.272
X64.787 Z-4.245
X66.402 Z-4.242
X67.294 Z-4.251
X68.853 Z-4.299
X71.287 Z-4.43
X72.393 Z-4.466
X74.653 Z-4.496
X75.584 Z-4.525
X77.841 Z-4.664
X78.661 Z-4.732
X79.617 Z-4.86
X81.071 Z-5.065
X81.741 Z-5.149
X83.708 Z-5.394
X85.132 Z-5.583
X85.386 Z-5.62
X86.749 Z-5.85
X86.958 Z-5.894
X88.82 Z-6.312
X90.162 Z-6.562
X91.376 Z-6.802
X92.767 Z-7.056
X93.123 Z-7.134
X94.038 Z-7.313
X94.652 Z-7.41
X95.535 Z-7.517
X96.533 Z-7.609
X97.606 Z-7.647
X99.176 Z-7.75
X100.057 Z-7.839
X101.256 Z-8.005
X102.799 Z-8.185
X103.335 Z-8.231
X104.658 Z-8.408
X106.039 Z-8.553
X107.092 Z-8.73
X107.325 Z-8.748
X109.463 Z-8.913
X110.651 Z-9.019
X112.099 Z-9.176
X113.934 Z-9.178
X116.591 Z-9.217
X117.882 Z-9.241
X120.943 Z-9.341
X122.536 Z-9.279
X124.634 Z-9.243
X125.922 Z-9.25
X127.868 Z-9.311
X129.016 Z-9.362
X130.585 Z-9.371
X132.862 Z-9.42
X134.128 Z-9.479
X135.056 Z-9.526
X137.582 Z-9.617
X138.452 Z-9.662
X139.373 Z-9.742
X140.5 Z-9.847
X142.488 Z-10.141
X143.42 Z-10.257
X146.78 Z-10.549
X147.567 Z-10.592
X148.219 Z-10.585
X149.585 Z-10.507
X152.188 Z-10.276
X153.257 Z-10.153
X154.343 Z-10.06
X155.6 Z-9.919
X156.332 Z-9.818
X158.089 Z-9.544
X159.201 Z-9.371
X161.631 Z-9.041
X162.535 Z-8.933
X163.15 Z-8.851
X164.17 Z-8.7
X165.548 Z-8.528
X167.681 Z-8.169
X168.674 Z-8.005
X169.612 Z-7.875
X170.693 Z-7.754
X172.693 Z-7.52
X173.489 Z-7.412
X175.108 Z-7.097
X175.996 Z-6.9
X178.59 Z-6.23
X179.681 Z-5.96
X180.756 Z-5.711
X181.845 Z-5.478
X183.756 Z-5.094
X185.328 Z-4.788
X186.493 Z-4.579
X188.46 Z-4.256
X189.17 Z-4.152
X189.908 Z-4.063
X190.676 Z-3.99
X191.502 Z-3.929
X193.046 Z-3.843
X194.584 Z-3.817
X198.402 Z-3.816
X200.01 Z-3.842
X201.813 Z-3.836
X204.799 Z-3.839
X206.453 Z-3.871
X207.709 Z-3.916
X209.676 Z-3.98
X211.262 Z-4.002
X222.005 Z-4.005
X224.628 Z-4.016
X225.256 Z-4.02
X226.682 Z-4.064
X227.75 Z-4.17
G2 X228.092 Z-4.108 I0.063 K0.632
G1 X228.168 Z-4.071
G3 X228.448 Z-4.006 I0.279 K-0.57
G17 G3 X228.448 Y-136.359 I0 J0.2
G1 X228.371
G18 G2 X228.092 Z-4.071 I0 K-0.635
G3 X227.75 Z-4.133 I-0.279 K0.57
G1 X227.055 Z-4.064
X225.685 Z-4.02
X225.081 Z-4.015
X222.98 Z-4.005
X211.652 Z-4.002
X210.242 Z-3.982
X208.364 Z-3.918
X207.144 Z-3.868
X205.415 Z-3.835
X201.755 Z-3.822
X199.938 Z-3.813
X198.354 Z-3.789
X194.536 Z-3.79
X192.923 Z-3.817
X191.568 Z-3.87
X190.347 Z-3.948
X189.574 Z-4.018
X188.755 Z-4.112
X187.228 Z-4.33
X186.391 Z-4.46
X185.462 Z-4.62
X184.335 Z-4.83
X182.496 Z-5.195
X181.09 Z-5.484
X180.075 Z-5.709
X178.981 Z-5.968
X177.912 Z-6.238
X175.683 Z-6.819
X174.846 Z-7.005
X173.503 Z-7.278
X172.665 Z-7.399
X170.871 Z-7.632
X169.494 Z-7.792
X168.556 Z-7.925
X165.627 Z-8.398
X164.204 Z-8.579
X162.89 Z-8.77
X161.494 Z-8.938
X159.119 Z-9.256
X158.007 Z-9.427
X156.769 Z-9.619
X155.942 Z-9.735
X154.776 Z-9.869
X154.213 Z-9.925
X153.326 Z-9.995
X152.129 Z-10.117
X150.552 Z-10.254
X149.599 Z-10.349
X148.483 Z-10.414
X147.929 Z-10.424
X147.537 Z-10.42
X146.668 Z-10.381
X143.494 Z-10.117
X142.919 Z-10.051
X142.531 Z-10.019
X142.012 Z-9.947
X140.908 Z-9.789
X140.006 Z-9.704
X138.55 Z-9.574
X137.721 Z-9.526
X135.039 Z-9.429
X134.327 Z-9.401
X133.707 Z-9.378
X132.861 Z-9.351
X130.551 Z-9.302
X129.004 Z-9.294
X128.531 Z-9.284
X126.003 Z-9.201
X124.848 Z-9.192
X122.794 Z-9.213
X121.743 Z-9.253
X121.065 Z-9.278
X117.929 Z-9.174
X116.861 Z-9.157
X113.536 Z-9.135
X112.068 Z-9.129
X110.717 Z-8.979
X109.909 Z-8.907
X107.333 Z-8.707
X106.846 Z-8.672
X106.117 Z-8.551
X104.788 Z-8.412
X103.371 Z-8.221
X103.045 Z-8.188
X101.386 Z-7.99
X100.133 Z-7.817
X99.6 Z-7.761
X97.948 Z-7.652
X96.496 Z-7.594
X95.546 Z-7.502
X94.69 Z-7.394
X94.103 Z-7.298
X93.335 Z-7.146
X92.771 Z-7.02
X91.567 Z-6.811
X90.17 Z-6.531
X88.832 Z-6.283
X88.161 Z-6.141
X86.82 Z-5.855
X86.303 Z-5.76
X85.088 Z-5.554
X83.134 Z-5.293
X81.655 Z-5.11
X80.733 Z-4.977
X80.055 Z-4.875
X78.78 Z-4.705
X77.853 Z-4.629
X75.971 Z-4.507
X74.535 Z-4.467
X73.239 Z-4.442
X72.034 Z-4.397
X70.402 Z-4.299
X68.912 Z-4.215
X67.643 Z-4.177
X66.476 Z-4.159
X64.803 Z-4.163
X63.921 Z-4.19
X62.585 Z-4.187
X61.443 Z-4.209
X60.331 Z-4.257
X59.232 Z-4.333
X58.325 Z-4.421
X57.432 Z-4.531
X56.495 Z-4.672
X55.504 Z-4.845
X54.799 Z-4.981
X53.676 Z-5.214
X52.46 Z-5.5
X51.387 Z-5.771
X49.583 Z-6.238
X46.396 Z-6.971
X45.139 Z-7.274
X44.433 Z-7.456
X43.732 Z-7.655
X43.148 Z-7.833
X42.476 Z-8.054
X41.719 Z-8.321
X39.557 Z-9.117
X35.993 Z-10.349
X34.952 Z-10.678
X33.787 Z-11.007
X32.436 Z-11.35
X30.449 Z-11.836
X29.297 Z-12.136
X27.995 Z-12.49
X27.024 Z-12.759
X25.683 Z-12.869
X24.797 Z-12.967
X23.867 Z-13.11
X22.841 Z-13.307
X22.034 Z-13.479
X20.177 Z-13.911
X18.777 Z-14.224
X17.731 Z-14.483
X17.163 Z-14.64
X16.441 Z-14.861
X15.704 Z-15.125
X14.317 Z-15.667
X13.296 Z-16.056
X12.639 Z-16.285
X12.066 Z-16.459
X11.144 Z-16.702
X9.192 Z-17.198
X7.464 Z-17.661
X6.68 Z-17.841
X5.997 Z-17.975
X4.939 Z-18.146
X3.931 Z-18.29
X1.732 Z-18.583
X0.754 Z-18.743
X-0.009 Z-18.893
G3 X-0.411 Z-18.84 I-0.123 K0.623
G2 X-0.691 Z-18.776 I-0.279 K-0.57
G1 X-0.746
G17 G2 X-0.746 Y-135.959 I0 J0.2
G18 G3 X-0.466 Z-18.84 I0 K-0.635
G1 X-0.424 Z-18.861
G2 X-0.009 Z-18.911 I0.279 K0.57
G1 X-0.008
X0.959 Z-18.721
X1.991 Z-18.558
X3.653 Z-18.334
X4.661 Z-18.194
X5.773 Z-18.019
X6.589 Z-17.865
X7.451 Z-17.668
X9.49 Z-17.124
X11.153 Z-16.708
X12.013 Z-16.484
X12.568 Z-16.322
X13.035 Z-16.167
X13.541 Z-15.986
X15.488 Z-15.237
X16.161 Z-14.987
X16.659 Z-14.818
X17.311 Z-14.622
X18.001 Z-14.439
X18.873 Z-14.227
X20.269 Z-13.918
X22.122 Z-13.492
X23.086 Z-13.292
X23.973 Z-13.126
X24.806 Z-12.993
X25.556 Z-12.901
X26.504 Z-12.817
X27.903 Z-12.41
X29.225 Z-12.034
X30.34 Z-11.738
X32.635 Z-11.156
X33.756 Z-10.853
X34.725 Z-10.562
X35.833 Z-10.197
X37.779 Z-9.502
X39.358 Z-8.954
X41.526 Z-8.177
X42.215 Z-7.938
X42.795 Z-7.748
X43.482 Z-7.538
X44.173 Z-7.346
X44.775 Z-7.19
X45.496 Z-7.016
X46.758 Z-6.732
X48.077 Z-6.449
X49.805 Z-6.077
X51.797 Z-5.576
X52.997 Z-5.284
X54.157 Z-5.021
X54.812 Z-4.885
X55.669 Z-4.719
X56.519 Z-4.571
X57.456 Z-4.431
X58.359 Z-4.322
X59.314 Z-4.234
X60.479 Z-4.159
X61.517 Z-4.117
X62.753 Z-4.096
X63.942 Z-4.103
X64.811 Z-4.078
X65.969 Z-4.065
X67.159 Z-4.077
X68.813 Z-4.124
X70.393 Z-4.208
X71.396 Z-4.282
X72.718 Z-4.37
X73.859 Z-4.421
X75.123 Z-4.452
X76.445 Z-4.5
X78.093 Z-4.609
X78.956 Z-4.688
X80.496 Z-4.894
X81.024 Z-4.982
X81.893 Z-5.112
X83.307 Z-5.294
X85.113 Z-5.535
X86.539 Z-5.778
X88.89 Z-6.263
X90.134 Z-6.494
X91.513 Z-6.772
X92.893 Z-7.013
X93.416 Z-7.128
X93.972 Z-7.248
X94.595 Z-7.356
X95.263 Z-7.451
X96.185 Z-7.554
X96.597 Z-7.581
X98.346 Z-7.661
X100.052 Z-7.775
X101.247 Z-7.936
X103.187 Z-8.181
X103.602 Z-8.237
X104.817 Z-8.407
X106.141 Z-8.547
X106.449 Z-8.592
X106.769 Z-8.619
X110.714 Z-8.934
X111.973 Z-9.074
X112.169 Z-9.083
X116.77 Z-9.098
X117.905 Z-9.105
X121.093 Z-9.21
X122.119 Z-9.176
X123.136 Z-9.147
X124.799 Z-9.142
X125.983 Z-9.151
X128.354 Z-9.227
X130.635 Z-9.234
X134.562 Z-9.324
X137.795 Z-9.433
X138.612 Z-9.483
X141.186 Z-9.716
X141.558 Z-9.765
X142.492 Z-9.889
X143.37 Z-9.956
X146.632 Z-10.216
X147.272 Z-10.246
X148.024 Z-10.253
X148.787 Z-10.231
X149.694 Z-10.184
X150.716 Z-10.072
X151.858 Z-9.974
X153.446 Z-9.833
X154.574 Z-9.75
X155.339 Z-9.657
X156.128 Z-9.572
X156.968 Z-9.461
X158.98 Z-9.153
X161.438 Z-8.824
X162.91 Z-8.644
X164.225 Z-8.456
X165.542 Z-8.286
X167.214 Z-8.032
X168.506 Z-7.833
X169.301 Z-7.72
X171.257 Z-7.474
X173.375 Z-7.162
X174.1 Z-7.017
X175.533 Z-6.704
X177.865 Z-6.091
X178.935 Z-5.824
X180.134 Z-5.543
X181.128 Z-5.325
X182.461 Z-5.052
X184.09 Z-4.729
X185.207 Z-4.527
X186.221 Z-4.358
X187.037 Z-4.237
X188.417 Z-4.063
X189.439 Z-3.954
X190.291 Z-3.89
X191.336 Z-3.834
X192.6 Z-3.791
X194.552 Z-3.763
X198.271 Z-3.761
X199.815 Z-3.783
X200.732 Z-3.79
X202.562 Z-3.813
X205.754 Z-3.83
X207.753 Z-3.868
X209.523 Z-3.943
X210.637 Z-3.982
X212.069 Z-4.002
X223.417 Z-4.005
X225.595 Z-4.016
X226.082 Z-4.02
X227.323 Z-4.062
X227.75 Z-4.102
G2 X228.088 Z-4.039 I0.058 K0.632
G1 X228.145 Z-4.012
G3 X228.424 Z-3.947 I0.279 K-0.57
G17 G3 X228.424 Y-135.559 I0 J0.2
G1 X228.345
G18 G2 X228.066 Z-4.012 I0 K-0.635
G3 X227.75 Z-4.075 I-0.279 K0.57
G1 X227.149 Z-4.041
X226.441 Z-4.02
X225.975 Z-4.016
X224.062 Z-4.005
X212.446 Z-4.002
X210.983 Z-3.983
X210.018 Z-3.946
X208.21 Z-3.868
X205.813 Z-3.821
X203.331 Z-3.806
X202.092 Z-3.783
X200.899 Z-3.78
X199.482 Z-3.753
X197.832 Z-3.749
X194.748 Z-3.747
X192.874 Z-3.76
X191.282 Z-3.795
X190.296 Z-3.833
X189.463 Z-3.883
X188.586 Z-3.958
X187.524 Z-4.067
X186.695 Z-4.169
X185.878 Z-4.288
X184.641 Z-4.488
X183.818 Z-4.635
X182.504 Z-4.893
X181.098 Z-5.18
X180.026 Z-5.417
X178.78 Z-5.71
X177.769 Z-5.961
X176.384 Z-6.33
X175.346 Z-6.597
X173.482 Z-6.999
X172.388 Z-7.178
X170.7 Z-7.44
X169.244 Z-7.625
X168.438 Z-7.74
X167.314 Z-7.897
X166.424 Z-8.027
X165.268 Z-8.195
X164.154 Z-8.344
X162.923 Z-8.516
X161.436 Z-8.703
X158.898 Z-9.048
X157.044 Z-9.327
X156.204 Z-9.433
X155.221 Z-9.533
X154.513 Z-9.618
X153.359 Z-9.699
X151.45 Z-9.847
X150.696 Z-9.917
X149.653 Z-10.035
X148.581 Z-10.101
X148.025 Z-10.111
X147.381 Z-10.094
X146.495 Z-10.041
X144.434 Z-9.882
X143.041 Z-9.782
X142.029 Z-9.711
X141.306 Z-9.623
X139 Z-9.421
X138.303 Z-9.377
X134.849 Z-9.26
X133.451 Z-9.232
X130.797 Z-9.188
X128.455 Z-9.183
X126.241 Z-9.112
X124.956 Z-9.099
X123.071 Z-9.103
X121.711 Z-9.136
X121.119 Z-9.154
X118.431 Z-9.067
X117.139 Z-9.055
X112.96 Z-9.026
X111.966 Z-9.025
X110.768 Z-8.895
X106.161 Z-8.514
X104.35 Z-8.337
X103.403 Z-8.189
X102.979 Z-8.125
X101.182 Z-7.895
X100.227 Z-7.768
X98.746 Z-7.67
X96.895 Z-7.579
X95.873 Z-7.508
X95.004 Z-7.396
X94.326 Z-7.287
X93.769 Z-7.178
X93.048 Z-7.016
X91.536 Z-6.749
X90.247 Z-6.49
X88.815 Z-6.22
X86.552 Z-5.758
X85.152 Z-5.522
X83.399 Z-5.289
X82.501 Z-5.17
X81.606 Z-5.038
X80.654 Z-4.88
X78.966 Z-4.652
X78.261 Z-4.588
X76.602 Z-4.48
X75.291 Z-4.429
X73.819 Z-4.378
X72.547 Z-4.295
X71.181 Z-4.173
X69.467 Z-4.065
X68.664 Z-4.025
X66.905 Z-3.971
X65.625 Z-3.967
X64.576 Z-3.978
X63.914 Z-4.008
X62.813 Z-4
X61.609 Z-4.019
X60.528 Z-4.062
X59.672 Z-4.113
X58.513 Z-4.213
X57.572 Z-4.32
X56.729 Z-4.441
X55.996 Z-4.564
X54.855 Z-4.785
X53.954 Z-4.978
X52.942 Z-5.213
X49.914 Z-5.954
X48.791 Z-6.182
X47.477 Z-6.439
X46.26 Z-6.689
X45.173 Z-6.928
X44.464 Z-7.097
X43.862 Z-7.251
X43.17 Z-7.444
X42.494 Z-7.648
X41.811 Z-7.872
X40.909 Z-8.183
X39.067 Z-8.817
X38.084 Z-9.156
X37.148 Z-9.495
X35.342 Z-10.155
X34.344 Z-10.495
X33.393 Z-10.791
X32.217 Z-11.122
X29.751 Z-11.771
X28.725 Z-12.06
X27.314 Z-12.483
X26.02 Z-12.88
X25.195 Z-12.969
X24.329 Z-13.101
X23.129 Z-13.321
X22.273 Z-13.495
X20.482 Z-13.903
X18.913 Z-14.248
X18.018 Z-14.464
X17.313 Z-14.653
X16.912 Z-14.771
X16.291 Z-14.975
X15.356 Z-15.321
X13.727 Z-15.947
X13.04 Z-16.189
X12.581 Z-16.337
X12.118 Z-16.472
X11.235 Z-16.699
X9.59 Z-17.108
X8.282 Z-17.459
X7.284 Z-17.719
X6.459 Z-17.899
X5.669 Z-18.045
X4.769 Z-18.187
X3.522 Z-18.362
X2.036 Z-18.566
X0.962 Z-18.74
X-0.009 Z-18.936
G3 X-0.414 Z-18.883 I-0.125 K0.623
G2 X-0.693 Z-18.818 I-0.279 K-0.57
G1 X-0.767
G17 G2 X-0.767 Y-135.159 I0 J0.2
G18 G3 X-0.488 Z-18.883 I0 K-0.635
G1 X-0.425 Z-18.914
G2 X-0.009 Z-18.964 I0.279 K0.57
G1 X0.155 Z-18.928
X0.928 Z-18.772
X2.005 Z-18.589
X3.363 Z-18.398
X4.812 Z-18.195
X5.738 Z-18.045
X6.528 Z-17.899
X7.365 Z-17.714
X8.442 Z-17.428
X9.747 Z-17.083
X11.301 Z-16.7
X12.23 Z-16.464
X12.743 Z-16.315
X13.111 Z-16.196
X13.786 Z-15.959
X16 Z-15.121
X16.585 Z-14.913
X17.272 Z-14.702
X18.037 Z-14.495
X19.162 Z-14.225
X20.491 Z-13.938
X21.939 Z-13.612
X22.782 Z-13.43
X24.102 Z-13.18
X24.921 Z-13.043
X25.494 Z-12.964
X27.198 Z-12.42
X28.436 Z-12.035
X29.372 Z-11.762
X32.1 Z-11.012
X33.029 Z-10.737
X33.838 Z-10.476
X34.803 Z-10.136
X36.683 Z-9.43
X37.657 Z-9.066
X38.425 Z-8.797
X41.7 Z-7.711
X42.486 Z-7.462
X43.119 Z-7.277
X43.859 Z-7.08
X44.587 Z-6.904
X45.539 Z-6.692
X46.452 Z-6.506
X47.999 Z-6.212
X49.329 Z-5.977
X50.158 Z-5.809
X52.49 Z-5.244
X54.058 Z-4.868
X55.194 Z-4.624
X56.077 Z-4.452
X56.8 Z-4.332
X57.738 Z-4.201
X58.728 Z-4.092
X59.792 Z-4.003
X60.628 Z-3.954
X61.541 Z-3.919
X62.631 Z-3.899
X63.769 Z-3.904
X64.066 Z-3.89
X64.829 Z-3.863
X66.102 Z-3.859
X67.05 Z-3.865
X68.444 Z-3.923
X69.304 Z-3.959
X70.118 Z-4.023
X71.325 Z-4.11
X73.203 Z-4.278
X74.473 Z-4.369
X74.99 Z-4.391
X76.589 Z-4.452
X78.533 Z-4.579
X79.022 Z-4.622
X79.623 Z-4.706
X80.869 Z-4.88
X81.978 Z-5.065
X82.741 Z-5.182
X83.771 Z-5.321
X85.258 Z-5.522
X86.895 Z-5.801
X88.63 Z-6.155
X90.353 Z-6.487
X91.488 Z-6.714
X93.07 Z-6.997
X94.086 Z-7.215
X94.846 Z-7.347
X95.387 Z-7.42
X96.334 Z-7.512
X97.354 Z-7.587
X98.991 Z-7.672
X100.465 Z-7.769
X101.368 Z-7.891
X102.846 Z-8.081
X103.673 Z-8.197
X104.516 Z-8.287
X107.031 Z-8.539
X110.757 Z-8.853
X111.811 Z-8.961
X113.279 Z-8.962
X118.431 Z-9.026
X121.062 Z-9.111
X121.723 Z-9.094
X123.023 Z-9.063
X124.912 Z-9.058
X126.213 Z-9.07
X128.388 Z-9.14
X130.87 Z-9.147
X133.658 Z-9.172
X134.799 Z-9.19
X137.863 Z-9.291
X138.934 Z-9.343
X139.594 Z-9.391
X140.109 Z-9.416
X140.763 Z-9.47
X141.333 Z-9.507
X142.079 Z-9.574
X143.912 Z-9.684
X144.856 Z-9.746
X146.702 Z-9.893
X147.562 Z-9.942
X148.213 Z-9.96
X148.719 Z-9.951
X149.55 Z-9.891
X150.529 Z-9.781
X151.236 Z-9.71
X152.437 Z-9.608
X153.109 Z-9.57
X154.402 Z-9.492
X155.127 Z-9.43
X156.194 Z-9.311
X157.147 Z-9.194
X158.703 Z-8.961
X161.212 Z-8.613
X162.468 Z-8.447
X164.833 Z-8.126
X166.996 Z-7.815
X168.822 Z-7.575
X170.681 Z-7.329
X171.743 Z-7.152
X173.457 Z-6.854
X175.519 Z-6.402
X176.938 Z-6.028
X178.037 Z-5.741
X179.015 Z-5.503
X180.424 Z-5.177
X181.261 Z-4.995
X182.826 Z-4.682
X183.73 Z-4.51
X184.533 Z-4.373
X185.655 Z-4.201
X186.509 Z-4.083
X187.367 Z-3.982
X188.293 Z-3.898
X189.248 Z-3.828
X190.118 Z-3.785
X191.683 Z-3.74
X193.026 Z-3.733
X196.083 Z-3.738
X200.103 Z-3.753
X200.917 Z-3.76
X202.067 Z-3.78
X203.038 Z-3.783
X204.373 Z-3.809
X205.954 Z-3.814
X208.601 Z-3.868
X211.177 Z-3.98
X212.723 Z-4.002
X224.607 Z-4.005
X226.36 Z-4.017
X226.936 Z-4.02
X227.75 Z-4.058
G2 X228.059 Z-3.994 I0.03 K0.634
G1 X228.087 Z-3.98
G3 X228.367 Z-3.915 I0.279 K-0.57
G17 G3 X228.367 Y-134.759 I0 J0.2
G1 X228.338
G18 G2 X228.059 Z-3.98 I0 K-0.635
G3 X227.75 Z-4.044 I-0.279 K0.57
G1 X227.22 Z-4.02
X226.636 Z-4.017
X224.848 Z-4.005
X212.975 Z-4.002
X211.479 Z-3.98
X208.944 Z-3.868
X206.365 Z-3.812
X205.024 Z-3.809
X203.689 Z-3.783
X202.899 Z-3.78
X201.355 Z-3.755
X200.183 Z-3.748
X197.259 Z-3.735
X194.925 Z-3.724
X194.015 Z-3.704
X192.788 Z-3.686
X191.713
X190.726 Z-3.69
X189.845 Z-3.722
X188.344 Z-3.808
X187.285 Z-3.895
X186.618 Z-3.966
X185.954 Z-4.048
X184.686 Z-4.226
X183.93 Z-4.345
X183.034 Z-4.504
X181.508 Z-4.795
X180.689 Z-4.964
X179.547 Z-5.22
X178.372 Z-5.499
X177.293 Z-5.775
X175.584 Z-6.223
X173.336 Z-6.724
X170.819 Z-7.187
X169.97 Z-7.306
X167.112 Z-7.669
X166.021 Z-7.827
X163.623 Z-8.166
X161.171 Z-8.499
X158.615 Z-8.861
X157.174 Z-9.072
X155.717 Z-9.248
X154.723 Z-9.338
X153.654 Z-9.391
X152.713 Z-9.429
X152.006 Z-9.485
X150.699 Z-9.607
X149.747 Z-9.72
X149.157 Z-9.777
X148.56 Z-9.806
X147.858 Z-9.796
X146.742 Z-9.733
X145.46 Z-9.622
X142.452 Z-9.45
X141.74 Z-9.421
X140.706 Z-9.356
X139.995 Z-9.321
X139.455 Z-9.304
X137.996 Z-9.228
X134.746 Z-9.121
X133.53 Z-9.113
X129.232 Z-9.096
X128.155 Z-9.088
X126.106 Z-9.027
X124.613 Z-9.017
X122.979 Z-9.022
X121.728 Z-9.053
X121.07 Z-9.071
X118.431 Z-8.985
X113.527 Z-8.894
X111.691 Z-8.89
X110.383 Z-8.776
X107.91 Z-8.57
X103.787 Z-8.147
X102.575 Z-7.995
X101.66 Z-7.907
X100.635 Z-7.769
X99.129 Z-7.669
X98.04 Z-7.609
X96.59 Z-7.501
X95.671 Z-7.404
X94.853 Z-7.297
X94.102 Z-7.173
X92.778 Z-6.909
X92.147 Z-6.791
X90.996 Z-6.588
X90.444 Z-6.48
X88.42 Z-6.084
X87.275 Z-5.852
X85.464 Z-5.541
X83.802 Z-5.312
X82.445 Z-5.115
X81.081 Z-4.885
X80.03 Z-4.739
X79.354 Z-4.628
X78.981 Z-4.586
X76.718 Z-4.432
X75.12 Z-4.37
X73.843 Z-4.28
X72.576 Z-4.159
X71.733 Z-4.07
X70.447 Z-3.962
X69.652 Z-3.887
X68.823 Z-3.84
X67.215 Z-3.76
X66.323 Z-3.749
X64.854 Z-3.753
X64.073 Z-3.781
X63.685 Z-3.8
X62.717 Z-3.793
X61.651 Z-3.809
X60.652 Z-3.846
X59.813 Z-3.895
X58.787 Z-3.981
X57.881 Z-4.079
X56.942 Z-4.208
X56.172 Z-4.336
X55.253 Z-4.516
X54.562 Z-4.665
X53.769 Z-4.849
X52.355 Z-5.2
X50.386 Z-5.675
X49.651 Z-5.825
X47.992 Z-6.099
X46.346 Z-6.393
X45.537 Z-6.55
X44.625 Z-6.743
X43.904 Z-6.91
X43.14 Z-7.102
X42.506 Z-7.28
X41.726 Z-7.516
X39.823 Z-8.119
X38.733 Z-8.461
X38.052 Z-8.688
X37.477 Z-8.893
X36.515 Z-9.257
X34.208 Z-10.151
X33.333 Z-10.47
X32.335 Z-10.795
X31.077 Z-11.17
X28.908 Z-11.786
X27.845 Z-12.115
X26.071 Z-12.69
X24.846 Z-13.095
X23.393 Z-13.355
X22.55 Z-13.523
X20.692 Z-13.936
X19.173 Z-14.262
X18.088 Z-14.523
X17.231 Z-14.755
X16.721 Z-14.916
X15.953 Z-15.187
X13.888 Z-15.965
X13.231 Z-16.193
X12.751 Z-16.344
X12.184 Z-16.502
X10.822 Z-16.839
X9.34 Z-17.207
X7.482 Z-17.703
X6.647 Z-17.895
X5.857 Z-18.041
X4.747 Z-18.222
X3.218 Z-18.437
X2.02 Z-18.61
X0.996 Z-18.787
X0.072 Z-18.979
X-0.009 Z-18.997
G3 X-0.425 Z-18.947 I-0.136 K0.62
G2 X-0.704 Z-18.882 I-0.279 K-0.57
G1 X-0.794
G17 G2 X-0.794 Y-134.359 I0 J0.2
G18 G3 X-0.514 Z-18.947 I0 K-0.635
G1 X-0.428 Z-18.989
G2 X-0.009 Z-19.038 I0.279 K0.57
G1 X0.261 Z-18.977
X1.185 Z-18.786
X2.209 Z-18.609
X4.776 Z-18.239
X6.045 Z-18.031
X6.625 Z-17.921
X7.461 Z-17.734
X8.723 Z-17.397
X9.834 Z-17.106
X11.462 Z-16.713
X12.334 Z-16.496
X12.845 Z-16.354
X13.356 Z-16.194
X14.205 Z-15.898
X16.01 Z-15.222
X16.797 Z-14.942
X17.353 Z-14.77
X18.265 Z-14.524
X19.481 Z-14.238
X20.738 Z-13.972
X21.943 Z-13.709
X22.916 Z-13.498
X24.132 Z-13.267
X25.504 Z-12.795
X27.878 Z-12.003
X28.664 Z-11.755
X29.548 Z-11.494
X31.376 Z-10.952
X32.579 Z-10.564
X33.455 Z-10.247
X34.763 Z-9.727
X36.438 Z-9.054
X37.108 Z-8.794
X37.691 Z-8.58
X38.372 Z-8.35
X39.067 Z-8.134
X40.014 Z-7.857
X41.768 Z-7.329
X42.576 Z-7.096
X43.28 Z-6.91
X44.025 Z-6.733
X44.737 Z-6.577
X45.63 Z-6.398
X46.935 Z-6.167
X48.302 Z-5.942
X49.53 Z-5.759
X50.151 Z-5.646
X51.29 Z-5.385
X53.846 Z-4.741
X54.719 Z-4.533
X55.561 Z-4.35
X56.305 Z-4.206
X57.086 Z-4.078
X58.025 Z-3.951
X58.777 Z-3.871
X59.792 Z-3.786
X60.451 Z-3.745
X61.493 Z-3.703
X62.518 Z-3.687
X63.598 Z-3.695
X64.107 Z-3.669
X64.905 Z-3.642
X65.731 Z-3.645
X66.612 Z-3.651
X67.525 Z-3.67
X69.477 Z-3.782
X70.085 Z-3.829
X70.991 Z-3.929
X71.886 Z-4.011
X72.685 Z-4.101
X73.718 Z-4.213
X74.766 Z-4.309
X75.766 Z-4.374
X76.884 Z-4.417
X78.564 Z-4.527
X79.404 Z-4.6
X80.451 Z-4.769
X81.13 Z-4.869
X82.44 Z-5.089
X83.754 Z-5.289
X84.31 Z-5.373
X85.737 Z-5.575
X87.575 Z-5.888
X88.258 Z-6.024
X90.308 Z-6.431
X90.626 Z-6.483
X92.516 Z-6.808
X93.041 Z-6.913
X94.125 Z-7.118
X94.971 Z-7.253
X96.044 Z-7.396
X97.359 Z-7.515
X98.625 Z-7.603
X100.293 Z-7.723
X101.699 Z-7.864
X102.944 Z-7.979
X103.928 Z-8.1
X105.591 Z-8.28
X107.554 Z-8.486
X108.355 Z-8.561
X109.311 Z-8.627
X110.784 Z-8.749
X111.815 Z-8.831
X112.296 Z-8.85
X114.285 Z-8.856
X118.532 Z-8.947
X121.104 Z-9.031
X122.233 Z-8.996
X123.602 Z-8.976
X125.89 Z-8.98
X127.904 Z-9.032
X129.85 Z-9.04
X133.702 Z-9.065
X135.24 Z-9.074
X137.994 Z-9.159
X139.032 Z-9.212
X140.363 Z-9.238
X141.21 Z-9.281
X142.742 Z-9.331
X144.102 Z-9.396
X145.888 Z-9.494
X146.633 Z-9.559
X147.18 Z-9.595
X148.133 Z-9.641
X148.795 Z-9.645
X149.478 Z-9.601
X150.26 Z-9.506
X151.556 Z-9.385
X152.408 Z-9.319
X153.618 Z-9.272
X154.776 Z-9.207
X155.882 Z-9.11
X157.148 Z-8.959
X158.611 Z-8.748
X161.757 Z-8.294
X164.211 Z-7.959
X166.235 Z-7.662
X167.292 Z-7.512
X170.186 Z-7.152
X170.822 Z-7.059
X173.26 Z-6.584
X175.611 Z-6.049
X177.569 Z-5.535
X178.655 Z-5.265
X179.726 Z-5.019
X180.752 Z-4.797
X181.551 Z-4.64
X183.533 Z-4.286
X184.38 Z-4.154
X185.386 Z-4.017
X186.239 Z-3.912
X187.01 Z-3.831
X188 Z-3.751
X189.391 Z-3.667
X190.198 Z-3.636
X191.421 Z-3.622
X192.624 Z-3.64
X194.007 Z-3.661
X195.292 Z-3.701
X196.368 Z-3.725
X198.771 Z-3.735
X201.222 Z-3.75
X203.515 Z-3.78
X204.194 Z-3.783
X205.529 Z-3.809
X206.824 Z-3.812
X209.226 Z-3.869
X211.771 Z-3.981
X213.17 Z-4.002
X225.119 Z-4.005
X226.859 Z-4.017
X227.425 Z-4.02
X227.75 Z-4.031
G2 X228.05 Z-3.966 I0.021 K0.635
G1 X228.073 Z-3.955
G3 X228.353 Z-3.89 I0.279 K-0.57
G17 G3 X228.353 Y-133.959 I0 J0.2
G1 X228.312
G18 G2 X228.032 Z-3.955 I0 K-0.635
G3 X227.75 Z-4.02 I-0.279 K0.57
G1 X227.052 Z-4.017
X225.335 Z-4.005
X213.318 Z-4.002
X211.991 Z-3.981
X209.417 Z-3.868
X208.022 Z-3.832
X207.219 Z-3.812
X205.947 Z-3.81
X204.572 Z-3.783
X203.974 Z-3.779
X200.581 Z-3.738
X197.268 Z-3.726
X196.448 Z-3.705
X194.41 Z-3.642
X193.367 Z-3.617
X192.297 Z-3.582
X191.136 Z-3.573
X190.001 Z-3.591
X188.203 Z-3.667
X187.388 Z-3.718
X186.502 Z-3.793
X185.747 Z-3.873
X184.716 Z-3.999
X183.782 Z-4.129
X182.513 Z-4.337
X181.388 Z-4.526
X180.29 Z-4.74
X179.127 Z-4.99
X178.417 Z-5.153
X177.441 Z-5.398
X175.534 Z-5.898
X173.06 Z-6.467
X170.814 Z-6.926
X170.178 Z-7.018
X167.51 Z-7.349
X166.407 Z-7.503
X164.113 Z-7.844
X162.86 Z-8.012
X159.43 Z-8.511
X157.247 Z-8.831
X156.076 Z-8.969
X154.678 Z-9.089
X153.674 Z-9.158
X152.327 Z-9.215
X151.074 Z-9.31
X150.289 Z-9.379
X149.403 Z-9.457
X148.85 Z-9.483
X148.116 Z-9.472
X147.493 Z-9.438
X146.697 Z-9.401
X146.044 Z-9.351
X144.554 Z-9.27
X143.762 Z-9.245
X143.087 Z-9.216
X141.539 Z-9.176
X141.071 Z-9.164
X140.373 Z-9.143
X139.262 Z-9.132
X138.798 Z-9.121
X137.984 Z-9.095
X135.351 Z-9.034
X130.102 Z-8.979
X128.095 Z-8.975
X127.122 Z-8.958
X125.96 Z-8.936
X123.17 Z-8.938
X121.831 Z-8.967
X121.006 Z-8.989
X119.03 Z-8.935
X114.721 Z-8.834
X112.885 Z-8.823
X112.591 Z-8.82
X111.897 Z-8.774
X109.322 Z-8.573
X108.175 Z-8.503
X106.939 Z-8.368
X106.086 Z-8.276
X104.211 Z-8.072
X103.344 Z-7.966
X102.403 Z-7.884
X100.684 Z-7.709
X99.052 Z-7.569
X97.017 Z-7.419
X95.883 Z-7.311
X94.568 Z-7.121
X93.339 Z-6.915
X92.94 Z-6.835
X91.513 Z-6.593
X90.338 Z-6.41
X88.52 Z-6.05
X87.731 Z-5.9
X86.103 Z-5.624
X84.481 Z-5.389
X83.963 Z-5.303
X82.596 Z-5.097
X81.128 Z-4.846
X80.556 Z-4.756
X79.615 Z-4.598
X78.92 Z-4.526
X77.273 Z-4.416
X76.364 Z-4.38
X75.235 Z-4.307
X74.136 Z-4.203
X72.926 Z-4.062
X72.158 Z-3.965
X70.462 Z-3.779
X68.94 Z-3.674
X68.133 Z-3.606
X67.317 Z-3.567
X65.198 Z-3.531
X64.383 Z-3.547
X63.375 Z-3.587
X62.314 Z-3.579
X61.389 Z-3.594
X60.219 Z-3.643
X59.168 Z-3.717
X58.306 Z-3.801
X57.366 Z-3.922
X56.536 Z-4.053
X55.84 Z-4.185
X54.916 Z-4.384
X53.974 Z-4.614
X51.329 Z-5.299
X50.285 Z-5.54
X49.664 Z-5.654
X48.327 Z-5.841
X46.544 Z-6.118
X45.599 Z-6.279
X44.788 Z-6.433
X44.064 Z-6.583
X43.353 Z-6.743
X42.772 Z-6.888
X42.182 Z-7.047
X41.275 Z-7.307
X40.276 Z-7.59
X39.18 Z-7.889
X38.288 Z-8.158
X37.698 Z-8.354
X37.065 Z-8.582
X36.294 Z-8.882
X35.52 Z-9.197
X33.999 Z-9.837
X33.033 Z-10.232
X32.246 Z-10.524
X31.14 Z-10.897
X29.947 Z-11.267
X28.649 Z-11.658
X27.681 Z-11.971
X26.393 Z-12.411
X24.813 Z-12.956
X23.335 Z-13.468
X22.358 Z-13.673
X21.067 Z-13.955
X19.432 Z-14.298
X18.385 Z-14.548
X17.458 Z-14.794
X16.83 Z-14.994
X16.299 Z-15.18
X14.114 Z-15.988
X13.46 Z-16.21
X12.99 Z-16.356
X12.475 Z-16.498
X11.581 Z-16.717
X9.831 Z-17.138
X8.471 Z-17.494
X7.459 Z-17.764
X6.727 Z-17.927
X5.938 Z-18.077
X4.403 Z-18.321
X2.484 Z-18.6
X1.46 Z-18.776
X0.546 Z-18.962
X-0.009 Z-19.086
G3 X-0.428 Z-19.037 I-0.139 K0.62
G2 X-0.707 Z-18.972 I-0.279 K-0.57
G1 X-0.825
G17 G2 X-0.825 Y-133.559 I0 J0.2
G18 G3 X-0.545 Z-19.037 I0 K-0.635
G1 X-0.433 Z-19.092
G2 X-0.009 Z-19.14 I0.279 K0.57
G1 X0.44 Z-19.035
X1.447 Z-18.825
X2.618 Z-18.617
X4.123 Z-18.392
X5.712 Z-18.147
X6.779 Z-17.951
X7.549 Z-17.775
X8.801 Z-17.44
X9.775 Z-17.187
X12.494 Z-16.536
X13.064 Z-16.384
X13.576 Z-16.228
X14.392 Z-15.951
X15.934 Z-15.386
X16.822 Z-15.066
X17.393 Z-14.882
X17.897 Z-14.735
X18.811 Z-14.501
X19.733 Z-14.289
X21.166 Z-13.991
X22.371 Z-13.731
X23.101 Z-13.483
X24.709 Z-12.922
X27.313 Z-12.003
X28.178 Z-11.71
X29.314 Z-11.356
X30.734 Z-10.907
X31.398 Z-10.679
X32.228 Z-10.378
X33.073 Z-10.039
X34.491 Z-9.421
X35.47 Z-8.999
X36.287 Z-8.661
X36.957 Z-8.402
X37.567 Z-8.185
X38.239 Z-7.966
X38.825 Z-7.791
X39.413 Z-7.626
X40.429 Z-7.363
X42.343 Z-6.85
X42.935 Z-6.699
X43.436 Z-6.582
X44.138 Z-6.431
X45.101 Z-6.247
X46.093 Z-6.079
X47.995 Z-5.797
X49.937 Z-5.528
X50.462 Z-5.426
X51.4 Z-5.202
X53.129 Z-4.739
X54.122 Z-4.472
X55.062 Z-4.238
X55.999 Z-4.036
X56.804 Z-3.886
X57.624 Z-3.762
X58.517 Z-3.655
X59.24 Z-3.59
X60.206 Z-3.526
X61.107 Z-3.489
X62.022 Z-3.472
X63.003 Z-3.475
X64.588 Z-3.431
X65.439 Z-3.422
X67.458 Z-3.476
X68.299 Z-3.522
X69.366 Z-3.62
X70.706 Z-3.732
X72.577 Z-3.941
X73.372 Z-4.055
X74.744 Z-4.218
X75.68 Z-4.306
X76.788 Z-4.379
X77.595 Z-4.415
X78.961 Z-4.504
X79.552 Z-4.562
X80.082 Z-4.639
X81.233 Z-4.838
X81.585 Z-4.905
X82.678 Z-5.097
X83.886 Z-5.279
X84.774 Z-5.426
X86.544 Z-5.686
X88.341 Z-5.991
X89.875 Z-6.294
X92.152 Z-6.644
X93.715 Z-6.911
X95.762 Z-7.219
X96.985 Z-7.336
X98.455 Z-7.441
X100.449 Z-7.626
X102.715 Z-7.864
X103.736 Z-7.951
X104.823 Z-8.085
X106.295 Z-8.243
X107.094 Z-8.332
X108.179 Z-8.459
X109.792 Z-8.55
X111.371 Z-8.676
X112.881 Z-8.789
X114.281 Z-8.801
X116.19 Z-8.839
X117.626 Z-8.88
X120.196 Z-8.946
X120.728 Z-8.95
X121.832 Z-8.926
X123.124 Z-8.897
X125.621 Z-8.894
X127.98 Z-8.907
X130.308 Z-8.911
X132.376 Z-8.944
X134.914 Z-8.988
X138.584 Z-9.044
X140.001 Z-9.054
X141.021 Z-9.061
X141.863 Z-9.066
X143.686 Z-9.107
X145.015 Z-9.144
X146.677 Z-9.238
X148.552 Z-9.309
X149.297 Z-9.31
X150.638 Z-9.221
X152.372 Z-9.102
X153.43 Z-9.06
X154.73 Z-8.963
X156.413 Z-8.816
X157.317 Z-8.705
X159.787 Z-8.337
X162.999 Z-7.862
X164.209 Z-7.704
X165.186 Z-7.558
X166.508 Z-7.355
X167.79 Z-7.177
X170.043 Z-6.892
X170.785 Z-6.786
X173.018 Z-6.315
X175.471 Z-5.749
X177.545 Z-5.204
X178.52 Z-4.966
X179.383 Z-4.776
X180.46 Z-4.557
X181.366 Z-4.391
X183.398 Z-4.076
X184.31 Z-3.95
X185.081 Z-3.856
X186.169 Z-3.743
X187.258 Z-3.655
X188.213 Z-3.602
X190.199 Z-3.536
X191.479 Z-3.522
X192.672 Z-3.541
X193.788 Z-3.588
X195.639 Z-3.651
X197.839 Z-3.726
X201.315 Z-3.739
X204.362 Z-3.779
X204.942 Z-3.783
X206.277 Z-3.809
X207.606 Z-3.812
X208.316 Z-3.834
X209.614 Z-3.868
X212.179 Z-3.981
X213.473 Z-4.002
X225.466 Z-4.005
X227.224 Z-4.017
X227.75 Z-4.02
G2 X228.033 Z-3.955 I0.004 K0.635
G3 X228.313 Z-3.89 I0.279 K-0.57
G1 X228.315
G17 G3 X228.315 Y-133.16 I0 J0.2
G18 G2 X228.036 Z-3.955 I0 K-0.635
G3 X227.75 Z-4.02 I-0.279 K0.57
G1 X227.314 Z-4.015
X225.366 Z-4.005
X213.64 Z-4.002
X212.348 Z-3.982
X209.784 Z-3.868
X208.597 Z-3.838
X207.938 Z-3.812
X206.561 Z-3.809
X205.226 Z-3.783
X204.695 Z-3.779
X201.983 Z-3.741
X198.304 Z-3.725
X196.336 Z-3.657
X194.123 Z-3.558
X193.019 Z-3.502
X191.889 Z-3.478
X190.503 Z-3.481
X189.465 Z-3.509
X188.109 Z-3.55
X187.241 Z-3.593
X186.302 Z-3.657
X185.383 Z-3.739
X184.525 Z-3.829
X183.743 Z-3.924
X182.131 Z-4.146
X181.244 Z-4.281
X180.466 Z-4.417
X179.492 Z-4.603
X178.638 Z-4.782
X177.877 Z-4.959
X177.077 Z-5.163
X175.357 Z-5.614
X173.102 Z-6.133
X171.469 Z-6.488
X170.757 Z-6.64
X170.015 Z-6.748
X168.071 Z-6.999
X166.681 Z-7.195
X165.433 Z-7.388
X164.555 Z-7.526
X162.791 Z-7.763
X160.463 Z-8.111
X157.572 Z-8.554
X156.881 Z-8.647
X153.64 Z-8.94
X152.349 Z-8.994
X149.25 Z-9.163
X148.506 Z-9.154
X146.409 Z-9.077
X145.309 Z-9.02
X143.627 Z-8.981
X142.135 Z-8.956
X140.479 Z-8.959
X137.871 Z-8.972
X134.906 Z-8.944
X131.045 Z-8.861
X128.325 Z-8.857
X123.039 Z-8.86
X121.399 Z-8.891
X119.786 Z-8.924
X116.475 Z-8.818
X114.352 Z-8.774
X113.254 Z-8.765
X111.786 Z-8.653
X110.327 Z-8.531
X108.67 Z-8.438
X108.239 Z-8.42
X107.453 Z-8.327
X106.762 Z-8.239
X105.385 Z-8.093
X104.108 Z-7.938
X102.981 Z-7.838
X101.129 Z-7.63
X99.283 Z-7.434
X98.478 Z-7.356
X96.904 Z-7.242
X95.651 Z-7.121
X94.629 Z-6.961
X93.602 Z-6.81
X93.314 Z-6.771
X92.489 Z-6.635
X89.895 Z-6.237
X89.423 Z-6.169
X88.225 Z-5.957
X86.614 Z-5.683
X85.483 Z-5.531
X84.563 Z-5.38
X83.822 Z-5.262
X82.879 Z-5.118
X81.657 Z-4.895
X81.257 Z-4.813
X80.848 Z-4.733
X80.213 Z-4.63
X79.577 Z-4.538
X79.201 Z-4.501
X77.766 Z-4.408
X77.147 Z-4.377
X75.954 Z-4.294
X74.912 Z-4.19
X73.918 Z-4.064
X72.964 Z-3.926
X71.644 Z-3.772
X70.845 Z-3.677
X69.838 Z-3.578
X68.512 Z-3.443
X67.564 Z-3.379
X65.63 Z-3.308
X64.804 Z-3.309
X63.202 Z-3.343
X62.784 Z-3.36
X61.746 Z-3.358
X60.691 Z-3.381
X59.533 Z-3.442
X58.567 Z-3.523
X57.673 Z-3.627
X56.895 Z-3.742
X56.321 Z-3.844
X55.477 Z-4.02
X54.685 Z-4.21
X53.564 Z-4.513
X51.713 Z-5.034
X50.8 Z-5.269
X50.277 Z-5.382
X49.324 Z-5.527
X45.928 Z-5.997
X45.114 Z-6.128
X44.209 Z-6.288
X43.576 Z-6.413
X43.073 Z-6.522
X42.479 Z-6.664
X40.361 Z-7.2
X39.375 Z-7.45
X38.611 Z-7.661
X38.025 Z-7.835
X37.434 Z-8.025
X36.758 Z-8.269
X36.278 Z-8.454
X35.603 Z-8.73
X34.703 Z-9.119
X33.529 Z-9.655
X32.6 Z-10.067
X31.677 Z-10.438
X30.534 Z-10.855
X29.574 Z-11.174
X28.125 Z-11.636
X27.192 Z-11.956
X23.502 Z-13.282
X22.052 Z-13.779
X21.397 Z-14.006
X19.99 Z-14.294
X18.78 Z-14.573
X18.131 Z-14.741
X17.502 Z-14.92
X16.875 Z-15.125
X15.928 Z-15.466
X14.432 Z-16.007
X13.711 Z-16.247
X13.241 Z-16.389
X12.703 Z-16.533
X11.746 Z-16.761
X10.233 Z-17.114
X8.816 Z-17.475
X7.571 Z-17.809
X6.892 Z-17.964
X6.314 Z-18.076
X5.151 Z-18.273
X3.891 Z-18.464
X2.608 Z-18.663
X1.513 Z-18.865
X0.496 Z-19.083
X-0.009 Z-19.204
G3 X-0.436 Z-19.156 I-0.147 K0.618
G1 X-0.504 Z-19.122
G2 X-0.784 Z-19.058 I-0.279 K-0.57
G17 G2 X-0.784 Y-132.76 I0 J0.2
G1 X-0.695
G18 G3 X-0.415 Z-19.122 I0 K-0.635
G2 X-0.009 Z-19.174 I0.279 K0.57
G1 X1.297 Z-18.908
X2.512 Z-18.646
X3.216 Z-18.508
X4.055 Z-18.362
X4.923 Z-18.234
X5.79 Z-18.129
X6.667 Z-18.049
X7.003 Z-17.985
X7.577 Z-17.85
X8.963 Z-17.479
X10.323 Z-17.137
X12.629 Z-16.605
X13.356 Z-16.418
X13.818 Z-16.281
X14.683 Z-15.995
X16.971 Z-15.178
X17.654 Z-14.957
X18.334 Z-14.761
X19.275 Z-14.528
X20.275 Z-14.301
X20.773 Z-14.141
X23.746 Z-13.133
X26.713 Z-12.045
X27.849 Z-11.64
X29.523 Z-11.089
X30.372 Z-10.793
X31.064 Z-10.533
X31.85 Z-10.219
X32.627 Z-9.884
X34.576 Z-8.974
X35.385 Z-8.616
X36.004 Z-8.361
X36.755 Z-8.074
X37.413 Z-7.846
X38.04 Z-7.646
X38.988 Z-7.373
X39.875 Z-7.144
X42.301 Z-6.559
X43.001 Z-6.399
X43.599 Z-6.276
X44.189 Z-6.169
X45.119 Z-6.016
X45.876 Z-5.902
X46.827 Z-5.779
X48.637 Z-5.535
X49.957 Z-5.339
X50.693 Z-5.199
X51.514 Z-4.992
X53.117 Z-4.523
X54.048 Z-4.253
X54.869 Z-4.031
X55.675 Z-3.841
X56.391 Z-3.697
X57.066 Z-3.581
X57.721 Z-3.489
X58.591 Z-3.392
X59.603 Z-3.311
X60.629 Z-3.26
X61.585 Z-3.238
X62.6 Z-3.241
X63.37 Z-3.205
X64.734 Z-3.187
X65.496 Z-3.183
X66.235 Z-3.206
X67.488 Z-3.261
X68.288 Z-3.313
X69.035 Z-3.393
X71.067 Z-3.632
X72.108 Z-3.766
X73.108 Z-3.889
X74.116 Z-4.032
X74.891 Z-4.14
X75.861 Z-4.248
X76.822 Z-4.33
X77.889 Z-4.4
X79.572 Z-4.511
X80.5 Z-4.645
X81.029 Z-4.728
X81.447 Z-4.822
X82.055 Z-4.948
X82.971 Z-5.121
X83.743 Z-5.246
X84.537 Z-5.371
X85.492 Z-5.528
X86.55 Z-5.661
X87.652 Z-5.84
X88.795 Z-6.02
X90.354 Z-6.245
X91.095 Z-6.362
X91.604 Z-6.434
X92.866 Z-6.619
X93.278 Z-6.687
X93.81 Z-6.752
X94.235 Z-6.806
X94.976 Z-6.926
X95.685 Z-7.038
X96.837 Z-7.146
X98.619 Z-7.283
X99.369 Z-7.357
X100.785 Z-7.524
X101.827 Z-7.65
X103.137 Z-7.801
X104.459 Z-7.927
X105.831 Z-8.095
X107.143 Z-8.234
X108.13 Z-8.364
X108.62 Z-8.386
X110.812 Z-8.51
X111.989 Z-8.613
X113.525 Z-8.737
X114.423 Z-8.748
X116.717 Z-8.796
X119.613 Z-8.9
X121.168 Z-8.867
X123.034 Z-8.833
X129.642 Z-8.83
X131.362 Z-8.837
X134.58 Z-8.907
X136.193 Z-8.904
X137.505 Z-8.9
X138.59 Z-8.888
X139.911 Z-8.868
X141.106 Z-8.847
X142.921 Z-8.85
X144.321 Z-8.868
X145.65 Z-8.904
X146.464 Z-8.944
X148.66 Z-9.021
X149.424 Z-9.019
X151.707 Z-8.914
X153.75 Z-8.825
X155.887 Z-8.636
X156.766 Z-8.55
X157.774 Z-8.408
X159.965 Z-8.063
X160.972 Z-7.914
X162.825 Z-7.632
X164.459 Z-7.415
X165.643 Z-7.221
X166.86 Z-7.031
X168.313 Z-6.822
X170.076 Z-6.591
X170.711 Z-6.494
X171.736 Z-6.268
X173.076 Z-5.976
X175.311 Z-5.466
X177.136 Z-4.99
X178.228 Z-4.722
X178.908 Z-4.576
X179.707 Z-4.421
X180.614 Z-4.259
X181.312 Z-4.146
X182.224 Z-4.018
X183.659 Z-3.839
X184.532 Z-3.742
X185.597 Z-3.645
X186.588 Z-3.574
X187.926 Z-3.506
X189.737 Z-3.457
X191.076 Z-3.435
X192.464 Z-3.445
X193.654 Z-3.482
X194.638 Z-3.543
X197.079 Z-3.666
X198.701 Z-3.725
X202.384 Z-3.742
X204.933 Z-3.778
X205.442 Z-3.783
X206.794 Z-3.809
X208.183 Z-3.812
X208.824 Z-3.839
X209.91 Z-3.869
X212.448 Z-3.981
X213.726 Z-4.002
X225.982 Z-4.005
X227.75 Z-4.02
G2 X228.035 Z-3.955 I0.005 K0.635
G3 X228.314 Z-3.89 I0.279 K-0.57
G1 X228.315
G17 G3 X228.315 Y-132.36 I0 J0.2
G18 G2 X228.035 Z-3.955 I0 K-0.635
G3 X227.75 Z-4.02 I-0.279 K0.57
G1 X226.202 Z-4.005
X213.83 Z-4.002
X212.524 Z-3.98
X209.99 Z-3.868
X209.143 Z-3.845
X208.337 Z-3.812
X206.981 Z-3.809
X205.64 Z-3.783
X205.131 Z-3.777
X202.678 Z-3.741
X199.071 Z-3.726
X197.706 Z-3.674
X195.611 Z-3.562
X193.956 Z-3.455
X192.762 Z-3.411
X191.517 Z-3.393
X190.133 Z-3.406
X187.778 Z-3.465
X186.306 Z-3.535
X185.346 Z-3.599
X184.389 Z-3.68
X183.161 Z-3.806
X182.139 Z-3.924
X181.321 Z-4.031
X180.612 Z-4.137
X179.776 Z-4.276
X179.07 Z-4.404
X178.272 Z-4.565
X177.594 Z-4.722
X176.722 Z-4.942
X175.208 Z-5.332
X172.817 Z-5.872
X171.601 Z-6.141
X170.681 Z-6.348
X170.046 Z-6.447
X168.337 Z-6.672
X167.034 Z-6.863
X165.67 Z-7.081
X164.192 Z-7.331
X162.949 Z-7.493
X161.885 Z-7.656
X160.645 Z-7.843
X159.804 Z-7.969
X157.91 Z-8.275
X156.424 Z-8.486
X154.21 Z-8.689
X153.522 Z-8.727
X149.57 Z-8.876
X148.735 Z-8.881
X146.632 Z-8.817
X145.701 Z-8.778
X144.575 Z-8.746
X142.144 Z-8.737
X141.101 Z-8.744
X140.03 Z-8.774
X138.878 Z-8.805
X137.654 Z-8.832
X136.153 Z-8.854
X134.337 Z-8.874
X131.354 Z-8.81
X129.629 Z-8.803
X123.706 Z-8.798
X121.895 Z-8.821
X119.517 Z-8.876
X116.907 Z-8.774
X114.525 Z-8.722
X113.771 Z-8.711
X112.658 Z-8.615
X111.035 Z-8.473
X108.697 Z-8.335
X108.07 Z-8.31
X107.263 Z-8.206
X106.059 Z-8.073
X104.74 Z-7.914
X102.944 Z-7.726
X101.552 Z-7.547
X99.234 Z-7.258
X98.368 Z-7.182
X96.817 Z-7.053
X95.855 Z-6.967
X95.451 Z-6.915
X94.564 Z-6.76
X93.66 Z-6.652
X93.138 Z-6.587
X91.983 Z-6.417
X91.143 Z-6.306
X90.72 Z-6.24
X88.737 Z-5.951
X88.154 Z-5.86
X87.165 Z-5.739
X86.486 Z-5.643
X85.565 Z-5.536
X84.365 Z-5.341
X83.292 Z-5.166
X82.34 Z-4.982
X81.534 Z-4.806
X81.104 Z-4.707
X79.739 Z-4.508
X77.394 Z-4.346
X76.173 Z-4.239
X75.198 Z-4.132
X74.222 Z-3.996
X73.172 Z-3.842
X69.913 Z-3.405
X69.557 Z-3.356
X68.873 Z-3.259
X68.122 Z-3.186
X67.355 Z-3.141
X65.839 Z-3.067
X65.032 Z-3.059
X63.512 Z-3.069
X62.781 Z-3.101
X62.474 Z-3.119
X61.555 Z-3.114
X60.685 Z-3.131
X59.737 Z-3.173
X58.691 Z-3.252
X57.833 Z-3.343
X57.106 Z-3.441
X56.573 Z-3.527
X55.831 Z-3.667
X55.048 Z-3.845
X54.271 Z-4.05
X53.351 Z-4.319
X51.603 Z-4.849
X50.785 Z-5.064
X49.999 Z-5.229
X49.1 Z-5.379
X47.308 Z-5.635
X45.707 Z-5.83
X44.653 Z-5.983
X43.922 Z-6.096
X43.31 Z-6.203
X42.664 Z-6.335
X40.381 Z-6.855
X39.477 Z-7.078
X38.69 Z-7.286
X37.805 Z-7.545
X37.122 Z-7.764
X36.455 Z-8
X35.886 Z-8.221
X35.321 Z-8.454
X34.664 Z-8.742
X33.828 Z-9.13
X32.409 Z-9.813
X31.46 Z-10.236
X30.636 Z-10.57
X29.835 Z-10.874
X28.987 Z-11.172
X27.893 Z-11.54
X26.831 Z-11.922
X23.96 Z-12.992
X22.775 Z-13.4
X20.084 Z-14.271
X18.796 Z-14.674
X17.08 Z-15.216
X15.196 Z-15.796
X13.462 Z-16.32
X12.108 Z-16.699
X10.386 Z-17.136
X9.476 Z-17.382
X8.552 Z-17.633
X7.79 Z-17.839
X6.478 Z-17.925
X5.577 Z-18.011
X4.684 Z-18.122
X3.795 Z-18.258
X3.099 Z-18.38
X2.359 Z-18.526
X1.495 Z-18.715
X0.134 Z-19.01
X-0.009 Z-19.039
G3 X-0.417 Z-18.987 I-0.128 K0.622
G2 X-0.696 Z-18.923 I-0.279 K-0.57
G1 X-0.707
X-0.734 Y-132.358 Z-18.922
X-0.761 Y-132.353 Z-18.92
X-0.787 Y-132.344 Z-18.918
X-0.812 Y-132.333 Z-18.914
X-0.835 Y-132.318 Z-18.909
X-0.856 Y-132.301 Z-18.903
X-0.874 Y-132.281 Z-18.897
X-0.889 Y-132.26 Z-18.89
X-0.901 Y-132.236 Z-18.882
X-0.91 Y-132.211 Z-18.874
X-0.916 Y-132.186 Z-18.866
X-0.917 Y-132.16 Z-18.857
X-0.916 Y-132.133 Z-18.849
X-0.91 Y-132.108 Z-18.84
X-0.901 Y-132.083 Z-18.832
X-0.889 Y-132.06 Z-18.824
X-0.874 Y-132.038 Z-18.817
X-0.856 Y-132.018 Z-18.811
X-0.835 Y-132.001 Z-18.805
X-0.812 Y-131.986 Z-18.8
X-0.787 Y-131.975 Z-18.797
X-0.761 Y-131.966 Z-18.794
X-0.734 Y-131.961 Z-18.792
X-0.707 Y-131.96
G3 X-0.427 Z-18.856 I0 K-0.635
G2 X-0.009 Z-18.906 I0.279 K0.57
G1 X1.48 Z-18.572
X2.285 Z-18.395
X3.06 Z-18.242
X3.78 Z-18.118
X4.564 Z-18
X5.371 Z-17.897
X6.376 Z-17.795
X7.993 Z-17.683
X8.312 Z-17.645
X9.096 Z-17.426
X10.087 Z-17.152
X12.317 Z-16.577
X14.056 Z-16.071
X16.766 Z-15.224
X19.153 Z-14.459
X20.546 Z-14.03
X22.957 Z-13.268
X24.05 Z-12.891
X26.216 Z-12.077
X27.403 Z-11.632
X28.685 Z-11.181
X29.552 Z-10.872
X30.354 Z-10.56
X31.364 Z-10.127
X32.183 Z-9.755
X33.52 Z-9.099
X34.398 Z-8.677
X35.118 Z-8.357
X35.738 Z-8.102
X36.208 Z-7.922
X36.833 Z-7.697
X37.677 Z-7.424
X38.611 Z-7.15
X39.537 Z-6.905
X40.536 Z-6.663
X41.667 Z-6.417
X42.695 Z-6.199
X43.306 Z-6.085
X44.004 Z-5.975
X45.554 Z-5.763
X46.777 Z-5.618
X47.839 Z-5.479
X49.173 Z-5.27
X50.12 Z-5.092
X50.695 Z-4.963
X51.574 Z-4.725
X53.488 Z-4.133
X54.212 Z-3.919
X54.942 Z-3.725
X55.631 Z-3.568
X56.182 Z-3.458
X57.001 Z-3.321
X57.918 Z-3.199
X58.767 Z-3.113
X59.696 Z-3.044
X60.514 Z-3.006
X61.471 Z-2.988
X62.402 Z-2.994
X62.855 Z-2.964
X63.581 Z-2.934
X65.083 Z-2.935
X65.914 Z-2.946
X67.649 Z-3.041
X68.429 Z-3.098
X69.174 Z-3.184
X69.851 Z-3.293
X70.169 Z-3.342
X73.852 Z-3.887
X75.034 Z-4.063
X76.209 Z-4.202
X77.405 Z-4.317
X79.926 Z-4.51
X81.264 Z-4.708
X82.221 Z-4.929
X83.321 Z-5.156
X84.23 Z-5.317
X85.866 Z-5.525
X87.418 Z-5.723
X88.567 Z-5.862
X89.085 Z-5.943
X90.962 Z-6.219
X92.333 Z-6.397
X92.757 Z-6.457
X93.332 Z-6.535
X94.291 Z-6.643
X94.981 Z-6.738
X95.497 Z-6.83
X95.901 Z-6.885
X96.751 Z-6.958
X98.34 Z-7.098
X99.224 Z-7.175
X100.915 Z-7.389
X102.049 Z-7.55
X103.25 Z-7.707
X104.509 Z-7.842
X105.733 Z-7.984
X107.149 Z-8.153
X107.903 Z-8.245
X108.807 Z-8.285
X111.11 Z-8.428
X114.007 Z-8.686
X114.554 Z-8.695
X117.043 Z-8.751
X119.299 Z-8.844
X120.449 Z-8.816
X122.46 Z-8.771
X123.863 Z-8.756
X126.066 Z-8.764
X129.59 Z-8.775
X131.389 Z-8.783
X134.213 Z-8.844
X136.728 Z-8.791
X140.39 Z-8.67
X141.736 Z-8.63
X144.909 Z-8.629
X146.889 Z-8.689
X148.555 Z-8.736
X149.593 Z-8.735
X153.146 Z-8.631
X154.268 Z-8.583
X155.657 Z-8.465
X156.297 Z-8.395
X157.783 Z-8.182
X159.82 Z-7.851
X160.873 Z-7.696
X162.683 Z-7.414
X164.169 Z-7.211
X165.951 Z-6.896
X167.102 Z-6.709
X168.332 Z-6.526
X169.952 Z-6.312
X170.613 Z-6.211
X172.233 Z-5.844
X175.106 Z-5.194
X176.842 Z-4.758
X177.644 Z-4.563
X178.322 Z-4.414
X179.134 Z-4.26
X180.043 Z-4.11
X180.954 Z-3.975
X181.772 Z-3.87
X182.688 Z-3.769
X183.779 Z-3.666
X185.061 Z-3.56
X186.037 Z-3.498
X187.368 Z-3.438
X188.655 Z-3.404
X190.249 Z-3.362
X191.673 Z-3.354
X192.886 Z-3.373
X194.077 Z-3.421
X196.67 Z-3.594
X198.377 Z-3.688
X199.437 Z-3.727
X202.735 Z-3.739
X205.311 Z-3.776
X205.805 Z-3.783
X207.135 Z-3.809
X208.517 Z-3.812
X209.357 Z-3.847
X210.054 Z-3.868
X212.556 Z-3.979
X213.904 Z-4.002
X226.216 Z-4.005
X227.75 Z-4.019
G2 X228.035 Z-3.954 I0.006 K0.635
G3 X228.314 Z-3.889 I0.279 K-0.57
G1 X228.419
G17 G3 X228.419 Y-131.56 I0 J0.2
G18 G2 X228.14 Z-3.954 I0 K-0.635
G3 X227.855 Z-4.019 I-0.279 K0.57
G1 X227.75 Z-4.018
X226.167 Z-4.005
X213.95 Z-4.002
X212.646 Z-3.979
X210.05 Z-3.867
X209.329 Z-3.84
X208.619 Z-3.812
X207.261 Z-3.809
X205.896 Z-3.783
X203.23 Z-3.741
X199.652 Z-3.726
X198.707 Z-3.689
X197.077 Z-3.594
X195.421 Z-3.477
X194.43 Z-3.4
X193.504 Z-3.354
X189.121 Z-3.355
X188.198 Z-3.384
X186.79 Z-3.422
X185.323 Z-3.491
X184.116 Z-3.574
X182.568 Z-3.701
X181.731 Z-3.785
X180.923 Z-3.88
X180.095 Z-3.991
X179.227 Z-4.123
X178.477 Z-4.253
X177.842 Z-4.38
X177.073 Z-4.553
X175.658 Z-4.9
X172.902 Z-5.539
X170.606 Z-6.062
X169.865 Z-6.178
X168.304 Z-6.385
X167.119 Z-6.562
X166.082 Z-6.734
X164.786 Z-6.971
X163.953 Z-7.118
X162.723 Z-7.292
X161.518 Z-7.485
X159.759 Z-7.748
X157.675 Z-8.088
X156.084 Z-8.316
X155.55 Z-8.378
X154.336 Z-8.476
X152.916 Z-8.527
X149.568 Z-8.593
X148.604
X147.818 Z-8.572
X147.134 Z-8.561
X146.444 Z-8.545
X145.775 Z-8.531
X145.045 Z-8.519
X142.108 Z-8.521
X140.506 Z-8.57
X139.388 Z-8.619
X137.792 Z-8.689
X136.349 Z-8.732
X134.779 Z-8.781
X133.882 Z-8.809
X131.369 Z-8.755
X129.569 Z-8.748
X127.525 Z-8.74
X124.291 Z-8.705
X123.073 Z-8.709
X121.377 Z-8.743
X119.071 Z-8.809
X117.124 Z-8.726
X115.287 Z-8.686
X114.571 Z-8.684
X113.793 Z-8.625
X111.299 Z-8.392
X109.033 Z-8.243
X107.886 Z-8.202
X105.371 Z-7.894
X104.199 Z-7.765
X103.114 Z-7.633
X101.825 Z-7.447
X101.153 Z-7.342
X99.411 Z-7.114
X98.069 Z-6.985
X96.217 Z-6.83
X95.696 Z-6.77
X95.39 Z-6.717
X94.436 Z-6.579
X93.77 Z-6.502
X93.151 Z-6.443
X92.737 Z-6.384
X91.461 Z-6.226
X90.654 Z-6.118
X88.779 Z-5.834
X86.472 Z-5.541
X85.727 Z-5.453
X84.409 Z-5.289
X83.594 Z-5.167
X83.287 Z-5.12
X82.228 Z-4.899
X81.561 Z-4.742
X81.193 Z-4.674
X80.185 Z-4.527
X79.703 Z-4.478
X79.382 Z-4.45
X78.54 Z-4.378
X77.655 Z-4.306
X76.361 Z-4.175
X75.037 Z-4.014
X73.821 Z-3.827
X71.699 Z-3.488
X70.144 Z-3.236
X69.459 Z-3.112
X68.875 Z-3.034
X68.054 Z-2.967
X67.187 Z-2.911
X66.444 Z-2.849
X65.688 Z-2.817
X64.528 Z-2.803
X63.795 Z-2.794
X63.104 Z-2.813
X62.345 Z-2.866
X61.164 Z-2.86
X60.159 Z-2.886
X59.276 Z-2.936
X58.318 Z-3.02
X57.518 Z-3.112
X56.757 Z-3.22
X56.023 Z-3.345
X55.331 Z-3.486
X54.608 Z-3.662
X54.03 Z-3.822
X53.352 Z-4.024
X51.337 Z-4.653
X50.511 Z-4.879
X49.78 Z-5.046
X48.738 Z-5.245
X47.501 Z-5.444
X46.544 Z-5.567
X45.097 Z-5.74
X43.817 Z-5.899
X43.187 Z-5.994
X42.586 Z-6.099
X41.65 Z-6.283
X40.654 Z-6.491
X39.943 Z-6.655
X39.248 Z-6.831
X38.451 Z-7.046
X37.512 Z-7.327
X36.691 Z-7.593
X36.117 Z-7.8
X35.491 Z-8.039
X34.863 Z-8.301
X34.222 Z-8.588
X33.549 Z-8.909
X31.948 Z-9.707
X30.988 Z-10.156
X30.076 Z-10.551
X29.218 Z-10.892
X28.435 Z-11.182
X27.447 Z-11.537
X26.375 Z-11.944
X24.493 Z-12.661
X23.402 Z-13.047
X22.198 Z-13.43
X19.399 Z-14.278
X18.329 Z-14.625
X14.843 Z-15.754
X12.916 Z-16.338
X11.791 Z-16.653
X10.172 Z-17.067
X9.457 Z-17.251
X8.749 Z-17.418
X8.221 Z-17.509
X7.571 Z-17.569
X6.211 Z-17.674
X5.389 Z-17.76
X4.486 Z-17.876
X3.692 Z-17.996
X2.95 Z-18.125
X2.163 Z-18.28
X1.381 Z-18.455
X-0.009 Z-18.776
G3 X-0.431 Z-18.727 I-0.143 K0.619
G2 X-0.711 Z-18.662 I-0.279 K-0.57
G1 X-0.714
X-0.742 Y-131.558
X-0.768 Y-131.553 Z-18.66
X-0.794 Y-131.544 Z-18.658
X-0.819 Y-131.533 Z-18.654
X-0.842 Y-131.518 Z-18.649
X-0.862 Y-131.501 Z-18.644
X-0.881 Y-131.481 Z-18.638
X-0.896 Y-131.46 Z-18.631
X-0.908 Y-131.436 Z-18.624
X-0.917 Y-131.411 Z-18.616
X-0.922 Y-131.386 Z-18.608
X-0.924 Y-131.36 Z-18.6
X-0.922 Y-131.333 Z-18.591
X-0.917 Y-131.308 Z-18.583
X-0.908 Y-131.283 Z-18.576
X-0.896 Y-131.26 Z-18.568
X-0.881 Y-131.238 Z-18.561
X-0.862 Y-131.218 Z-18.555
X-0.842 Y-131.201 Z-18.55
X-0.819 Y-131.186 Z-18.545
X-0.794 Y-131.175 Z-18.542
X-0.768 Y-131.166 Z-18.539
X-0.742 Y-131.161 Z-18.537
X-0.714 Y-131.16
G3 X-0.435 Z-18.602 I0 K-0.635
G2 X-0.009 Z-18.649 I0.279 K0.57
G1 X1.164 Z-18.372
X2.062 Z-18.168
X2.813 Z-18.019
X3.567 Z-17.887
X4.213 Z-17.786
X5.215 Z-17.65
X6.072 Z-17.555
X7.504 Z-17.431
X8.146 Z-17.363
X8.78 Z-17.258
X10.087 Z-16.976
X10.85 Z-16.828
X11.619 Z-16.636
X12.394 Z-16.423
X14.343 Z-15.834
X16.339 Z-15.183
X18.76 Z-14.38
X19.556 Z-14.125
X20.736 Z-13.77
X22.73 Z-13.186
X23.718 Z-12.867
X24.717 Z-12.51
X27.076 Z-11.601
X29.052 Z-10.859
X29.835 Z-10.536
X30.471 Z-10.254
X31.587 Z-9.732
X33.367 Z-8.838
X34.179 Z-8.451
X34.66 Z-8.238
X35.183 Z-8.016
X35.772 Z-7.785
X36.386 Z-7.561
X37.127 Z-7.31
X37.577 Z-7.169
X38.51 Z-6.889
X39.208 Z-6.7
X39.857 Z-6.536
X40.711 Z-6.341
X41.638 Z-6.155
X42.46 Z-6.005
X43.035 Z-5.909
X43.762 Z-5.807
X44.593 Z-5.713
X46.626 Z-5.481
X47.528 Z-5.354
X48.541 Z-5.178
X49.685 Z-4.946
X50.518 Z-4.745
X51.136 Z-4.569
X53.241 Z-3.906
X54.011 Z-3.675
X54.604 Z-3.512
X55.359 Z-3.331
X55.969 Z-3.211
X56.633 Z-3.096
X57.47 Z-2.976
X58.3 Z-2.881
X59.163 Z-2.806
X60.314 Z-2.745
X61.383 Z-2.728
X62.236 Z-2.74
X62.577 Z-2.71
X63.294 Z-2.668
X64.051 Z-2.657
X64.862 Z-2.678
X65.78 Z-2.696
X66.537 Z-2.732
X67.294 Z-2.799
X68.142 Z-2.877
X68.957 Z-2.947
X69.701 Z-3.04
X70.228 Z-3.138
X71.213 Z-3.319
X72.094 Z-3.475
X74.158 Z-3.827
X75.148 Z-3.979
X76.701 Z-4.168
X78.057 Z-4.308
X78.978 Z-4.384
X79.661 Z-4.457
X79.933 Z-4.484
X80.445 Z-4.545
X81.26 Z-4.661
X81.681 Z-4.743
X82.298 Z-4.879
X83.274 Z-5.074
X84.102 Z-5.188
X84.633 Z-5.263
X86.697 Z-5.504
X88.96 Z-5.801
X89.755 Z-5.922
X91.238 Z-6.141
X91.814 Z-6.207
X93.186 Z-6.377
X94.476 Z-6.502
X95.738 Z-6.686
X96.638 Z-6.792
X97.727 Z-6.883
X98.647 Z-6.963
X99.558 Z-7.05
X101.247 Z-7.278
X101.934 Z-7.389
X102.854 Z-7.537
X103.894 Z-7.681
X105.63 Z-7.882
X107.79 Z-8.144
X108.457 Z-8.192
X109.788 Z-8.241
X111.033 Z-8.323
X111.924 Z-8.398
X114.316 Z-8.629
X115.172 Z-8.685
X116.113 Z-8.686
X117.46 Z-8.713
X118.817 Z-8.77
X119.289 Z-8.755
X120.526 Z-8.703
X122.337 Z-8.657
X123.661 Z-8.634
X124.687 Z-8.647
X127.813 Z-8.708
X128.938 Z-8.718
X131.289 Z-8.727
X133.574 Z-8.774
X134.852 Z-8.726
X135.766 Z-8.687
X137.029 Z-8.648
X137.775 Z-8.618
X139.016 Z-8.554
X139.88 Z-8.504
X141.026 Z-8.457
X142.508 Z-8.412
X145.249 Z-8.409
X146.538 Z-8.422
X147.624 Z-8.434
X148.536 Z-8.44
X149.981 Z-8.446
X151.041 Z-8.434
X153.005 Z-8.413
X154.513 Z-8.364
X155.58 Z-8.275
X155.899 Z-8.239
X157.596 Z-7.993
X159.726 Z-7.643
X160.897 Z-7.467
X162.494 Z-7.211
X163.977 Z-6.989
X165.678 Z-6.668
X166.716 Z-6.487
X167.896 Z-6.303
X169.875 Z-6.03
X170.614 Z-5.908
X171.533 Z-5.699
X176.104 Z-4.639
X177.117 Z-4.405
X177.736 Z-4.274
X178.335 Z-4.159
X179.153 Z-4.025
X180.029 Z-3.901
X180.883 Z-3.795
X181.775 Z-3.701
X183.027 Z-3.593
X185.026 Z-3.463
X186.308 Z-3.406
X188.256 Z-3.357
X194.274 Z-3.353
X194.845 Z-3.387
X195.762 Z-3.471
X196.573 Z-3.531
X198.449 Z-3.659
X199.669 Z-3.72
X200.764 Z-3.733
X203.613 Z-3.743
X205.999 Z-3.783
X207.378 Z-3.809
X208.707 Z-3.812
X209.127 Z-3.826
X210.459 Z-3.881
X212.706 Z-3.979
X213.994 Z-4.002
X226.167 Z-4.005
X227.75 Z-4.018
X227.771
G2 X228.056 Z-3.953 I0.005 K0.635
G3 X228.335 Z-3.888 I0.279 K-0.57
G17 G3 X228.335 Y-130.76 I0 J0.2
G1 X228.314
G18 G2 X228.034 Z-3.953 I0 K-0.635
G3 X227.75 Z-4.018 I-0.279 K0.57
G1 X226.167 Z-4.005
X214.059 Z-4.003
X212.686 Z-3.978
X208.812 Z-3.812
X207.495 Z-3.809
X203.948 Z-3.745
X201.428 Z-3.733
X199.981 Z-3.724
X198.929 Z-3.672
X197.323 Z-3.561
X196.143 Z-3.469
X195.18 Z-3.373
X194.88 Z-3.353
X187.734 Z-3.354
X186.158 Z-3.382
X184.922 Z-3.429
X183.012 Z-3.536
X182.111 Z-3.602
X181.172 Z-3.687
X180.255 Z-3.786
X179.448 Z-3.886
X178.653 Z-4.001
X178.04 Z-4.101
X177.323 Z-4.235
X176.505 Z-4.408
X172.962 Z-5.204
X171.554 Z-5.533
X170.625 Z-5.747
X169.887 Z-5.879
X167.639 Z-6.203
X166.662 Z-6.359
X165.621 Z-6.543
X163.897 Z-6.873
X162.363 Z-7.113
X160.914 Z-7.35
X159.723 Z-7.532
X157.392 Z-7.92
X155.722 Z-8.163
X154.694 Z-8.251
X153.111 Z-8.3
X142.896 Z-8.302
X141.189 Z-8.356
X140.106 Z-8.405
X138.897 Z-8.481
X137.466 Z-8.565
X135.894 Z-8.622
X134.736 Z-8.679
X133.326 Z-8.74
X131.431 Z-8.701
X129.509 Z-8.687
X128.336 Z-8.682
X125.391 Z-8.602
X124.265 Z-8.57
X123.271 Z-8.569
X121.039 Z-8.621
X119.63 Z-8.686
X118.565 Z-8.732
X117.813 Z-8.707
X116.681 Z-8.686
X115.797 Z-8.683
X115.31 Z-8.665
X114.433 Z-8.601
X111.739 Z-8.331
X110.374 Z-8.241
X109.073 Z-8.194
X108.005 Z-8.118
X107.277 Z-8.044
X106.319 Z-7.926
X104.553 Z-7.716
X103.417 Z-7.561
X102.274 Z-7.377
X101.6 Z-7.253
X99.646 Z-6.987
X98.897 Z-6.913
X97.865 Z-6.825
X96.696 Z-6.733
X96.127 Z-6.664
X94.859 Z-6.48
X93.526 Z-6.355
X92.271 Z-6.199
X91.333 Z-6.095
X90.114 Z-5.916
X89.266 Z-5.787
X87.791 Z-5.583
X86.739 Z-5.446
X83.823 Z-5.107
X83.208 Z-5.017
X82.504 Z-4.879
X81.558 Z-4.687
X80.923 Z-4.592
X79.339 Z-4.391
X78.323 Z-4.299
X76.714 Z-4.123
X75.316 Z-3.95
X74.558 Z-3.837
X73.076 Z-3.577
X72.007 Z-3.374
X69.965 Z-2.985
X69.223 Z-2.881
X68.419 Z-2.802
X67.504 Z-2.701
X66.782 Z-2.627
X66.026 Z-2.581
X64.186 Z-2.522
X63.41 Z-2.528
X62.7 Z-2.564
X62.048 Z-2.609
X61.197 Z-2.598
X60.343 Z-2.609
X59.246 Z-2.66
X58.18 Z-2.75
X57.224 Z-2.863
X56.382 Z-2.989
X55.545 Z-3.144
X54.97 Z-3.272
X54.295 Z-3.442
X53.523 Z-3.664
X52.45 Z-4.001
X50.734 Z-4.544
X50.011 Z-4.741
X48.899 Z-4.997
X47.876 Z-5.202
X46.936 Z-5.36
X46.086 Z-5.472
X45.03 Z-5.585
X44.094 Z-5.672
X43.26 Z-5.771
X42.466 Z-5.889
X41.711 Z-6.018
X41.016 Z-6.15
X40.23 Z-6.314
X39.543 Z-6.48
X38.704 Z-6.701
X37.769 Z-6.976
X36.994 Z-7.226
X36.164 Z-7.508
X35.195 Z-7.878
X34.532 Z-8.153
X33.77 Z-8.496
X32.986 Z-8.882
X31.291 Z-9.738
X30.19 Z-10.261
X29.455 Z-10.587
X28.812 Z-10.854
X27.896 Z-11.213
X26.816 Z-11.63
X24.958 Z-12.353
X23.87 Z-12.744
X22.87 Z-13.062
X21.158 Z-13.545
X19.853 Z-13.93
X19.168 Z-14.144
X18.283 Z-14.437
X14.597 Z-15.677
X12.467 Z-16.336
X11.78 Z-16.532
X10.884 Z-16.675
X10.305 Z-16.783
X8.783 Z-17.094
X8.055 Z-17.214
X7.309 Z-17.3
X5.898 Z-17.441
X5.005 Z-17.549
X4.051 Z-17.685
X3.312 Z-17.806
X2.406 Z-17.974
X1.855 Z-18.086
X1.004 Z-18.282
X-0.009 Z-18.527
G3 X-0.438 Z-18.48 I-0.149 K0.617
G2 X-0.717 Z-18.415 I-0.279 K-0.57
G1 X-0.719
X-0.747 Y-130.758
X-0.773 Y-130.753 Z-18.413
X-0.799 Y-130.744 Z-18.411
X-0.824 Y-130.733 Z-18.407
X-0.846 Y-130.718 Z-18.403
X-0.867 Y-130.701 Z-18.398
X-0.885 Y-130.681 Z-18.392
X-0.9 Y-130.66 Z-18.386
X-0.912 Y-130.636 Z-18.379
X-0.921 Y-130.611 Z-18.371
X-0.926 Y-130.586 Z-18.364
X-0.928 Y-130.56 Z-18.356
X-0.926 Y-130.533 Z-18.349
X-0.921 Y-130.508 Z-18.341
X-0.912 Y-130.483 Z-18.334
X-0.9 Y-130.46 Z-18.327
X-0.885 Y-130.438 Z-18.32
X-0.867 Y-130.418 Z-18.315
X-0.846 Y-130.401 Z-18.31
X-0.824 Y-130.386 Z-18.305
X-0.799 Y-130.375 Z-18.302
X-0.773 Y-130.366 Z-18.299
X-0.747 Y-130.361 Z-18.298
X-0.719 Y-130.36 Z-18.297
G3 X-0.44 Z-18.362 I0 K-0.635
G2 X-0.009 Z-18.409 I0.279 K0.57
G1 X0.972 Z-18.168
X1.812 Z-17.975
X2.705 Z-17.795
X3.717 Z-17.617
X4.866 Z-17.441
X5.662 Z-17.335
X6.662 Z-17.218
X7.81 Z-17.08
X8.551 Z-16.962
X9.897 Z-16.701
X10.708 Z-16.548
X11.394 Z-16.434
X12.387 Z-16.293
X14.171 Z-15.735
X15.492 Z-15.294
X18.665 Z-14.206
X19.388 Z-13.971
X20.537 Z-13.624
X21.58 Z-13.326
X22.704 Z-13.025
X23.373 Z-12.833
X24.279 Z-12.536
X25.274 Z-12.169
X28.203 Z-11.011
X29.095 Z-10.643
X30.023 Z-10.224
X31.083 Z-9.711
X32.928 Z-8.775
X33.65 Z-8.424
X34.314 Z-8.123
X34.847 Z-7.895
X35.575 Z-7.608
X36.351 Z-7.322
X37.323 Z-6.996
X37.921 Z-6.804
X38.949 Z-6.506
X39.598 Z-6.339
X40.191 Z-6.197
X41.073 Z-6.017
X41.662 Z-5.91
X42.477 Z-5.778
X43.272 Z-5.67
X43.986 Z-5.592
X44.71 Z-5.527
X45.788 Z-5.434
X46.744 Z-5.306
X47.588 Z-5.159
X48.594 Z-4.948
X49.823 Z-4.653
X50.648 Z-4.423
X52.637 Z-3.784
X53.691 Z-3.459
X54.511 Z-3.232
X55.152 Z-3.08
X55.777 Z-2.949
X56.64 Z-2.798
X57.483 Z-2.68
X58.175 Z-2.604
X58.956 Z-2.54
X59.808 Z-2.492
X60.779 Z-2.468
X61.791 Z-2.474
X62.252 Z-2.461
X62.838 Z-2.426
X63.579 Z-2.397
X64.314
X65.728 Z-2.452
X66.559 Z-2.491
X67.318 Z-2.557
X68.329 Z-2.681
X69.383 Z-2.805
X70.072 Z-2.908
X71.691 Z-3.225
X72.851 Z-3.462
X74.203 Z-3.718
X75.059 Z-3.861
X76.185 Z-4.012
X78.537 Z-4.285
X79.438 Z-4.374
X81.169 Z-4.602
X81.911 Z-4.715
X83.193 Z-4.97
X84.169 Z-5.101
X84.756 Z-5.153
X86.886 Z-5.395
X88.426 Z-5.603
X90.313 Z-5.884
X91.436 Z-6.049
X92.587 Z-6.177
X93.013 Z-6.227
X94.205 Z-6.37
X95.32 Z-6.479
X96.327 Z-6.626
X96.784 Z-6.688
X97.16 Z-6.706
X98.767 Z-6.829
X99.572 Z-6.906
X100.315 Z-7.004
X101.896 Z-7.228
X102.317 Z-7.308
X102.939 Z-7.422
X103.923 Z-7.579
X105.208 Z-7.754
X107.186 Z-7.996
X108.567 Z-8.121
X109.567 Z-8.193
X110.801 Z-8.239
X112.164 Z-8.329
X114.726 Z-8.589
X115.633 Z-8.655
X117.676 Z-8.691
X118.259 Z-8.697
X119.7 Z-8.627
X120.799 Z-8.572
X122.22 Z-8.541
X123.574 Z-8.522
X124.935 Z-8.534
X128.321 Z-8.643
X128.923 Z-8.652
X131.089 Z-8.661
X133.208 Z-8.706
X134.162 Z-8.657
X135.795 Z-8.57
X137.298 Z-8.51
X140.014 Z-8.327
X141.175 Z-8.265
X142.905 Z-8.21
X144.6 Z-8.193
X153.093 Z-8.19
X154.604 Z-8.162
X155.757 Z-8.06
X157.188 Z-7.849
X159.576 Z-7.446
X160.581 Z-7.284
X162.24 Z-7.012
X163.868 Z-6.747
X165.12 Z-6.505
X166.11 Z-6.319
X167.196 Z-6.135
X169.665 Z-5.763
X170.508 Z-5.608
X171.437 Z-5.393
X172.51 Z-5.141
X173.944 Z-4.824
X176.422 Z-4.301
X177.29 Z-4.131
X177.949 Z-4.015
X178.802 Z-3.887
X179.582 Z-3.787
X180.525 Z-3.683
X181.536 Z-3.589
X182.715 Z-3.503
X184.771 Z-3.402
X185.999 Z-3.363
X187.526 Z-3.346
X191.344 Z-3.35
X195.428 Z-3.355
X196.443 Z-3.458
X197.612 Z-3.559
X199.317 Z-3.682
X200.271 Z-3.726
X203.819 Z-3.742
X205.728 Z-3.772
X207.542 Z-3.809
X208.844 Z-3.812
X211.518 Z-3.93
X212.734 Z-3.979
X214.023 Z-4.002
X226.216 Z-4.005
X227.75 Z-4.018
G2 X228.035 Z-3.954 I0.005 K0.635
G3 X228.314 Z-3.889 I0.279 K-0.57
G1 X228.318
G17 G3 X228.318 Y-129.96 I0 J0.2
G18 G2 X228.038 Z-3.954 I0 K-0.635
G1 X228.036 Z-3.955
G3 X227.75 Z-4.02 I-0.279 K0.57
G1 X226.315 Z-4.005
X214.057 Z-4.002
X212.506 Z-3.972
X208.878 Z-3.812
X207.6 Z-3.809
X205.042 Z-3.757
X202.674 Z-3.734
X200.548 Z-3.727
X200.141 Z-3.716
X199.114 Z-3.655
X197.716 Z-3.544
X196.131 Z-3.387
X195.748 Z-3.353
X192.321 Z-3.35
X188.357 Z-3.338
X186.007 Z-3.346
X184.621 Z-3.38
X182.782 Z-3.454
X181.904 Z-3.507
X180.85 Z-3.59
X179.88 Z-3.683
X178.976 Z-3.786
X178.169 Z-3.893
X177.46 Z-4.003
X176.837 Z-4.111
X175.721 Z-4.321
X174.196 Z-4.619
X172.979 Z-4.872
X171.997 Z-5.09
X170.381 Z-5.469
X169.539 Z-5.631
X167.106 Z-6.013
X166.103 Z-6.186
X165.114 Z-6.372
X163.768 Z-6.633
X161.908 Z-6.944
X159.541 Z-7.338
X157.133 Z-7.753
X155.703 Z-7.968
X154.776 Z-8.061
X152.937 Z-8.081
X145.008 Z-8.084
X143.949 Z-8.1
X142.616 Z-8.125
X141.214 Z-8.176
X139.831 Z-8.258
X138.317 Z-8.37
X137.517 Z-8.43
X136.959 Z-8.467
X135.398 Z-8.542
X133.131 Z-8.67
X130.892 Z-8.617
X128.511 Z-8.609
X124.941 Z-8.493
X123.631 Z-8.48
X121.286 Z-8.507
X120.175 Z-8.549
X118.208 Z-8.639
X115.372 Z-8.611
X114.805 Z-8.557
X112.506 Z-8.326
X111.206 Z-8.24
X110.221 Z-8.201
X109.235 Z-8.136
X107.939 Z-8.017
X106.724 Z-7.902
X105.129 Z-7.7
X103.942 Z-7.528
X102.965 Z-7.361
X102.022 Z-7.184
X101.073 Z-7.049
X100.083 Z-6.897
X99.338 Z-6.809
X97.844 Z-6.695
X96.92 Z-6.648
X96.271 Z-6.561
X95.661 Z-6.473
X94.551 Z-6.352
X93.323 Z-6.202
X92.79 Z-6.143
X91.697 Z-6.022
X90.928 Z-5.918
X88.418 Z-5.533
X86.877 Z-5.325
X85.12 Z-5.127
X84.172 Z-5.048
X83.16 Z-4.922
X82.314 Z-4.752
X81.493 Z-4.627
X79.912 Z-4.409
X79.38 Z-4.341
X78.749 Z-4.272
X75.889 Z-3.922
X74.912 Z-3.782
X73.912 Z-3.601
X72.392 Z-3.288
X71.815 Z-3.162
X70.733 Z-2.943
X70.102 Z-2.817
X69.107 Z-2.667
X67.257 Z-2.432
X66.494 Z-2.368
X64.987 Z-2.295
X64.298 Z-2.269
X63.503 Z-2.271
X62.563 Z-2.306
X61.835 Z-2.326
X61.492 Z-2.342
X60.605 Z-2.339
X59.742 Z-2.357
X58.915 Z-2.399
X58.15 Z-2.459
X57.504 Z-2.527
X56.672 Z-2.64
X55.797 Z-2.791
X55.115 Z-2.935
X54.532 Z-3.073
X53.751 Z-3.286
X52.977 Z-3.52
X51.896 Z-3.867
X50.5 Z-4.318
X49.728 Z-4.54
X48.752 Z-4.792
X47.751 Z-5.024
X46.816 Z-5.209
X46.075 Z-5.324
X45.542 Z-5.383
X44.007 Z-5.503
X43.17 Z-5.589
X42.387 Z-5.689
X41.548 Z-5.82
X40.957 Z-5.925
X40.264 Z-6.063
X39.565 Z-6.225
X38.835 Z-6.415
X37.893 Z-6.692
X36.723 Z-7.079
X35.7 Z-7.448
X34.799 Z-7.805
X34.259 Z-8.03
X33.464 Z-8.391
X32.542 Z-8.848
X30.565 Z-9.852
X29.502 Z-10.361
X28.77 Z-10.69
X27.732 Z-11.123
X25.395 Z-12.061
X24.502 Z-12.393
X23.736 Z-12.65
X23.114 Z-12.831
X21.931 Z-13.134
X21.054 Z-13.376
X19.736 Z-13.764
X18.982 Z-14.002
X18.154 Z-14.279
X15.923 Z-15.055
X14.516 Z-15.544
X12.894 Z-16.063
X11.37 Z-16.274
X10.683 Z-16.385
X9.976 Z-16.513
X8.323 Z-16.822
X7.264 Z-16.986
X5.523 Z-17.216
X4.633 Z-17.347
X3.534 Z-17.528
X2.429 Z-17.733
X1.632 Z-17.9
X0.735 Z-18.11
X-0.009 Z-18.295
G3 X-0.442 Z-18.249 I-0.153 K0.616
G2 X-0.721 Z-18.184 I-0.279 K-0.57
G1 X-0.723
X-0.75 Y-129.958
X-0.777 Y-129.953 Z-18.182
X-0.802 Y-129.944 Z-18.18
X-0.827 Y-129.933 Z-18.177
X-0.849 Y-129.918 Z-18.173
X-0.87 Y-129.901 Z-18.169
X-0.888 Y-129.881 Z-18.163
X-0.903 Y-129.86 Z-18.157
X-0.915 Y-129.836 Z-18.151
X-0.923 Y-129.811 Z-18.144
X-0.929 Y-129.786 Z-18.138
X-0.93 Y-129.76 Z-18.131
X-0.929 Y-129.733 Z-18.124
X-0.923 Y-129.708 Z-18.117
X-0.915 Y-129.683 Z-18.11
X-0.903 Y-129.66 Z-18.104
X-0.888 Y-129.638 Z-18.098
X-0.87 Y-129.618 Z-18.093
X-0.849 Y-129.601 Z-18.088
X-0.827 Y-129.586 Z-18.084
X-0.802 Y-129.575 Z-18.081
X-0.777 Y-129.566 Z-18.079
X-0.75 Y-129.561 Z-18.077
X-0.723 Y-129.56
G3 X-0.444 Z-18.142 I0 K-0.635
G2 X-0.009 Z-18.187 I0.279 K0.57
G1 X0.633 Z-18.025
X1.342 Z-17.857
X2.278 Z-17.652
X3.476 Z-17.418
X4.858 Z-17.177
X6.605 Z-16.913
X7.796 Z-16.729
X10.285 Z-16.28
X11.22 Z-16.128
X12.413 Z-15.965
X13.419 Z-15.817
X14.491 Z-15.472
X15.933 Z-14.961
X17.308 Z-14.479
X18.798 Z-13.966
X19.502 Z-13.741
X20.405 Z-13.468
X21.533 Z-13.146
X22.48 Z-12.895
X23.635 Z-12.612
X24.028 Z-12.492
X24.712 Z-12.259
X25.553 Z-11.941
X27.607 Z-11.104
X28.642 Z-10.662
X29.372 Z-10.327
X30.478 Z-9.786
X32.236 Z-8.891
X33.069 Z-8.473
X33.676 Z-8.187
X34.446 Z-7.847
X35.18 Z-7.548
X35.99 Z-7.235
X37.167 Z-6.817
X37.986 Z-6.548
X38.593 Z-6.369
X39.402 Z-6.151
X40.161 Z-5.975
X40.676 Z-5.872
X41.361 Z-5.75
X42.224 Z-5.619
X42.973 Z-5.526
X43.776 Z-5.445
X44.91 Z-5.356
X45.785 Z-5.283
X46.42 Z-5.189
X47.157 Z-5.047
X48.179 Z-4.811
X49.371 Z-4.498
X50.348 Z-4.213
X52.253 Z-3.593
X53.187 Z-3.295
X54.004 Z-3.056
X54.839 Z-2.839
X55.647 Z-2.663
X56.261 Z-2.551
X57.033 Z-2.434
X57.831 Z-2.341
X58.553 Z-2.28
X59.427 Z-2.232
X60.264 Z-2.212
X61.214 Z-2.213
X61.354 Z-2.208
X62.076 Z-2.166
X63.818 Z-2.138
X64.598 Z-2.149
X66.702 Z-2.264
X67.455 Z-2.335
X68.251 Z-2.445
X68.76 Z-2.514
X69.557 Z-2.622
X70.284 Z-2.755
X71.757 Z-3.062
X73.206 Z-3.383
X74.223 Z-3.596
X75.024 Z-3.74
X76.052 Z-3.889
X78.136 Z-4.15
X79.497 Z-4.327
X80.771 Z-4.499
X82.45 Z-4.746
X82.973 Z-4.839
X83.293 Z-4.886
X84.335 Z-5.011
X85.541 Z-5.111
X86.981 Z-5.27
X88.574 Z-5.487
X89.251 Z-5.596
X91.125 Z-5.886
X91.932 Z-5.993
X93.404 Z-6.151
X94.148 Z-6.246
X95.276 Z-6.383
X96.127 Z-6.486
X96.551 Z-6.547
X97.136 Z-6.616
X98.222 Z-6.676
X100.03 Z-6.817
X102.145 Z-7.141
X102.829 Z-7.271
X103.852 Z-7.457
X104.878 Z-7.618
X106.382 Z-7.812
X108.302 Z-8.006
X109.548 Z-8.125
X110.656 Z-8.201
X111.434 Z-8.235
X112.807 Z-8.324
X115.191 Z-8.564
X115.598 Z-8.568
X117.85 Z-8.58
X118.525 Z-8.563
X120.521 Z-8.483
X121.624 Z-8.45
X123.653 Z-8.439
X124.958 Z-8.452
X128.436 Z-8.566
X129.611 Z-8.573
X131.085 Z-8.579
X132.993 Z-8.629
X133.874 Z-8.577
X134.974 Z-8.521
X136.604 Z-8.431
X137.793 Z-8.343
X138.433 Z-8.286
X139.736 Z-8.182
X141.259 Z-8.09
X142.349 Z-8.042
X145.428 Z-7.974
X152.623 Z-7.972
X154.949 Z-7.959
X155.342 Z-7.914
X157.133 Z-7.644
X159.645 Z-7.203
X163.437 Z-6.559
X164.49 Z-6.363
X165.91 Z-6.086
X167.017 Z-5.889
X169.13 Z-5.544
X170.025 Z-5.378
X170.903 Z-5.179
X171.998 Z-4.922
X172.804 Z-4.748
X173.813 Z-4.547
X174.824 Z-4.36
X176.603 Z-4.052
X177.381 Z-3.928
X178.08 Z-3.827
X178.888 Z-3.727
X179.805 Z-3.629
X180.722 Z-3.546
X181.741 Z-3.472
X182.653 Z-3.422
X184.161 Z-3.371
X185.507 Z-3.342
X189.031 Z-3.335
X192.995 Z-3.35
X196.072 Z-3.353
X197.921 Z-3.538
X198.986 Z-3.63
X200.076 Z-3.705
X200.555 Z-3.726
X201.992 Z-3.733
X204.424 Z-3.746
X207.592 Z-3.809
X208.839 Z-3.812
X211.272 Z-3.919
X212.691 Z-3.978
X214.014 Z-4.002
X226.295 Z-4.006
X227.75 Z-4.02
G2 X228.036 Z-3.955 I0.006 K0.635
G3 X228.315 Z-3.89 I0.279 K-0.57
G1 X228.316
G17 G3 X228.316 Y-129.16 I0 J0.2
G18 G2 X228.037 Z-3.955 I0 K-0.635
G3 X227.75 Z-4.02 I-0.279 K0.57
G1 X227.315 Z-4.015
X226.013 Z-4.005
X214.038 Z-4.002
X212.638 Z-3.977
X209.881 Z-3.857
X208.83 Z-3.812
X207.555 Z-3.809
X204.451 Z-3.746
X201.992 Z-3.733
X200.677 Z-3.726
X200.215 Z-3.706
X199.144 Z-3.628
X198.403 Z-3.56
X196.344 Z-3.353
X193.505 Z-3.35
X188.562 Z-3.333
X184.874 Z-3.34
X182.912 Z-3.381
X181.537 Z-3.443
X180.251 Z-3.535
X179.323 Z-3.619
X178.406 Z-3.717
X177.492 Z-3.831
X176.474 Z-3.977
X174.881 Z-4.223
X173.904 Z-4.388
X172.871 Z-4.579
X171.958 Z-4.766
X171.06 Z-4.972
X169.911 Z-5.235
X169.08 Z-5.397
X166.853 Z-5.778
X165.532 Z-6.024
X163.591 Z-6.402
X160.697 Z-6.895
X158.641 Z-7.262
X157.057 Z-7.54
X155.013 Z-7.853
X152.057 Z-7.862
X145.841 Z-7.864
X143.706 Z-7.919
X142.027 Z-7.97
X139.899 Z-8.089
X138.576 Z-8.201
X137.969 Z-8.256
X135.615 Z-8.442
X134.04 Z-8.518
X132.886 Z-8.588
X131.242 Z-8.54
X129.88 Z-8.532
X128.51 Z-8.528
X124.957 Z-8.411
X123.717 Z-8.398
X121.808 Z-8.402
X120.569 Z-8.43
X117.477 Z-8.532
X114.911 Z-8.507
X113.152 Z-8.33
X111.61 Z-8.229
X111.042 Z-8.2
X109.683 Z-8.1
X108.386 Z-7.965
X107.459 Z-7.86
X106.434 Z-7.761
X104.792 Z-7.555
X103.809 Z-7.391
X102.093 Z-7.068
X100.436 Z-6.808
X98.278 Z-6.638
X97.277 Z-6.579
X96.564 Z-6.495
X95.333 Z-6.344
X93.874 Z-6.15
X92.498 Z-6.004
X91.286 Z-5.849
X89.85 Z-5.63
X88.778 Z-5.449
X87.078 Z-5.222
X86.013 Z-5.103
X84.586 Z-4.986
X82.903 Z-4.791
X80.742 Z-4.466
X78.557 Z-4.152
X76.214 Z-3.851
X75.043 Z-3.678
X74.297 Z-3.541
X73.216 Z-3.305
X71.598 Z-2.931
X70.089 Z-2.607
X69.403 Z-2.489
X67.929 Z-2.279
X67.211 Z-2.19
X65.564 Z-2.086
X64.796 Z-2.042
X63.955 Z-2.025
X63.281 Z-2.029
X62.562 Z-2.017
X61.887 Z-2.033
X61.146 Z-2.081
X61.049 Z-2.086
X60.141 Z-2.081
X59.251 Z-2.101
X58.396 Z-2.147
X57.643 Z-2.213
X56.988 Z-2.286
X56.262 Z-2.394
X55.578 Z-2.517
X54.84 Z-2.677
X54.015 Z-2.891
X53.175 Z-3.138
X52.265 Z-3.43
X50.301 Z-4.077
X49.326 Z-4.371
X48.19 Z-4.685
X47.182 Z-4.937
X46.502 Z-5.083
X46.027 Z-5.167
X45.495 Z-5.236
X43.48 Z-5.398
X42.678 Z-5.481
X41.924 Z-5.575
X41.172 Z-5.689
X40.581 Z-5.791
X39.799 Z-5.951
X39.26 Z-6.079
X38.486 Z-6.289
X37.719 Z-6.525
X37.039 Z-6.756
X36.203 Z-7.058
X35.192 Z-7.446
X34.43 Z-7.762
X33.947 Z-7.969
X33.139 Z-8.341
X32.017 Z-8.9
X29.887 Z-9.984
X28.971 Z-10.428
X27.947 Z-10.892
X26.079 Z-11.674
X24.992 Z-12.101
X24.239 Z-12.365
X23.883 Z-12.457
X22.883 Z-12.696
X21.99 Z-12.925
X21.041 Z-13.189
X19.982 Z-13.503
X18.934 Z-13.831
X18.096 Z-14.114
X15.9 Z-14.885
X14.44 Z-15.406
X14.124 Z-15.51
X13.4 Z-15.65
X12.35 Z-15.804
X11.199 Z-15.962
X10.432 Z-16.081
X9.63 Z-16.219
X7.129 Z-16.664
X5.487 Z-16.934
X4.448 Z-17.114
X3.154 Z-17.36
X1.959 Z-17.611
X1.051 Z-17.819
X-0.009 Z-18.084
G3 X-0.442 Z-18.038 I-0.154 K0.616
G2 X-0.722 Z-17.973 I-0.279 K-0.57
G1 X-0.726
X-0.753 Y-129.158
X-0.78 Y-129.153 Z-17.971
X-0.805 Y-129.144 Z-17.969
X-0.829 Y-129.133 Z-17.967
X-0.852 Y-129.118 Z-17.963
X-0.872 Y-129.101 Z-17.959
X-0.89 Y-129.081 Z-17.954
X-0.905 Y-129.06 Z-17.949
X-0.917 Y-129.036 Z-17.943
X-0.925 Y-129.011 Z-17.937
X-0.931 Y-128.986 Z-17.93
X-0.932 Y-128.96 Z-17.924
X-0.931 Y-128.934 Z-17.917
X-0.925 Y-128.908 Z-17.911
X-0.917 Y-128.883 Z-17.905
X-0.905 Y-128.86 Z-17.899
X-0.89 Y-128.838 Z-17.894
X-0.872 Y-128.818 Z-17.889
X-0.852 Y-128.801 Z-17.885
X-0.829 Y-128.786 Z-17.881
X-0.805 Y-128.775 Z-17.878
X-0.78 Y-128.766 Z-17.876
X-0.753 Y-128.761 Z-17.875
X-0.726 Y-128.76
G3 X-0.447 Z-17.939 I0 K-0.635
G2 X-0.009 Z-17.984 I0.279 K0.57
G1 X0.634 Z-17.819
X1.691 Z-17.565
X2.601 Z-17.361
X3.538 Z-17.161
X4.846 Z-16.909
X5.741 Z-16.744
X7.965 Z-16.34
X9.663 Z-16.035
X10.657 Z-15.875
X11.748 Z-15.717
X13.18 Z-15.514
X13.917 Z-15.378
X14.896 Z-15.161
X15.524 Z-14.938
X17.853 Z-14.114
X18.905 Z-13.757
X19.781 Z-13.478
X20.832 Z-13.158
X21.774 Z-12.887
X22.478 Z-12.699
X23.252 Z-12.504
X24.603 Z-12.188
X25.019 Z-12.04
X26.082 Z-11.621
X27.503 Z-11.019
X28.421 Z-10.607
X29.243 Z-10.214
X31.279 Z-9.185
X32.569 Z-8.531
X33.226 Z-8.214
X33.801 Z-7.95
X34.469 Z-7.657
X35.62 Z-7.187
X36.641 Z-6.798
X37.52 Z-6.486
X38.255 Z-6.254
X38.647 Z-6.141
X39.341 Z-5.959
X39.797 Z-5.856
X40.526 Z-5.712
X40.938 Z-5.642
X41.626 Z-5.538
X42.391 Z-5.441
X43.45 Z-5.334
X44.945 Z-5.21
X45.64 Z-5.139
X46.274 Z-5.032
X46.797 Z-4.918
X47.722 Z-4.684
X49.144 Z-4.282
X50.271 Z-3.936
X52.385 Z-3.229
X53.159 Z-2.979
X53.94 Z-2.748
X54.613 Z-2.572
X55.246 Z-2.426
X56.012 Z-2.277
X56.854 Z-2.152
X57.547 Z-2.075
X58.36 Z-2.008
X59.15 Z-1.971
X60.056 Z-1.955
X60.922 Z-1.962
X61.464 Z-1.92
X62.166 Z-1.887
X62.937 Z-1.883
X63.649 Z-1.909
X64.594 Z-1.925
X65.349 Z-1.961
X66.152 Z-2.031
X67.117 Z-2.095
X67.981 Z-2.173
X69.413 Z-2.381
X70.099 Z-2.5
X71.408 Z-2.781
X72.034 Z-2.926
X73.7 Z-3.331
X74.501 Z-3.506
X75.208 Z-3.632
X76.378 Z-3.808
X78.312 Z-4.063
X81.153 Z-4.481
X82.922 Z-4.747
X84.667 Z-4.95
X86.416 Z-5.089
X86.949 Z-5.148
X87.64 Z-5.235
X89.062 Z-5.434
X90.331 Z-5.646
X91.592 Z-5.837
X92.729 Z-5.982
X94.211 Z-6.142
X95.168 Z-6.269
X96.432 Z-6.432
X97.348 Z-6.538
X98.37 Z-6.603
X99.299 Z-6.679
X100.816 Z-6.806
X102.192 Z-7.022
X104.013 Z-7.369
X104.816 Z-7.504
X106.582 Z-7.715
X107.631 Z-7.817
X108.424 Z-7.914
X109.552 Z-8.045
X111.027 Z-8.17
X113.494 Z-8.338
X114.453 Z-8.432
X117.589 Z-8.487
X120.429 Z-8.393
X121.743 Z-8.361
X123.647 Z-8.357
X124.975 Z-8.371
X128.422 Z-8.484
X129.449 Z-8.488
X131.294 Z-8.5
X132.865 Z-8.547
X133.88 Z-8.478
X135.402 Z-8.401
X136.551 Z-8.301
X138.131 Z-8.171
X139.138 Z-8.076
X142.094 Z-7.894
X143.217 Z-7.853
X143.999 Z-7.819
X146.211 Z-7.755
X154.265 Z-7.752
X155.024 Z-7.738
X157.265 Z-7.383
X161.049 Z-6.699
X163.394 Z-6.305
X164.941 Z-6.007
X166.433 Z-5.717
X168.53 Z-5.339
X169.551 Z-5.146
X171.098 Z-4.796
X172.281 Z-4.543
X173.129 Z-4.384
X174.109 Z-4.222
X175.091 Z-4.075
X176.443 Z-3.89
X177.784 Z-3.725
X178.758 Z-3.62
X179.672 Z-3.535
X180.725 Z-3.454
X181.926 Z-3.391
X183.239 Z-3.353
X185.029 Z-3.333
X188.994 Z-3.331
X193.93 Z-3.35
X196.571 Z-3.353
X198.875 Z-3.586
X199.559 Z-3.649
X200.436 Z-3.713
X200.864 Z-3.728
X202.502 Z-3.734
X204.728 Z-3.75
X207.563 Z-3.81
X208.759 Z-3.812
X210.195 Z-3.875
X212.572 Z-3.976
X214.006 Z-4.002
X225.775 Z-4.005
X227.275 Z-4.017
X227.75 Z-4.02
G2 X228.034 Z-3.955 I0.004 K0.635
G3 X228.313 Z-3.89 I0.279 K-0.57
G1 X228.323
G17 G3 X228.323 Y-128.36 I0 J0.2
G18 G2 X228.044 Z-3.955 I0 K-0.635
G1 X228.037 Z-3.958
G3 X227.75 Z-4.023 I-0.279 K0.57
G1 X227.084 Z-4.016
X225.465 Z-4.005
X213.987 Z-4.002
X212.562 Z-3.977
X210.675 Z-3.901
X208.674 Z-3.812
X207.468 Z-3.81
X206.404 Z-3.786
X204.632 Z-3.749
X202.349 Z-3.733
X200.918 Z-3.728
X200.417 Z-3.705
X199.703 Z-3.65
X196.76 Z-3.353
X194.251 Z-3.35
X189.246 Z-3.329
X184.058 Z-3.332
X182.39 Z-3.352
X181.112 Z-3.399
X179.954 Z-3.469
X178.902 Z-3.554
X177.525 Z-3.689
X176.134 Z-3.84
X175.007 Z-3.978
X174.094 Z-4.1
X173.173 Z-4.239
X172.399 Z-4.371
X171.76 Z-4.494
X170.975 Z-4.66
X169.123 Z-5.072
X167.008 Z-5.473
X165.636 Z-5.737
X163.506 Z-6.152
X161.931 Z-6.414
X160.95 Z-6.582
X157.324 Z-7.247
X155.029 Z-7.62
X154.701 Z-7.639
X146.605 Z-7.646
X144.439 Z-7.712
X143.217 Z-7.773
X141.983 Z-7.831
X140.322 Z-7.942
X138.733 Z-8.054
X137.882 Z-8.122
X136.327 Z-8.255
X135.178 Z-8.361
X133.463 Z-8.462
X132.837 Z-8.501
X131.11 Z-8.455
X129.484 Z-8.438
X128.167 Z-8.431
X124.914 Z-8.328
X123.61 Z-8.316
X121.772 Z-8.32
X120.53 Z-8.349
X117.868 Z-8.44
X113.462 Z-8.322
X111.416 Z-8.164
X109.51 Z-7.993
X108.496 Z-7.865
X107.752 Z-7.771
X106.109 Z-7.598
X104.758 Z-7.436
X104.072 Z-7.32
X102.398 Z-7.002
X101.18 Z-6.809
X99.622 Z-6.671
X98.718 Z-6.587
X97.347 Z-6.491
X95.972 Z-6.326
X95.557 Z-6.277
X94.335 Z-6.115
X92.855 Z-5.947
X91.664 Z-5.798
X90.447 Z-5.609
X89.443 Z-5.44
X88.126 Z-5.254
X87.449 Z-5.149
X86.864 Z-5.08
X85.045 Z-4.94
X84.666 Z-4.909
X83.409 Z-4.767
X82.285 Z-4.604
X80.337 Z-4.307
X78.567 Z-4.039
X76.317 Z-3.727
X75.29 Z-3.567
X74.479 Z-3.416
X73.632 Z-3.225
X72.323 Z-2.895
X71.753 Z-2.748
X70.077 Z-2.386
X68.232 Z-2.116
X67.43 Z-2.033
X66.576 Z-1.967
X65.594 Z-1.87
X64.834 Z-1.825
X64.183 Z-1.803
X63.217 Z-1.753
X62.515 Z-1.744
X61.8 Z-1.764
X61.075 Z-1.814
X60.787 Z-1.841
X59.849 Z-1.831
X59.08 Z-1.844
X58.179 Z-1.885
X57.209 Z-1.966
X56.529 Z-2.05
X55.841 Z-2.154
X55.053 Z-2.308
X54.584 Z-2.418
X53.982 Z-2.573
X53.165 Z-2.814
X52.436 Z-3.05
X50.133 Z-3.831
X48.71 Z-4.27
X47.351 Z-4.66
X46.625 Z-4.85
X46.05 Z-4.979
X45.522 Z-5.07
X44.894 Z-5.141
X43.347 Z-5.276
X42.333 Z-5.382
X41.536 Z-5.48
X40.968 Z-5.56
X40.224 Z-5.687
X39.588 Z-5.813
X38.9 Z-5.976
X38.196 Z-6.173
X37.535 Z-6.381
X36.813 Z-6.638
X35.656 Z-7.086
X34.792 Z-7.442
X33.828 Z-7.859
X32.86 Z-8.308
X31.446 Z-9.014
X28.941 Z-10.282
X27.976 Z-10.745
X26.909 Z-11.221
X25.689 Z-11.731
X25.086 Z-11.965
X23.661 Z-12.3
X22.617 Z-12.562
X21.785 Z-12.788
X20.879 Z-13.051
X19.602 Z-13.451
X18.513 Z-13.809
X15.934 Z-14.712
X15.527 Z-14.857
X13.665 Z-15.253
X12.82 Z-15.399
X10.424 Z-15.745
X9.4 Z-15.912
X7.902 Z-16.183
X6.313 Z-16.483
X4.547 Z-16.828
X2.913 Z-17.176
X1.62 Z-17.477
X0.332 Z-17.799
X-0.009 Z-17.888
G3 X-0.449 Z-17.844 I-0.16 K0.614
G2 X-0.728 Z-17.779 I-0.279 K-0.57
G1 X-0.73
X-0.757 Y-128.358
X-0.784 Y-128.353 Z-17.778
X-0.809 Y-128.344 Z-17.776
X-0.833 Y-128.333 Z-17.773
X-0.855 Y-128.318 Z-17.77
X-0.876 Y-128.301 Z-17.766
X-0.893 Y-128.281 Z-17.761
X-0.908 Y-128.26 Z-17.756
X-0.92 Y-128.236 Z-17.751
X-0.929 Y-128.211 Z-17.745
X-0.934 Y-128.186 Z-17.739
X-0.936 Y-128.16 Z-17.733
X-0.934 Y-128.134 Z-17.727
X-0.929 Y-128.108 Z-17.721
X-0.92 Y-128.083 Z-17.716
X-0.908 Y-128.06 Z-17.71
X-0.893 Y-128.038 Z-17.705
X-0.876 Y-128.018 Z-17.701
X-0.855 Y-128.001 Z-17.697
X-0.833 Y-127.986 Z-17.693
X-0.809 Y-127.975 Z-17.691
X-0.784 Y-127.966 Z-17.689
X-0.757 Y-127.961 Z-17.688
X-0.73 Y-127.96 Z-17.687
G3 X-0.451 Z-17.752 I0 K-0.635
G2 X-0.009 Z-17.796 I0.279 K0.57
G1 X0.919 Z-17.55
X2.552 Z-17.145
X3.512 Z-16.923
X5.24 Z-16.551
X6.762 Z-16.24
X8.088 Z-15.989
X9.285 Z-15.773
X10.136 Z-15.634
X12.266 Z-15.32
X13.323 Z-15.146
X16.101 Z-14.579
X18.283 Z-13.812
X19.532 Z-13.392
X20.726 Z-13.008
X21.618 Z-12.739
X22.619 Z-12.458
X23.697 Z-12.178
X24.712 Z-11.934
X25.612 Z-11.712
X26.197 Z-11.476
X27.277 Z-11.004
X28.332 Z-10.505
X29.903 Z-9.717
X32.075 Z-8.623
X32.97 Z-8.187
X33.782 Z-7.809
X34.974 Z-7.287
X35.885 Z-6.91
X36.713 Z-6.583
X37.378 Z-6.342
X38.107 Z-6.107
X38.822 Z-5.909
X39.429 Z-5.767
X40.205 Z-5.614
X41.117 Z-5.472
X42.083 Z-5.345
X43.16 Z-5.23
X44.598 Z-5.094
X45.238 Z-5.023
X45.65 Z-4.959
X46.174 Z-4.85
X46.918 Z-4.657
X48.359 Z-4.235
X50.078 Z-3.7
X52.346 Z-2.919
X53.154 Z-2.653
X53.983 Z-2.411
X54.915 Z-2.184
X55.692 Z-2.033
X56.322 Z-1.937
X57.108 Z-1.841
X57.937 Z-1.776
X58.736 Z-1.734
X59.569 Z-1.717
X60.554 Z-1.725
X61.014 Z-1.684
X61.813 Z-1.648
X62.733 Z-1.637
X63.72 Z-1.657
X65.292 Z-1.741
X65.957 Z-1.792
X66.969 Z-1.905
X67.557 Z-1.957
X68.356 Z-2.045
X69.045 Z-2.15
X70.465 Z-2.367
X71.904 Z-2.674
X72.655 Z-2.876
X73.505 Z-3.097
X74.412 Z-3.312
X75.168 Z-3.463
X76.189 Z-3.636
X79.109 Z-4.06
X79.972 Z-4.191
X83.063 Z-4.672
X84.141 Z-4.816
X84.868 Z-4.891
X85.49 Z-4.935
X87.204 Z-5.065
X87.579 Z-5.108
X88.267 Z-5.219
X89.836 Z-5.452
X90.681 Z-5.595
X91.857 Z-5.775
X94.474 Z-6.09
X95.525 Z-6.231
X96.41 Z-6.33
X97.443 Z-6.453
X98.277 Z-6.509
X99.349 Z-6.602
X100.724 Z-6.735
X101.553 Z-6.819
X102.585 Z-6.982
X103.943 Z-7.239
X104.566 Z-7.35
X105.906 Z-7.514
X108.005 Z-7.742
X108.643 Z-7.828
X109.471 Z-7.937
X110.704 Z-8.057
X111.556 Z-8.12
X112.607 Z-8.203
X113.595 Z-8.235
X118.074 Z-8.387
X119.79 Z-8.333
X121.387 Z-8.285
X122.896 Z-8.275
X124.536 Z-8.279
X127.858 Z-8.369
X129.708 Z-8.379
X131.123 Z-8.397
X132.955 Z-8.455
X134.881 Z-8.329
X135.98 Z-8.227
X137.305 Z-8.106
X140.467 Z-7.876
X141.81 Z-7.777
X144.17 Z-7.641
X145.529 Z-7.589
X146.686 Z-7.557
X149.672 Z-7.554
X152.824 Z-7.541
X154.635 Z-7.528
X154.94 Z-7.509
X157.34 Z-7.116
X160.236 Z-6.574
X161.39 Z-6.364
X162.675 Z-6.155
X163.942 Z-5.934
X168.472 Z-5.049
X169.729 Z-4.778
X170.826 Z-4.533
X171.53 Z-4.389
X172.32 Z-4.245
X173.05 Z-4.129
X173.878 Z-4.014
X174.903 Z-3.89
X176.134 Z-3.756
X177.681 Z-3.611
X179.223 Z-3.483
X180.593 Z-3.395
X181.776 Z-3.351
X183.384 Z-3.33
X189.698 Z-3.328
X194.564 Z-3.351
X196.913 Z-3.353
X199.908 Z-3.657
X200.448 Z-3.701
X200.941 Z-3.728
X202.707 Z-3.734
X204.852 Z-3.753
X206.498 Z-3.792
X207.342 Z-3.809
X208.525 Z-3.812
X210.703 Z-3.908
X212.449 Z-3.976
X213.954 Z-4.002
X225.293 Z-4.005
X226.908 Z-4.016
X227.349 Z-4.02
X227.75 Z-4.037
G2 X228.056 Z-3.973 I0.027 K0.634
G3 X228.336 Z-3.908 I0.279 K-0.57
