(signature)
(T2  D=6.35 CR=0 TAPER=45deg - ZMIN=-1.126 - chamfer mill)
G90 G94
G17
G21
(When using Fusion 360 for Personal Use, the feedrate of)
(rapid moves is reduced to match the feedrate of cutting)
(moves, which can increase machining time. Unrestricted rapid)
(moves are available with a Fusion 360 Subscription.)
G28 G91 Z0
G90

(Engrave2)
T2
S5000 M3
G54
M8
G0 X-26.93 Y-5.168
Z15
G1 Z5 F1000
Z-0.001 F333.3
X-26.141 Y-5.215 Z-0.78 F1000
X-26.104 Z-0.816
X-26.107 Y-5.274 Z-0.799
X-26.104 Y-5.334 Z-0.778
X-26.093 Y-5.436 Z-0.737
X-26.075 Y-5.547 Z-0.686
X-26.069 Y-5.6 Z-0.658
X-26.075 Y-5.628 Z-0.635
X-26.074 Y-5.648 Z-0.616
X-26.058 Y-5.815 Z-0.456
X-26.029 Y-6.286 Z-0.001
X-26.058 Y-5.815 Z-0.456
X-26.074 Y-5.648 Z-0.616
X-26.075 Y-5.628 Z-0.635
X-26.069 Y-5.6 Z-0.658
X-26.008 Y-5.663 Z-0.573
X-26.069 Y-5.6 Z-0.658
X-26.075 Y-5.547 Z-0.686
X-26.093 Y-5.436 Z-0.737
X-26.104 Y-5.334 Z-0.778
X-26.107 Y-5.274 Z-0.799
X-26.104 Y-5.215 Z-0.816
X-25.963 Y-4.721 Z-0.84
X-25.873 Y-4.428 Z-0.849
X-25.769 Y-4.108 Z-0.853
X-25.567 Y-3.528 Z-0.854
X-25.345 Y-2.919 Z-0.846
X-24.925 Y-1.849 Z-0.825
X-24.698 Y-1.286 Z-0.82
X-24.555 Y-0.942
X-24.462 Y-0.724 Z-0.817
X-24.218 Y-0.166
X-24.132 Y0.023 Z-0.818
X-23.961 Y0.39 Z-0.816
X-23.682 Y0.971 Z-0.82
X-23.431 Y1.473 Z-0.814
X-23.208 Y1.909 Z-0.815
X-22.712 Y2.841 Z-0.804
X-22.294 Y3.602 Z-0.791
X-22.266 Y3.648
X-22.237 Y3.694 Z-0.794
X-22.206 Y3.739 Z-0.798
X-22.174 Y3.783 Z-0.805
X-22.139 Y3.826 Z-0.813
X-22.104 Y3.868 Z-0.824
X-22.066 Y3.909 Z-0.835
X-22.028 Y3.949 Z-0.85
X-21.986 Y3.988 Z-0.865
X-21.945 Y4.027 Z-0.883
X-21.9 Y4.064 Z-0.902
X-21.856 Y4.101 Z-0.924
X-21.438 Y4.426 Z-1.126
X-21.318 Y4.387 Z-1.055
X-21.2 Y4.354 Z-0.992
X-21.084 Y4.328 Z-0.936
X-21.027 Y4.319 Z-0.91
X-20.97 Y4.31 Z-0.887
X-20.914 Y4.304 Z-0.865
X-20.858 Y4.298 Z-0.846
X-20.803 Y4.296 Z-0.827
X-20.748 Y4.294 Z-0.812
X-20.693 Y4.295 Z-0.797
X-20.621 Y4.297 Z-0.782
X-20.536 Y4.305 Z-0.768
X-20.452 Y4.316 Z-0.759
X-20.37 Y4.333 Z-0.754
X-19.999 Y4.416 Z-0.744
X-19.299 Y4.563 Z-0.737
X-18.747 Y4.664 Z-0.736
X-18.118 Y4.759 Z-0.74
X-17.719 Y4.808 Z-0.745
X-17.192 Y4.865
X-16.844 Y4.897 Z-0.741
X-16.805 Y4.899 Z-0.743
X-16.142 Y4.919 Z-0.778
X-15.977 Z-0.776
X-15.814 Y4.923 Z-0.76
X-15.72 Y4.922 Z-0.744
X-15.611 Y4.99 Z-0.656
X-15.494 Y5.063 Z-0.556
X-15.492 Y5.064 Z-0.554
X-15.327 Y5.174 Z-0.373
X-15.316 Y5.183 Z-0.359
X-15.327 Y5.174 Z-0.373
X-15.492 Y5.064 Z-0.554
X-15.494 Y5.063 Z-0.556
X-15.611 Y4.99 Z-0.656
X-15.72 Y4.922 Z-0.744
X-15.647 Y4.85 Z-0.654
X-15.6 Y4.8 Z-0.592
X-15.562 Y4.755 Z-0.538
X-15.531 Y4.722 Z-0.493
X-15.562 Y4.755 Z-0.538
X-15.6 Y4.8 Z-0.592
X-15.647 Y4.85 Z-0.654
X-15.72 Y4.922 Z-0.744
X-15.814 Y4.923 Z-0.76
X-15.977 Y4.919 Z-0.776
X-16.142 Z-0.778
X-16.805 Y4.899 Z-0.743
X-16.844 Y4.897 Z-0.741
X-17.192 Y4.865 Z-0.745
X-17.719 Y4.808
X-18.118 Y4.759 Z-0.74
X-18.747 Y4.664 Z-0.736
X-19.299 Y4.563 Z-0.737
X-19.999 Y4.416 Z-0.744
X-20.37 Y4.333 Z-0.754
X-20.452 Y4.316 Z-0.759
X-20.536 Y4.305 Z-0.768
X-20.621 Y4.297 Z-0.782
X-20.693 Y4.295 Z-0.797
X-20.748 Y4.294 Z-0.812
X-20.803 Y4.296 Z-0.827
X-20.858 Y4.298 Z-0.846
X-20.914 Y4.304 Z-0.865
X-20.97 Y4.31 Z-0.887
X-21.027 Y4.319 Z-0.91
X-21.084 Y4.328 Z-0.936
X-21.2 Y4.354 Z-0.992
X-21.318 Y4.387 Z-1.055
X-21.438 Y4.426 Z-1.126
X-21.44 Y4.495 Z-1.089
X-21.441 Y4.563 Z-1.056
X-21.435 Y4.688 Z-0.995
X-21.428 Y4.749 Z-0.967
X-21.422 Y4.81 Z-0.942
X-21.412 Y4.869 Z-0.918
X-21.402 Y4.927 Z-0.897
X-21.389 Y4.984 Z-0.877
X-21.376 Y5.041 Z-0.86
X-21.36 Y5.096 Z-0.844
X-21.343 Y5.15 Z-0.831
X-21.324 Y5.203 Z-0.818
X-21.304 Y5.256 Z-0.809
X-21.281 Y5.306 Z-0.8
X-21.258 Y5.357 Z-0.795
X-21.232 Y5.406 Z-0.789
X-20.757 Y6.222 Z-0.767
X-20.294 Y6.998 Z-0.755
X-20.021 Y7.441
X-19.815 Y7.77 Z-0.752
X-19.332 Y8.529 Z-0.751
X-18.862 Y9.26 Z-0.754
X-18.379 Y9.993 Z-0.768
X-18.279 Y10.14 Z-0.774
X-18.254 Y10.179 Z-0.775
X-18.229 Y10.218 Z-0.779
X-18.184 Y10.299 Z-0.79
X-18.143 Y10.383 Z-0.807
X-18.113 Y10.453 Z-0.824
X-18.092 Y10.504 Z-0.84
X-18.074 Y10.558 Z-0.857
X-18.056 Y10.612 Z-0.877
X-18.04 Y10.668 Z-0.897
X-18.025 Y10.724 Z-0.921
X-18.013 Y10.782 Z-0.945
X-18.001 Y10.84 Z-0.973
X-17.988 Y10.917 Z-1.01
X-17.967 Y11.084 Z-1.099
X-17.992 Y11.095 Z-1.083
X-18.098 Y11.134 Z-1.014
X-18.202 Y11.168 Z-0.952
X-18.281 Y11.186 Z-0.905
X-18.358 Y11.201 Z-0.863
X-18.486 Y11.21 Z-0.791
X-18.519 Y11.207 Z-0.77
X-18.558 Y11.2 Z-0.745
X-18.612 Y11.187 Z-0.707
X-18.68 Y11.163 Z-0.656
X-18.835 Y11.1 Z-0.547
X-18.929 Y11.056 Z-0.477
X-19.425 Y11.109 Z-0.001
X-18.929 Y11.056 Z-0.477
X-18.982 Y11.011 Z-0.417
X-19.032 Y10.967 Z-0.355
X-19.298 Y10.727 Z-0.001
X-19.032 Y10.967 Z-0.355
X-18.982 Y11.011 Z-0.417
X-18.929 Y11.056 Z-0.477
X-18.835 Y11.1 Z-0.547
X-18.68 Y11.163 Z-0.656
X-18.612 Y11.187 Z-0.707
X-18.558 Y11.2 Z-0.745
X-18.519 Y11.207 Z-0.77
X-18.486 Y11.21 Z-0.791
X-18.358 Y11.201 Z-0.863
X-18.281 Y11.186 Z-0.905
X-18.202 Y11.168 Z-0.952
X-18.098 Y11.134 Z-1.014
X-17.992 Y11.095 Z-1.083
X-17.967 Y11.084 Z-1.099
X-17.332 Y11.495 Z-0.861
X-17.288 Y11.522 Z-0.848
X-17.244 Y11.545 Z-0.835
X-17.2 Y11.569 Z-0.825
X-17.154 Y11.59 Z-0.815
X-17.109 Y11.61 Z-0.808
X-17.063 Y11.628 Z-0.801
X-17.017 Y11.646 Z-0.796
X-16.971 Y11.661 Z-0.792
X-16.91 Y11.68 Z-0.791
X-16.273 Y11.848 Z-0.777
X-16.019 Y11.911 Z-0.775
X-15.618 Y12.002 Z-0.765
X-14.975 Y12.131 Z-0.764
X-14.178 Y12.271 Z-0.768
X-13.666 Y12.353 Z-0.767
X-13.415 Y12.39 Z-0.769
X-12.974 Y12.449 Z-0.767
X-12.657 Y12.485 Z-0.773
X-12.286 Y12.519 Z-0.771
X-11.9 Y12.548 Z-0.775
X-11.573 Y12.566 Z-0.774
X-11.533 Y12.567 Z-0.776
X-11.045 Y12.566 Z-0.801
X-10.868 Y12.558 Z-0.814
X-10.614 Y12.54 Z-0.826
X-10.472 Y12.523
X-10.411 Y12.511 Z-0.822
X-10.406 Y12.509 Z-0.821
X-10.386 Y12.499 Z-0.812
X-10.266 Y12.427 Z-0.747
X-10.229 Y12.323 Z-0.645
X-10.209 Y12.274 Z-0.595
X-10.229 Y12.323 Z-0.645
X-10.266 Y12.427 Z-0.747
X-10.123 Y12.407 Z-0.634
X-10.118 Y12.406 Z-0.63
X-10.048 Y12.413 Z-0.564
X-9.463 Y12.505 Z-0.001
Z5
X-16.559 Y-5.444
Z-0.001 F333.3
X-16.105 Y-5.469 Z-0.449 F1000
X-16.026 Y-5.468 Z-0.525
X-15.986 Y-5.463 Z-0.563
X-15.944 Y-5.455 Z-0.601
X-15.951 Y-5.476 Z-0.584
X-15.976 Y-5.584 Z-0.488
X-15.975 Y-5.64 Z-0.435
X-15.935 Y-6.083 Z-0.001
X-15.975 Y-5.64 Z-0.435
X-15.976 Y-5.584 Z-0.488
X-15.951 Y-5.476 Z-0.584
X-15.944 Y-5.455 Z-0.601
X-15.908 Y-5.415 Z-0.627
X-15.876 Y-5.453 Z-0.578
X-15.908 Y-5.415 Z-0.627
X-15.906 Y-5.411 Z-0.628
X-15.889 Y-5.365 Z-0.634
X-15.819 Y-5.137 Z-0.649
X-15.741 Y-4.866 Z-0.662
X-15.636 Y-4.524 Z-0.671
X-15.523 Y-4.184 Z-0.676
X-15.273 Y-3.485 Z-0.677
X-15.002 Y-2.795 Z-0.679
X-14.955 Y-2.684 Z-0.677
X-14.602 Y-1.865 Z-0.669
X-14.521 Y-1.689 Z-0.673
X-14.265 Y-1.157 Z-0.674
X-14.114 Y-0.857 Z-0.669
X-13.998 Y-0.634 Z-0.667
X-13.846 Y-0.355 Z-0.659
X-13.713 Y-0.117 Z-0.656
X-13.563 Y0.139 Z-0.648
X-13.409 Y0.395 Z-0.643
X-13.268 Y0.622 Z-0.636
X-12.967 Y1.098 Z-0.626
X-12.758 Y1.421 Z-0.622
X-12.413 Y1.939 Z-0.607
X-12.341 Y2.041 Z-0.601
X-12.206 Y2.221 Z-0.593
X-12.075 Y2.407 Z-0.571
X-12.055 Y2.434 Z-0.565
X-12.01 Y2.499 Z-0.545
X-11.996 Y2.519 Z-0.536
X-11.966 Y2.551 Z-0.516
X-11.935 Y2.58 Z-0.493
X-11.933 Y2.581 Z-0.492
X-11.821 Y2.595 Z-0.388
X-11.763 Y2.594 Z-0.331
X-11.427 Y2.571 Z-0.001
Z5
X-10.79 Y-1.293
Z-0.19 F333.3
X-10.815 Y-1.32 Z-0.224 F1000
X-10.864 Y-1.376 Z-0.287
X-10.568 Y-1.371 Z-0.001
X-10.864 Y-1.376 Z-0.287
X-10.908 Y-1.407 Z-0.322
X-10.934 Y-1.432 Z-0.341
X-11.062 Y-1.535 Z-0.408
X-11.098 Y-1.569 Z-0.427
X-11.132 Y-1.608 Z-0.444
X-11.167 Y-1.654 Z-0.458
X-11.208 Y-1.716 Z-0.472
X-11.307 Y-1.88 Z-0.5
X-11.32 Y-1.907 Z-0.502
X-11.415 Y-2.115 Z-0.525
X-11.487 Y-2.291 Z-0.549
X-11.503 Y-2.335 Z-0.555
X-11.559 Y-2.517 Z-0.578
X-11.594 Y-2.664 Z-0.595
X-11.613 Y-2.774 Z-0.603
X-11.624 Y-2.851 Z-0.61
X-11.645 Y-3.053 Z-0.619
X-11.654 Y-3.208 Z-0.621
Y-3.262 Z-0.625
X-11.649 Y-3.494 Z-0.647
X-11.631 Y-3.664 Z-0.652
X-11.601 Y-3.869 Z-0.666
X-11.561 Y-4.035 Z-0.681
X-11.537 Y-4.113 Z-0.685
X-11.513 Y-4.181 Z-0.693
X-11.453 Y-4.32 Z-0.703
X-11.419 Y-4.385 Z-0.706
X-11.375 Y-4.463 Z-0.713
X-11.298 Y-4.586 Z-0.72
X-11.194 Y-4.74 Z-0.736
X-11.059 Y-4.891 Z-0.728
X-11.025 Y-4.924 Z-0.727
X-10.976 Y-4.968 Z-0.729
X-10.867 Y-5.063 Z-0.735
X-10.7 Y-5.193 Z-0.737
X-10.686 Y-5.203
X-10.62 Y-5.246
X-10.549 Y-5.287 Z-0.733
X-10.472 Y-5.323 Z-0.729
X-10.378 Y-5.361 Z-0.72
X-10.331 Y-5.376 Z-0.714
X-10.284 Y-5.391 Z-0.711
X-10.148 Y-5.428 Z-0.702
X-10.069 Y-5.445 Z-0.696
X-9.866 Y-5.478 Z-0.687
X-9.662 Y-5.5 Z-0.683
X-9.507 Y-5.502 Z-0.669
X-9.425 Y-5.497 Z-0.668
X-9.321 Y-5.488 Z-0.669
X-9.163 Y-5.469 Z-0.665
X-9.02 Y-5.439 Z-0.662
X-8.951 Y-5.42 Z-0.657
X-8.88 Y-5.397
X-8.733 Y-5.339 Z-0.652
X-8.596 Y-5.269 Z-0.651
X-8.559 Y-5.248
X-8.522 Y-5.227 Z-0.654
X-8.442 Y-5.179 Z-0.66
X-8.363 Y-5.118 Z-0.658
X-8.263 Y-5.034 Z-0.661
X-8.168 Y-4.951 Z-0.66
X-8.119 Y-4.906 Z-0.662
X-8.072 Y-4.858 Z-0.667
X-8.032 Y-4.808 Z-0.672
X-7.929 Y-4.675 Z-0.689
X-7.869 Y-4.582 Z-0.695
X-7.844 Y-4.54 Z-0.697
X-7.809 Y-4.469
X-7.78 Y-4.398
X-7.735 Y-4.257 Z-0.691
X-7.715 Y-4.182 Z-0.692
X-7.693 Y-4.071 Z-0.69
X-7.668 Y-3.912 Z-0.692
X-7.651 Y-3.746 Z-0.697
X-7.657 Y-3.649 Z-0.685
X-7.661 Y-3.605 Z-0.682
X-7.668 Y-3.561 Z-0.679
X-7.715 Y-3.311 Z-0.681
X-7.767 Y-3.091 Z-0.675
X-7.773 Y-3.071 Z-0.674
X-7.834 Y-2.882 Z-0.666
X-7.861 Y-2.813 Z-0.66
X-7.923 Y-2.671 Z-0.653
X-7.977 Y-2.558 Z-0.645
X-8.005 Y-2.505 Z-0.642
X-8.113 Y-2.316 Z-0.633
X-8.253 Y-2.094 Z-0.628
X-8.514 Y-1.701 Z-0.634
X-8.62 Y-1.539 Z-0.635
X-8.773 Y-1.288 Z-0.643
X-8.849 Y-1.155 Z-0.653
X-8.918 Y-1.024 Z-0.658
X-8.977 Y-0.901 Z-0.668
X-9.046 Y-0.735 Z-0.675
X-9.069 Y-0.676 Z-0.679
X-9.146 Y-0.431 Z-0.69
X-9.211 Y-0.14 Z-0.698
X-9.26 Y0.13 Z-0.697
X-9.27 Y0.208
X-9.275 Y0.258 Z-0.701
X-9.277 Y0.309 Z-0.704
X-9.279 Y0.36 Z-0.712
X-9.274 Y0.39 Z-0.711
X-9.219 Y0.676
X-9.211 Y0.71 Z-0.71
X-9.144 Y0.988 Z-0.711
X-9.124 Y1.057 Z-0.71
X-9.106 Y1.111 Z-0.711
X-9.058 Y1.245 Z-0.71
X-9.007 Y1.366 Z-0.704
X-8.948 Y1.478 Z-0.699
X-8.895 Y1.566 Z-0.692
X-8.878 Y1.591 Z-0.691
X-8.779 Y1.728 Z-0.68
X-8.655 Y1.872 Z-0.668
X-8.559 Y1.972 Z-0.661
X-8.515 Y2.014 Z-0.658
X-8.265 Y2.238 Z-0.649
X-8.039 Y2.419 Z-0.648
X-8.018 Y2.434 Z-0.646
X-7.719 Y2.632 Z-0.631
X-7.364 Y2.841 Z-0.624
X-7.253 Y2.902 Z-0.619
X-6.988 Y3.036 Z-0.616
X-6.845 Y3.097 Z-0.615
X-6.702 Y3.153 Z-0.612
X-6.675 Y3.162
X-6.465 Y3.226 Z-0.609
X-6.411 Y3.24
X-6.328 Y3.26 Z-0.61
X-6.122 Y3.301 Z-0.606
X-5.938 Y3.331 Z-0.609
X-5.569 Y3.378 Z-0.605
X-5.508 Y3.382 Z-0.609
X-5.367 Y3.385 Z-0.618
X-5.297 Z-0.625
X-5.138 Y3.38 Z-0.644
X-5.079 Y3.372 Z-0.65
X-5.021 Y3.361 Z-0.659
X-4.846 Y3.324 Z-0.69
X-4.721 Y3.286 Z-0.715
X-4.615 Y3.248 Z-0.735
X-4.568 Y3.226 Z-0.743
X-4.522 Y3.203 Z-0.754
X-4.476 Y3.173 Z-0.763
X-4.43 Y3.144 Z-0.776
X-4.285 Y3.03 Z-0.817
X-4.226 Y2.958 Z-0.825
X-4.207 Y2.928 Z-0.826
X-4.193 Y2.89 Z-0.82
X-4.149 Y2.742 Z-0.791
X-4.14 Y2.666 Z-0.772
X-4.134 Y2.59 Z-0.757
X-4.127 Y2.402 Z-0.725
X-4.138 Y2.241 Z-0.702
X-4.149 Y2.161 Z-0.688
X-4.162 Y2.096 Z-0.68
X-4.208 Y1.949 Z-0.66
X-4.272 Y1.783 Z-0.631
X-4.337 Y1.65 Z-0.609
X-4.356 Y1.613 Z-0.605
X-4.428 Y1.489 Z-0.593
X-4.456 Y1.446 Z-0.591
X-4.567 Y1.315 Z-0.574
X-4.675 Y1.2 Z-0.568
X-4.776 Y1.101 Z-0.567
X-4.863 Y1.022 Z-0.564
X-4.954 Y0.948 Z-0.566
X-5.156 Y0.801 Z-0.564
X-5.335 Y0.693 Z-0.562
X-5.44 Y0.635 Z-0.557
X-5.583 Y0.567 Z-0.559
X-5.621 Y0.55
X-5.782 Y0.485 Z-0.564
X-6.047 Y0.387 Z-0.58
X-6.09 Y0.374 Z-0.581
X-6.275 Y0.322 Z-0.592
X-6.507 Y0.263 Z-0.598
X-6.571 Y0.251 Z-0.596
X-6.736 Y0.214 Z-0.588
X-6.934 Y0.178 Z-0.571
X-6.96 Y0.176 Z-0.565
X-6.99 Y0.168 Z-0.554
X-7.081 Y0.225 Z-0.452
X-7.09 Y0.23 Z-0.443
X-7.081 Y0.225 Z-0.452
X-6.99 Y0.168 Z-0.554
X-7.003 Y0.159 Z-0.543
X-7.12 Y0.033 Z-0.399
X-7.168 Y-0.018 Z-0.335
Z5
X-10.974 Y6.41
Z-0.001 F333.3
X-10.39 Y6.379 Z-0.578 F1000
X-10.348 Z-0.619
X-10.353 Y6.37 Z-0.612
X-10.366 Y6.335 Z-0.58
X-10.379 Y6.278 Z-0.528
X-10.38 Y6.242 Z-0.493
X-10.349 Y5.742 Z-0.001
X-10.38 Y6.242 Z-0.493
X-10.379 Y6.278 Z-0.528
X-10.366 Y6.335 Z-0.58
X-10.353 Y6.37 Z-0.612
X-10.348 Y6.379 Z-0.619
X-10.214 Y6.518 Z-0.722
X-10.154 Y6.588 Z-0.766
X-10.121 Y6.631 Z-0.79
X-10.067 Y6.706 Z-0.819
X-10.049 Y6.735 Z-0.828
X-10.009 Y6.789 Z-0.841
X-9.988 Y6.821 Z-0.847
X-9.918 Y6.912 Z-0.858
X-9.828 Y7.018 Z-0.865
X-9.619 Y7.265 Z-0.855
X-9.54 Y7.361 Z-0.845
X-9.477 Y7.443 Z-0.83
X-9.439 Y7.498 Z-0.816
X-9.39 Y7.569 Z-0.793
X-9.358 Y7.614 Z-0.774
X-9.318 Y7.668 Z-0.746
X-9.271 Y7.723 Z-0.71
X-9.176 Y7.823 Z-0.636
X-9.159 Y7.848 Z-0.616
Y7.852 Z-0.612
X-9.186 Y8.475 Z-0.001
X-9.159 Y7.852 Z-0.612
Y7.848 Z-0.616
X-9.05 Y7.956 Z-0.486
X-8.978 Y8.028 Z-0.393
X-8.692 Y8.305 Z-0.001
Z5
X-4.37 Y-5.342
Z-0.001 F333.3
X-3.783 Y-5.386 Z-0.582 F1000
X-3.772 Z-0.592
X-3.774 Y-5.422 Z-0.58
Y-5.43 Z-0.576
X-3.788 Y-5.468 Z-0.545
X-3.793 Y-5.504 Z-0.512
X-3.791 Y-5.573 Z-0.445
X-3.746 Y-6.025 Z-0.001
X-3.791 Y-5.573 Z-0.445
X-3.793 Y-5.504 Z-0.512
X-3.788 Y-5.468 Z-0.545
X-3.774 Y-5.43 Z-0.576
X-3.696 Y-5.524 Z-0.461
X-3.774 Y-5.43 Z-0.576
Y-5.422 Z-0.58
X-3.772 Y-5.386 Z-0.592
X-3.724 Y-5.235 Z-0.603
X-3.579 Y-4.808 Z-0.643
X-3.465 Y-4.496 Z-0.665
X-3.356 Y-4.214 Z-0.679
X-3.145 Y-3.717 Z-0.697
X-3.073 Y-3.552 Z-0.704
X-2.923 Y-3.224 Z-0.713
X-2.69 Y-2.734 Z-0.734
X-2.448 Y-2.245 Z-0.765
X-2.193 Y-1.757 Z-0.809
X-1.923 Y-1.269 Z-0.867
X-1.632 Y-0.782 Z-0.94
X-1.403 Y-0.425 Z-1.008
X-1.419 Y-0.339 Z-0.958
X-1.435 Y-0.226 Z-0.897
X-1.445 Y-0.116 Z-0.844
X-1.448 Y-0.009 Z-0.797
X-1.446 Y0.043 Z-0.775
X-1.444 Y0.095 Z-0.757
X-1.44 Y0.146 Z-0.739
X-1.435 Y0.197 Z-0.724
X-1.427 Y0.246 Z-0.71
X-1.419 Y0.296 Z-0.699
X-1.407 Y0.343 Z-0.688
X-1.396 Y0.391 Z-0.68
X-1.382 Y0.438 Z-0.673
X-1.367 Y0.484 Z-0.668
X-1.349 Y0.529 Z-0.664
X-1.332 Y0.574
X-1.296 Y0.656 Z-0.663
X-0.847 Y1.665 Z-0.642
X-0.592 Y2.214 Z-0.634
X-0.501 Y2.404 Z-0.633
X-0.328 Y2.761 Z-0.63
X0.209 Y3.826 Z-0.639
X0.363 Y4.125 Z-0.644
X0.763 Y4.875 Z-0.648
X1.171 Y5.634 Z-0.655
X1.504 Y6.245 Z-0.657
X1.998 Y7.136 Z-0.668
X2.266 Y7.61 Z-0.669
X3.047 Y8.946 Z-0.69
X3.053 Y8.955
X3.735 Y10.092 Z-0.714
X3.86 Y10.295 Z-0.716
X4.005 Y10.525 Z-0.722
X4.039 Y10.586 Z-0.72
X4.121 Y10.717 Z-0.711
X4.172 Y10.814 Z-0.696
X4.197 Y10.863 Z-0.685
X4.274 Y11.029 Z-0.644
X4.279 Y11.047 Z-0.635
X4.29 Y11.105 Z-0.599
X4.298 Y11.148 Z-0.568
X4.321 Y11.229 Z-0.496
X4.358 Y11.305 Z-0.414
X4.4 Y11.378 Z-0.332
X4.358 Y11.305 Z-0.414
X4.321 Y11.229 Z-0.496
X4.298 Y11.148 Z-0.568
X4.29 Y11.105 Z-0.599
X4.279 Y11.047 Z-0.635
X4.274 Y11.029 Z-0.644
X4.197 Y10.863 Z-0.685
X4.172 Y10.814 Z-0.696
X4.121 Y10.717 Z-0.711
X4.039 Y10.586 Z-0.72
X4.005 Y10.525 Z-0.722
X3.86 Y10.295 Z-0.716
X3.735 Y10.092 Z-0.714
X3.053 Y8.955 Z-0.69
X3.047 Y8.946
X2.266 Y7.61 Z-0.669
X1.998 Y7.136 Z-0.668
X1.504 Y6.245 Z-0.657
X1.171 Y5.634 Z-0.655
X0.763 Y4.875 Z-0.648
X0.363 Y4.125 Z-0.644
X0.209 Y3.826 Z-0.639
X-0.328 Y2.761 Z-0.63
X-0.501 Y2.404 Z-0.633
X-0.592 Y2.214 Z-0.634
X-0.847 Y1.665 Z-0.642
X-1.296 Y0.656 Z-0.663
X-1.332 Y0.574 Z-0.664
X-1.349 Y0.529
X-1.367 Y0.484 Z-0.668
X-1.382 Y0.438 Z-0.673
X-1.396 Y0.391 Z-0.68
X-1.407 Y0.343 Z-0.688
X-1.419 Y0.296 Z-0.699
X-1.427 Y0.246 Z-0.71
X-1.435 Y0.197 Z-0.724
X-1.44 Y0.146 Z-0.739
X-1.444 Y0.095 Z-0.757
X-1.446 Y0.043 Z-0.775
X-1.448 Y-0.009 Z-0.797
X-1.445 Y-0.116 Z-0.844
X-1.435 Y-0.226 Z-0.897
X-1.419 Y-0.339 Z-0.958
X-1.403 Y-0.425 Z-1.008
X-1.296 Y-0.418 Z-0.933
X-1.193 Y-0.407 Z-0.864
X-1.132 Y-0.399 Z-0.825
X-1.028 Y-0.383 Z-0.764
X-0.928 Y-0.362 Z-0.709
X-0.833 Y-0.335 Z-0.661
X-0.744 Y-0.304 Z-0.621
X-0.701 Y-0.286 Z-0.602
X-0.659 Y-0.268 Z-0.587
X-0.619 Y-0.247 Z-0.572
X-0.579 Y-0.226 Z-0.56
X-0.523 Y-0.193 Z-0.546
X-0.489 Y-0.172 Z-0.54
X-0.458 Y-0.149 Z-0.534
X-0.426 Y-0.127 Z-0.531
X-0.396 Y-0.102 Z-0.529
X-0.367 Y-0.077
X-0.158 Y0.119 Z-0.535
X0.172 Y0.42 Z-0.555
X0.654 Y0.834 Z-0.579
X0.959 Y1.08 Z-0.591
X1.229 Y1.289 Z-0.596
X1.496 Y1.491 Z-0.597
X1.533 Y1.517
X1.57 Y1.543 Z-0.6
X1.609 Y1.566 Z-0.604
X1.648 Y1.589 Z-0.611
X1.689 Y1.609 Z-0.618
X1.731 Y1.63 Z-0.628
X1.774 Y1.648 Z-0.639
X1.817 Y1.665 Z-0.652
X1.861 Y1.679 Z-0.665
X1.905 Y1.693 Z-0.68
X1.997 Y1.715 Z-0.715
X2.092 Y1.731 Z-0.756
X2.191 Y1.743 Z-0.803
X2.293 Y1.749 Z-0.856
X2.399 Y1.751 Z-0.916
X2.509 Y1.744 Z-0.98
X2.622 Y1.732 Z-1.051
X2.707 Y1.809 Z-1.028
X2.819 Y1.906 Z-0.998
X2.976 Y2.034 Z-0.948
X3.064 Y2.102 Z-0.914
X3.153 Y2.174 Z-0.875
X3.234 Y2.242 Z-0.831
X3.317 Y2.318 Z-0.78
X3.415 Y2.415 Z-0.712
X3.418 Y2.425 Z-0.703
X3.431 Y2.497 Z-0.637
X3.439 Y2.559 Z-0.579
X3.44 Y2.667 Z-0.476
X3.411 Y3.151 Z-0.001
X3.44 Y2.667 Z-0.476
X3.439 Y2.559 Z-0.579
X3.431 Y2.497 Z-0.637
X3.418 Y2.425 Z-0.703
X3.415 Y2.415 Z-0.712
X3.494 Y2.434 Z-0.64
X3.538 Y2.441 Z-0.6
X3.618 Y2.443 Z-0.524
X4.152 Y2.411 Z-0.001
X3.618 Y2.443 Z-0.524
X3.538 Y2.441 Z-0.6
X3.494 Y2.434 Z-0.64
X3.415 Y2.415 Z-0.712
X3.317 Y2.318 Z-0.78
X3.234 Y2.242 Z-0.831
X3.153 Y2.174 Z-0.875
X3.064 Y2.102 Z-0.914
X2.976 Y2.034 Z-0.948
X2.819 Y1.906 Z-0.998
X2.707 Y1.809 Z-1.028
X2.622 Y1.732 Z-1.051
X2.627 Y1.61 Z-0.976
X2.626 Y1.492 Z-0.907
X2.619 Y1.378 Z-0.846
X2.605 Y1.269 Z-0.793
X2.596 Y1.217 Z-0.768
X2.586 Y1.164 Z-0.747
X2.573 Y1.114 Z-0.726
X2.561 Y1.064 Z-0.708
X2.545 Y1.015 Z-0.691
X2.53 Y0.967 Z-0.677
X2.511 Y0.921 Z-0.663
X2.487 Y0.863 Z-0.65
X2.465 Y0.82 Z-0.641
X2.444 Y0.777 Z-0.636
X2.42 Y0.736 Z-0.631
X2.396 Y0.695 Z-0.629
X2.258 Y0.478 Z-0.619
X2.02 Y0.096 Z-0.609
X1.789 Y-0.288 Z-0.605
X1.567 Y-0.674 Z-0.608
X1.095 Y-1.523 Z-0.625
X0.936 Y-1.844 Z-0.627
X0.763 Y-2.217 Z-0.639
X0.745 Y-2.26 Z-0.64
X0.642 Y-2.528 Z-0.654
X0.581 Y-2.72 Z-0.662
X0.543 Y-2.852 Z-0.672
X0.465 Y-3.175 Z-0.682
X0.459 Y-3.226 Z-0.684
X0.453 Y-3.277 Z-0.689
X0.45 Y-3.329 Z-0.695
X0.448 Y-3.38 Z-0.704
X0.447 Y-3.549 Z-0.733
X0.449 Y-3.614 Z-0.745
X0.462 Y-3.757 Z-0.777
X0.471 Y-3.824 Z-0.795
X0.482 Y-3.891 Z-0.815
X0.516 Y-4.036 Z-0.865
X0.538 Y-4.118 Z-0.896
X0.564 Y-4.201 Z-0.931
X0.594 Y-4.267 Z-0.957
X0.643 Y-4.349 Z-0.99
X0.692 Y-4.416 Z-1.015
X0.705 Y-4.429 Z-1.018
X0.699 Y-4.443 Z-1.005
X0.582 Y-4.637 Z-0.795
X0.531 Y-4.723 Z-0.699
X0.582 Y-4.637 Z-0.795
X0.699 Y-4.443 Z-1.005
X0.705 Y-4.429 Z-1.018
X0.794 Y-4.447 Z-0.986
X0.882 Y-4.462 Z-0.958
X0.987 Y-4.471 Z-0.925
X1.084 Y-4.472 Z-0.893
X1.19 Y-4.463 Z-0.858
X1.193 Z-0.857
X1.363 Y-4.436 Z-0.796
X1.452 Y-4.417 Z-0.765
X1.538 Y-4.394 Z-0.739
X1.621 Y-4.366 Z-0.719
X1.663 Y-4.346 Z-0.706
X1.706 Y-4.325 Z-0.696
X1.746 Y-4.302 Z-0.686
X1.787 Y-4.28 Z-0.679
X1.825 Y-4.254 Z-0.672
X1.864 Y-4.229 Z-0.669
X2.192 Y-3.996 Z-0.638
X2.288 Y-3.924 Z-0.626
X2.46 Y-3.79 Z-0.61
X2.718 Y-3.575 Z-0.577
X2.9 Y-3.405 Z-0.553
X2.963 Y-3.342 Z-0.547
X3.09 Y-3.21 Z-0.53
X3.25 Y-3.03 Z-0.514
X3.268 Y-3.01 Z-0.512
X3.443 Y-2.798 Z-0.497
X3.758 Y-2.387 Z-0.485
X4.051 Y-1.967 Z-0.484
X4.16 Y-1.796 Z-0.485
X4.317 Y-1.536 Z-0.478
X4.434 Y-1.323 Z-0.467
X4.555 Y-1.081 Z-0.444
X4.635 Y-0.915 Z-0.417
X4.672 Y-0.845 Z-0.403
X4.706 Y-0.789 Z-0.387
X4.739 Y-0.741 Z-0.37
X4.78 Y-0.691 Z-0.345
X4.849 Y-0.618 Z-0.301
X5.155 Y-0.644 Z-0.001
X4.849 Y-0.618 Z-0.301
X4.869 Y-0.584 Z-0.277
X4.9 Y-0.556 Z-0.242
X4.934 Y-0.524 Z-0.201
X4.941 Y-0.516 Z-0.19
X4.934 Y-0.524 Z-0.201
X4.9 Y-0.556 Z-0.242
X4.869 Y-0.584 Z-0.277
X4.851 Y-0.296 Z-0.001
Z5
X10.262 Y3.297
Z-0.001 F333.3
X10.318 Y2.491 Z-0.797 F1000
Y2.431 Z-0.855
X10.224 Y2.446 Z-0.819
X10.131 Y2.455 Z-0.788
X10.024 Y2.462 Z-0.755
X9.975 Y2.464 Z-0.743
X9.807 Y2.458 Z-0.702
X9.758 Y2.454 Z-0.69
X9.709 Y2.451 Z-0.682
X9.662 Y2.444 Z-0.674
X9.614 Y2.437 Z-0.669
X9.567 Y2.427 Z-0.664
X9.492 Y2.408 Z-0.661
X9.326 Y2.357 Z-0.655
X9.137 Y2.291 Z-0.644
X8.943 Y2.205 Z-0.634
X8.758 Y2.103 Z-0.628
X8.594 Y1.996 Z-0.624
X8.442 Y1.884 Z-0.623
X8.158 Y1.648 Z-0.62
X8.109 Y1.604 Z-0.622
X7.775 Y1.282 Z-0.625
X7.446 Y0.948 Z-0.627
X7.149 Y0.614
X7.007 Y0.442 Z-0.635
X6.835 Y0.225 Z-0.641
X6.57 Y-0.137 Z-0.667
X6.546 Y-0.173 Z-0.669
X6.431 Y-0.349 Z-0.684
X6.269 Y-0.611 Z-0.7
X6.124 Y-0.871 Z-0.714
X5.992 Y-1.126 Z-0.72
X5.868 Y-1.39 Z-0.715
X5.841 Y-1.458 Z-0.713
X5.824 Y-1.507
X5.808 Y-1.556 Z-0.717
X5.796 Y-1.606 Z-0.72
X5.783 Y-1.656 Z-0.728
X5.776 Y-1.706 Z-0.733
X5.768 Y-1.755 Z-0.742
X5.764 Y-1.805 Z-0.751
X5.76 Y-1.855 Z-0.764
X5.759 Y-1.906 Z-0.776
X5.758 Y-1.957 Z-0.792
X5.763 Y-2.033 Z-0.815
X5.771 Y-2.11 Z-0.841
X5.858 Y-2.135 Z-0.779
X5.927 Y-2.154 Z-0.734
X6.019 Y-2.177 Z-0.68
X6.109 Y-2.195 Z-0.632
X6.196 Y-2.206 Z-0.59
X6.282 Y-2.212 Z-0.555
X6.364 Y-2.211 Z-0.526
X6.405 Y-2.208 Z-0.513
X6.445 Y-2.205 Z-0.503
X6.484 Y-2.198 Z-0.493
X6.523 Y-2.192 Z-0.487
X6.561 Y-2.183 Z-0.48
X6.599 Y-2.174 Z-0.477
X6.636 Y-2.162 Z-0.473
X7.09 Y-1.985 Z-0.464
X7.312 Y-1.892 Z-0.465
X7.522 Y-1.797 Z-0.461
X7.536 Y-1.791
X7.749 Y-1.682 Z-0.462
X7.896 Y-1.601 Z-0.465
X8.168 Y-1.437 Z-0.468
X8.358 Y-1.314 Z-0.465
X8.412 Y-1.276 Z-0.467
X8.67 Y-1.067 Z-0.476
X8.877 Y-0.889 Z-0.474
X9.11 Y-0.668 Z-0.47
X9.335 Y-0.435 Z-0.468
X9.55 Y-0.185
X9.756 Y0.068 Z-0.476
X10.131 Y0.57 Z-0.497
X10.195 Y0.662 Z-0.505
X10.246 Y0.75 Z-0.506
X10.347 Y0.939 Z-0.517
X10.366 Y0.979 Z-0.519
X10.385 Y1.02 Z-0.526
X10.447 Y1.175 Z-0.546
X10.468 Y1.235 Z-0.555
X10.517 Y1.398 Z-0.581
X10.528 Y1.445 Z-0.587
X10.539 Y1.491 Z-0.598
X10.545 Y1.536 Z-0.606
X10.559 Y1.693 Z-0.644
X10.561 Y1.764 Z-0.659
X10.559 Y1.822 Z-0.675
X10.555 Y1.9 Z-0.697
X10.545 Y1.982 Z-0.721
X10.529 Y2.065 Z-0.75
X10.499 Y2.201 Z-0.803
X10.475 Y2.283 Z-0.84
X10.446 Y2.34 Z-0.861
X10.394 Y2.388 Z-0.866
X10.355 Y2.413 Z-0.862
X10.344 Y2.42 Z-0.861
X10.318 Y2.431 Z-0.855
X10.344 Y2.42 Z-0.861
X10.355 Y2.413 Z-0.862
X10.394 Y2.388 Z-0.866
X10.446 Y2.34 Z-0.861
X10.547 Y2.388 Z-0.753
X10.55 Y2.39 Z-0.749
X10.547 Y2.388 Z-0.753
X10.446 Y2.34 Z-0.861
X10.475 Y2.283 Z-0.84
X10.499 Y2.201 Z-0.803
X10.529 Y2.065 Z-0.75
X10.545 Y1.982 Z-0.721
X10.555 Y1.9 Z-0.697
X10.559 Y1.822 Z-0.675
X10.561 Y1.764 Z-0.659
X10.559 Y1.693 Z-0.644
X10.545 Y1.536 Z-0.606
X10.539 Y1.491 Z-0.598
X10.528 Y1.445 Z-0.587
X10.517 Y1.398 Z-0.581
X10.468 Y1.235 Z-0.555
X10.447 Y1.175 Z-0.546
X10.385 Y1.02 Z-0.526
X10.366 Y0.979 Z-0.519
X10.347 Y0.939 Z-0.517
X10.246 Y0.75 Z-0.506
X10.195 Y0.662 Z-0.505
X10.131 Y0.57 Z-0.497
X9.756 Y0.068 Z-0.476
X9.55 Y-0.185 Z-0.468
X9.335 Y-0.435
X9.11 Y-0.668 Z-0.47
X8.877 Y-0.889 Z-0.474
X8.67 Y-1.067 Z-0.476
X8.412 Y-1.276 Z-0.467
X8.358 Y-1.314 Z-0.465
X8.168 Y-1.437 Z-0.468
X7.896 Y-1.601 Z-0.465
X7.749 Y-1.682 Z-0.462
X7.536 Y-1.791 Z-0.461
X7.522 Y-1.797
X7.312 Y-1.892 Z-0.465
X7.09 Y-1.985 Z-0.464
X6.636 Y-2.162 Z-0.473
X6.599 Y-2.174 Z-0.477
X6.561 Y-2.183 Z-0.48
X6.523 Y-2.192 Z-0.487
X6.484 Y-2.198 Z-0.493
X6.445 Y-2.205 Z-0.503
X6.405 Y-2.208 Z-0.513
X6.364 Y-2.211 Z-0.526
X6.282 Y-2.212 Z-0.555
X6.196 Y-2.206 Z-0.59
X6.109 Y-2.195 Z-0.632
X6.019 Y-2.177 Z-0.68
X5.927 Y-2.154 Z-0.734
X5.858 Y-2.135 Z-0.779
X5.771 Y-2.11 Z-0.841
X5.721 Y-2.18 Z-0.81
X5.675 Y-2.251 Z-0.782
X5.649 Y-2.299 Z-0.765
X5.623 Y-2.347 Z-0.751
X5.6 Y-2.397 Z-0.737
X5.578 Y-2.446 Z-0.727
X5.56 Y-2.496 Z-0.717
X5.541 Y-2.546 Z-0.711
X5.529 Y-2.589 Z-0.706
X5.518 Y-2.631 Z-0.703
X5.509 Y-2.674 Z-0.7
X5.49 Y-2.779 Z-0.702
X5.463 Y-3.102 Z-0.726
X5.454 Y-3.304 Z-0.748
X5.453 Y-3.346 Z-0.753
X5.454 Y-3.473 Z-0.774
X5.472 Y-3.608 Z-0.785
X5.5 Y-3.742 Z-0.804
X5.532 Y-3.862 Z-0.82
X5.566 Y-3.958 Z-0.833
X5.604 Y-4.044 Z-0.84
X5.632 Y-4.096 Z-0.842
X5.655 Y-4.139 Z-0.846
X5.699 Y-4.204 Z-0.851
X5.783 Y-4.315 Z-0.867
X5.857 Y-4.386 Z-0.866
X5.997 Y-4.515 Z-0.86
X6.036 Y-4.545 Z-0.856
X6.112 Y-4.604 Z-0.854
X6.214 Y-4.669 Z-0.844
X6.261 Y-4.692 Z-0.835
X6.309 Y-4.716 Z-0.83
X6.488 Y-4.781 Z-0.8
X6.556 Y-4.801 Z-0.788
X6.649 Y-4.824 Z-0.777
X6.806 Y-4.856 Z-0.759
X6.887 Y-4.862 Z-0.744
X7.058 Y-4.869 Z-0.719
X7.133 Y-4.87 Z-0.709
X7.32 Y-4.867 Z-0.691
X7.53 Y-4.857 Z-0.664
X7.576 Y-4.853 Z-0.661
X7.639 Y-4.842 Z-0.656
X7.717 Y-4.824 Z-0.655
X7.817 Y-4.798 Z-0.656
X8.056 Y-4.723 Z-0.649
X8.358 Y-4.617 Z-0.627
X8.68 Y-4.49 Z-0.601
X8.83 Y-4.429 Z-0.592
X9 Y-4.348 Z-0.572
X9.316 Y-4.191 Z-0.544
X9.451 Y-4.119 Z-0.536
X9.627 Y-4.02 Z-0.522
X9.749 Y-3.946 Z-0.518
X9.927 Y-3.833 Z-0.507
X10.034 Y-3.76 Z-0.505
X10.211 Y-3.632 Z-0.497
X10.309 Y-3.557 Z-0.496
X10.481 Y-3.419 Z-0.49
X10.577 Y-3.338
X10.739 Y-3.195 Z-0.487
X10.99 Y-2.964 Z-0.49
X11.239 Y-2.724 Z-0.498
X11.524 Y-2.436 Z-0.514
X11.709 Y-2.238 Z-0.518
X11.876 Y-2.041 Z-0.517
X12.028 Y-1.846 Z-0.504
X12.173 Y-1.639 Z-0.477
X12.222 Y-1.563 Z-0.464
X12.316 Y-1.435 Z-0.43
X12.346 Y-1.401 Z-0.417
X12.389 Y-1.356 Z-0.393
X12.462 Y-1.288 Z-0.351
X12.473 Y-1.233 Z-0.302
X12.475 Y-1.181 Z-0.253
X12.458 Y-0.922 Z-0.001
X12.475 Y-1.181 Z-0.253
X12.473 Y-1.233 Z-0.302
X12.462 Y-1.288 Z-0.351
X12.482 Y-1.284 Z-0.334
X12.574 Y-1.277 Z-0.251
X12.835 Y-1.299 Z-0.001
Z5
X12.532 Y-5.779
Z-0.001 F333.3
X13.036 Y-5.782 Z-0.494 F1000
X12.931 Y-5.89 Z-0.369
X12.885 Y-5.937 Z-0.308
X12.931 Y-5.89 Z-0.369
X13.036 Y-5.782 Z-0.494
X13.04 Y-5.779 Z-0.497
X13.069 Y-6.287 Z-0.001
X13.04 Y-5.779 Z-0.497
X13.146 Y-5.667 Z-0.577
X13.174 Y-5.633 Z-0.596
X13.185 Y-5.616 Z-0.604
X13.202 Y-5.586 Z-0.613
X13.228 Y-5.528 Z-0.626
X13.316 Y-5.301 Z-0.663
X13.447 Y-4.959 Z-0.703
X13.568 Y-4.666 Z-0.731
X13.642 Y-4.498 Z-0.743
X13.843 Y-4.058 Z-0.781
X14.023 Y-3.682 Z-0.807
X14.236 Y-3.26 Z-0.845
X14.45 Y-2.851 Z-0.887
X14.796 Y-2.21 Z-0.961
X14.88 Y-2.059 Z-0.976
X15.142 Y-1.631 Z-1.039
X15.159 Y-1.604 Z-1.042
X15.14 Y-1.476 Z-0.968
X15.128 Y-1.352 Z-0.903
X15.125 Y-1.292 Z-0.873
X15.123 Y-1.232 Z-0.846
X15.124 Y-1.174 Z-0.82
X15.126 Y-1.116 Z-0.797
X15.131 Y-1.059 Z-0.775
X15.136 Y-1.003 Z-0.756
X15.145 Y-0.948 Z-0.738
X15.154 Y-0.894 Z-0.724
X15.176 Y-0.807 Z-0.701
X15.203 Y-0.722 Z-0.684
X15.22 Y-0.681 Z-0.677
X15.236 Y-0.64 Z-0.673
X15.254 Y-0.601 Z-0.669
X15.273 Y-0.561 Z-0.668
X15.42 Y-0.275 Z-0.658
X15.519 Y-0.093 Z-0.647
X15.792 Y0.379 Z-0.633
X16.077 Y0.818 Z-0.632
X16.129 Y0.894 Z-0.634
X16.377 Y1.252 Z-0.641
X16.52 Y1.448 Z-0.65
X16.78 Y1.78 Z-0.653
X16.893 Y1.915 Z-0.647
X16.999 Y2.03 Z-0.636
X17.101 Y2.127 Z-0.616
X17.221 Y2.228 Z-0.583
X17.285 Y2.278 Z-0.56
X17.371 Y2.353 Z-0.523
X17.448 Y2.429 Z-0.478
X17.45 Y2.478 Z-0.432
X17.444 Y2.581 Z-0.332
X17.404 Y2.919 Z-0.001
X17.444 Y2.581 Z-0.332
X17.45 Y2.478 Z-0.432
X17.448 Y2.429 Z-0.478
X17.474 Y2.44 Z-0.455
X17.53 Y2.455 Z-0.404
X17.474 Y2.44 Z-0.455
X17.448 Y2.429 Z-0.478
X17.371 Y2.353 Z-0.523
X17.285 Y2.278 Z-0.56
X17.221 Y2.228 Z-0.583
X17.101 Y2.127 Z-0.616
X16.999 Y2.03 Z-0.636
X16.893 Y1.915 Z-0.647
X16.78 Y1.78 Z-0.653
X16.52 Y1.448 Z-0.65
X16.377 Y1.252 Z-0.641
X16.129 Y0.894 Z-0.634
X16.077 Y0.818 Z-0.632
X15.792 Y0.379 Z-0.633
X15.519 Y-0.093 Z-0.647
X15.42 Y-0.275 Z-0.658
X15.273 Y-0.561 Z-0.668
X15.254 Y-0.601 Z-0.669
X15.236 Y-0.64 Z-0.673
X15.22 Y-0.681 Z-0.677
X15.203 Y-0.722 Z-0.684
X15.176 Y-0.807 Z-0.701
X15.154 Y-0.894 Z-0.724
X15.145 Y-0.948 Z-0.738
X15.136 Y-1.003 Z-0.756
X15.131 Y-1.059 Z-0.775
X15.126 Y-1.116 Z-0.797
X15.124 Y-1.174 Z-0.82
X15.123 Y-1.232 Z-0.846
X15.125 Y-1.292 Z-0.873
X15.128 Y-1.352 Z-0.903
X15.14 Y-1.476 Z-0.968
X15.159 Y-1.604 Z-1.042
X15.285 Y-1.593 Z-0.951
X15.405 Y-1.576 Z-0.868
X15.519 Y-1.555 Z-0.793
X15.627 Y-1.529 Z-0.726
X15.728 Y-1.498 Z-0.667
X15.775 Y-1.479 Z-0.64
X15.841 Y-1.454 Z-0.607
X15.915 Y-1.419 Z-0.573
X15.985 Y-1.381 Z-0.544
X16.051 Y-1.339 Z-0.521
X16.113 Y-1.293 Z-0.504
X16.142 Y-1.268 Z-0.497
X16.17 Y-1.244 Z-0.493
X16.197 Y-1.217 Z-0.489
X16.595 Y-0.798 Z-0.476
X16.953 Y-0.438 Z-0.477
X17.321 Y-0.089 Z-0.485
X17.798 Y0.336 Z-0.501
X18.066 Y0.569 Z-0.504
X18.115 Y0.608 Z-0.506
X18.166 Y0.645 Z-0.513
X18.219 Y0.678 Z-0.523
X18.261 Y0.7 Z-0.531
X18.302 Y0.721 Z-0.544
X18.346 Y0.739 Z-0.556
X18.389 Y0.757 Z-0.572
X18.436 Y0.772 Z-0.589
X18.482 Y0.788 Z-0.609
X18.531 Y0.8 Z-0.63
X18.58 Y0.812 Z-0.654
X18.684 Y0.829 Z-0.707
X18.792 Y0.841 Z-0.768
X18.867 Y0.845 Z-0.812
X18.944 Y0.846 Z-0.86
X19.134 Y1.086 Z-0.795
X19.183 Y1.144 Z-0.78
X19.407 Y1.398 Z-0.723
X19.438 Y1.431 Z-0.718
X19.644 Y1.637 Z-0.686
X19.696 Y1.685 Z-0.679
X19.956 Y1.909 Z-0.653
X20.221 Y2.117 Z-0.638
X20.557 Y2.356 Z-0.623
X20.705 Y2.458 Z-0.614
X20.864 Y2.571 Z-0.602
X20.894 Y2.594 Z-0.598
X20.986 Y2.663 Z-0.583
X21.024 Y2.699 Z-0.57
X21.05 Y2.808 Z-0.486
X21.07 Y2.906 Z-0.402
X21.069 Y3.326 Z-0.001
X21.07 Y2.906 Z-0.402
X21.05 Y2.808 Z-0.486
X21.024 Y2.699 Z-0.57
X21.067 Y2.701 Z-0.533
X21.29 Y2.72 Z-0.333
X21.373 Y2.716 Z-0.255
X21.635 Y2.687 Z-0.001
X21.373 Y2.716 Z-0.255
X21.29 Y2.72 Z-0.333
X21.067 Y2.701 Z-0.533
X21.024 Y2.699 Z-0.57
X20.986 Y2.663 Z-0.583
X20.894 Y2.594 Z-0.598
X20.864 Y2.571 Z-0.602
X20.705 Y2.458 Z-0.614
X20.557 Y2.356 Z-0.623
X20.221 Y2.117 Z-0.638
X19.956 Y1.909 Z-0.653
X19.696 Y1.685 Z-0.679
X19.644 Y1.637 Z-0.686
X19.438 Y1.431 Z-0.718
X19.407 Y1.398 Z-0.723
X19.183 Y1.144 Z-0.78
X19.134 Y1.086 Z-0.795
X18.944 Y0.846 Z-0.86
X18.952 Y0.805 Z-0.835
X18.974 Y0.687 Z-0.768
X18.981 Y0.63 Z-0.738
X18.988 Y0.574 Z-0.711
X18.99 Y0.519 Z-0.684
X18.993 Y0.463 Z-0.662
X18.994 Y0.38 Z-0.632
X18.995 Y0.311 Z-0.615
X18.996 Y0.249 Z-0.606
Y0.192 Z-0.604
X18.997 Y0.151 Z-0.605
X18.998 Y0.057 Z-0.619
X18.997 Y0.018 Z-0.627
X18.993 Y-0.061 Z-0.649
X18.983 Y-0.17 Z-0.689
X18.977 Y-0.243 Z-0.721
X18.969 Y-0.382 Z-0.787
X18.977 Y-0.507 Z-0.847
X18.997 Y-0.609 Z-0.895
X19.008 Y-0.648 Z-0.911
X18.957 Y-0.675 Z-0.864
X18.888 Y-0.721 Z-0.792
X18.792 Y-0.766 Z-0.693
X18.681 Y-0.824 Z-0.571
X18.792 Y-0.766 Z-0.693
X18.888 Y-0.721 Z-0.792
X18.957 Y-0.675 Z-0.864
X19.008 Y-0.648 Z-0.911
X19.081 Y-0.697 Z-0.891
X19.172 Y-0.742 Z-0.865
X19.273 Y-0.776 Z-0.836
X19.419 Y-0.804 Z-0.788
X19.532 Y-0.817 Z-0.759
X19.665 Y-0.825 Z-0.729
X19.8 Z-0.708
X19.931 Y-0.817 Z-0.684
X19.979 Y-0.813 Z-0.678
X20.027 Y-0.806 Z-0.672
X20.074 Y-0.798 Z-0.67
X20.156 Y-0.776 Z-0.665
X20.321 Y-0.725 Z-0.66
X20.57 Y-0.632 Z-0.637
X20.767 Y-0.549 Z-0.611
X20.832 Y-0.518 Z-0.605
X21.079 Y-0.392 Z-0.572
X21.401 Y-0.21 Z-0.544
X21.653 Y-0.052 Z-0.528
X21.779 Y0.031 Z-0.524
X21.939 Y0.145 Z-0.513
X22.083 Y0.26 Z-0.5
X22.212 Y0.374 Z-0.478
X22.339 Y0.501 Z-0.445
X22.436 Y0.605 Z-0.41
X22.485 Y0.654 Z-0.389
X22.541 Y0.701 Z-0.36
X22.566 Y0.804 Z-0.264
X22.567 Y0.815 Z-0.253
Y1.072 Z-0.001
Y0.815 Z-0.253
X22.566 Y0.804 Z-0.264
X22.541 Y0.701 Z-0.36
X22.562 Y0.706 Z-0.343
X22.606 Y0.712 Z-0.306
X22.652 Y0.715 Z-0.266
X22.724 Y0.71 Z-0.2
X22.93 Y0.68 Z-0.001
Z15
M9
G28 G91 Z0
G90
G28 G91 X0 Y0
G90
M5
M30
