(logo_fusion)
(T4  D=6.35 CR=0 TAPER=45deg - ZMIN=-2.779 - chamfer mill)
G90 G94
G17
G21
(When using Fusion 360 for Personal Use, the feedrate of)
(rapid moves is reduced to match the feedrate of cutting)
(moves, which can increase machining time. Unrestricted rapid)
(moves are available with a Fusion 360 Subscription.)
G28 G91 Z0
G90

(Engrave1)
T4
S15000 M3
G54
G0 X6.383 Y-47.399
Z15
G1 Z5 F2000
Z-0.001 F333.3
X6.596 Y-46.917 Z-0.523 F2000
X6.639 Y-46.824 Z-0.62
X6.691 Y-46.738 Z-0.711
X6.709 Y-46.704 Z-0.744
X6.769 Y-46.61 Z-0.837
X6.787 Y-46.578 Z-0.866
X6.743 Y-46.586 Z-0.823
X6.647 Y-46.606 Z-0.727
X6.553 Y-46.621 Z-0.632
X6.647 Y-46.606 Z-0.727
X6.743 Y-46.586 Z-0.823
X6.787 Y-46.578 Z-0.866
X6.813 Y-46.551 Z-0.89
X6.831 Y-46.569 Z-0.87
X6.906 Y-46.635 Z-0.788
X6.987 Y-46.7 Z-0.699
X7.076 Y-46.773 Z-0.591
X6.987 Y-46.7 Z-0.699
X6.906 Y-46.635 Z-0.788
X6.831 Y-46.569 Z-0.87
X6.813 Y-46.551 Z-0.89
X6.82 Y-46.459 Z-0.888
X6.839 Y-46.252 Z-0.875
X6.841 Y-46.234 Z-0.873
X6.851 Y-46.153 Z-0.864
X6.869 Y-45.944 Z-0.846
X6.875 Y-45.821 Z-0.841
X6.885 Y-45.608 Z-0.83
X6.895 Y-45.495 Z-0.821
X6.902 Y-45.411 Z-0.814
X6.935 Y-44.98 Z-0.784
X6.951 Y-44.788 Z-0.774
X6.978 Y-44.499 Z-0.763
X6.993 Y-44.365 Z-0.761
X7.018 Y-44.189
X7.053 Y-43.947 Z-0.759
X7.091 Y-43.68 Z-0.748
X7.111 Y-43.507 Z-0.741
X7.166 Y-42.924 Z-0.718
X7.212 Y-42.45 Z-0.698
X7.249 Y-42.124 Z-0.688
X7.328 Y-41.475 Z-0.681
X7.371 Y-41.162 Z-0.68
X7.392 Y-41.019 Z-0.681
X7.415 Y-40.877 Z-0.682
X7.453 Y-40.663 Z-0.686
X7.484 Y-40.521 Z-0.691
X7.512 Y-40.413 Z-0.699
X7.529 Y-40.359 Z-0.706
X7.576 Y-40.229 Z-0.725
X7.593 Y-40.191 Z-0.73
X7.62 Y-40.133 Z-0.743
X7.676 Y-40.02 Z-0.77
X7.737 Y-39.909 Z-0.809
X7.821 Y-39.765 Z-0.872
X7.866 Y-39.694 Z-0.91
X7.924 Y-39.606 Z-0.964
X7.956 Y-39.562 Z-0.992
X8.006 Y-39.514 Z-1.021
X8.115 Y-39.409 Z-1.094
X8.195 Y-39.334 Z-1.152
X8.257 Y-39.278 Z-1.201
X8.221 Y-39.013 Z-1.112
X8.187 Y-38.815 Z-1.052
X8.16 Y-38.687 Z-1.009
X8.131 Y-38.583 Z-0.974
X8.123 Y-38.564 Z-0.964
X8.052 Y-38.444 Z-0.891
X8.054 Y-38.368 Z-0.822
X8.055 Y-38.194 Z-0.656
X8.054 Y-38.368 Z-0.822
X8.052 Y-38.444 Z-0.891
X7.909 Y-38.354 Z-0.749
X7.84 Y-38.286 Z-0.657
X7.706 Y-38.158 Z-0.478
X7.84 Y-38.286 Z-0.657
X7.909 Y-38.354 Z-0.749
X7.805 Y-38.33 Z-0.645
X7.76 Y-38.317 Z-0.598
X7.805 Y-38.33 Z-0.645
X7.909 Y-38.354 Z-0.749
X8.052 Y-38.444 Z-0.891
X8.123 Y-38.564 Z-0.964
X8.131 Y-38.583 Z-0.974
X8.16 Y-38.687 Z-1.009
X8.187 Y-38.815 Z-1.052
X8.221 Y-39.013 Z-1.112
X8.257 Y-39.278 Z-1.201
X8.34 Y-39.326 Z-1.149
X8.411 Y-39.369 Z-1.108
X8.546 Y-39.46 Z-1.032
X8.591 Y-39.494 Z-1.008
X8.655 Y-39.549 Z-0.973
X8.755 Y-39.643 Z-0.921
X8.804 Y-39.693 Z-0.896
X8.851 Y-39.743 Z-0.874
X8.915 Y-39.822 Z-0.845
X8.945 Y-39.862 Z-0.832
X8.999 Y-39.941 Z-0.813
X9.078 Y-40.068 Z-0.787
X9.115 Y-40.138 Z-0.777
X9.166 Y-40.241 Z-0.765
X9.215 Y-40.353 Z-0.755
X9.243 Y-40.425 Z-0.748
X9.267 Y-40.491 Z-0.742
X9.331 Y-40.669 Z-0.729
X9.386 Y-40.821 Z-0.726
X9.474 Y-41.078 Z-0.72
X9.566 Y-41.369 Z-0.714
X9.673 Y-41.72 Z-0.71
X9.788 Y-42.11 Z-0.707
X9.904 Y-42.515 Z-0.705
X10.015 Y-42.915
X10.189 Y-43.557 Z-0.704
X10.323 Y-44.04 Z-0.705
X10.439 Y-44.443 Z-0.708
X10.495 Y-44.629 Z-0.712
X10.553 Y-44.815 Z-0.717
X10.622 Y-45.024 Z-0.726
X10.676 Y-45.173 Z-0.736
X10.722 Y-45.29 Z-0.748
X10.772 Y-45.409 Z-0.765
X10.808 Y-45.486 Z-0.779
X10.865 Y-45.598 Z-0.804
X10.899 Y-45.657 Z-0.822
X10.953 Y-45.744 Z-0.85
X10.983 Y-45.79 Z-0.868
X11.015 Y-45.835 Z-0.887
X11.047 Y-45.88 Z-0.909
X11.117 Y-45.968 Z-0.954
X11.163 Y-46.022 Z-0.985
X11.239 Y-46.105 Z-1.039
X11.308 Y-46.174 Z-1.089
X11.398 Y-46.258 Z-1.157
X11.39 Y-46.308 Z-1.137
X11.35 Y-46.548 Z-1.038
X11.341 Y-46.607 Z-1.01
X11.302 Y-46.636 Z-0.964
X11.232 Y-46.681 Z-0.883
X11.107 Y-46.744 Z-0.745
X11.232 Y-46.681 Z-0.883
X11.302 Y-46.636 Z-0.964
X11.341 Y-46.607 Z-1.01
X11.349 Y-46.659 Z-0.972
X11.364 Y-46.72 Z-0.922
X11.366 Y-46.782 Z-0.865
X11.369 Y-46.82 Z-0.829
X11.366 Y-46.782 Z-0.865
X11.364 Y-46.72 Z-0.922
X11.349 Y-46.659 Z-0.972
X11.341 Y-46.607 Z-1.01
X11.35 Y-46.548 Z-1.038
X11.39 Y-46.308 Z-1.137
X11.398 Y-46.258 Z-1.157
X11.482 Y-46.217 Z-1.107
X11.558 Y-46.176 Z-1.063
X11.63 Y-46.133 Z-1.023
X11.738 Y-46.063 Z-0.967
X11.823 Y-46.001 Z-0.923
X11.903 Y-45.937 Z-0.886
X11.971 Y-45.878 Z-0.859
X12.023 Y-45.83 Z-0.838
X12.092 Y-45.759 Z-0.814
X12.158 Y-45.684 Z-0.792
X12.228 Y-45.598 Z-0.775
X12.316 Y-45.48 Z-0.758
X12.387 Y-45.373 Z-0.748
X12.472 Y-45.239 Z-0.74
X12.606 Y-45.013 Z-0.732
X12.693 Y-44.861 Z-0.729
X12.844 Y-44.581 Z-0.724
X12.925 Y-44.419 Z-0.717
X13.113 Y-44.039 Z-0.703
X13.432 Y-43.389 Z-0.685
X13.637 Y-42.959 Z-0.673
X13.825 Y-42.554 Z-0.665
X13.902 Y-42.386 Z-0.662
X14.061 Y-42.022 Z-0.66
X14.235 Y-41.601 Z-0.662
X14.345 Y-41.326 Z-0.665
X14.43 Y-41.135 Z-0.676
X14.486 Y-41.025 Z-0.691
X14.497 Y-41.005 Z-0.694
X14.562 Y-40.893 Z-0.717
X14.606 Y-40.824 Z-0.735
X14.677 Y-40.72 Z-0.766
X14.723 Y-40.655 Z-0.787
X14.773 Y-40.591 Z-0.813
X14.829 Y-40.527 Z-0.843
X14.87 Y-40.485 Z-0.866
X14.91 Y-40.443 Z-0.892
X14.955 Y-40.403 Z-0.918
X14.999 Y-40.362 Z-0.948
X15.096 Y-40.283 Z-1.012
X15.185 Y-40.217 Z-1.074
X15.302 Y-40.139 Z-1.158
X15.301 Y-39.989 Z-1.107
X15.298 Y-39.838 Z-1.053
X15.294 Y-39.705 Z-1.002
X15.293 Y-39.694 Z-0.998
X15.284 Y-39.563 Z-0.943
X15.256 Y-39.484 Z-0.889
X15.217 Y-39.39 Z-0.818
X15.202 Y-39.358 Z-0.791
X15.208 Y-39.206 Z-0.642
X15.218 Y-39.109 Z-0.546
X15.208 Y-39.206 Z-0.642
X15.202 Y-39.358 Z-0.791
X15.125 Y-39.26 Z-0.681
X15.043 Y-39.168 Z-0.568
X14.95 Y-39.054 Z-0.429
X14.938 Y-39.038 Z-0.409
X14.95 Y-39.054 Z-0.429
X15.043 Y-39.168 Z-0.568
X15.125 Y-39.26 Z-0.681
X15.202 Y-39.358 Z-0.791
X15.217 Y-39.39 Z-0.818
X15.256 Y-39.484 Z-0.889
X15.284 Y-39.563 Z-0.943
X15.293 Y-39.694 Z-0.998
X15.294 Y-39.705 Z-1.002
X15.298 Y-39.838 Z-1.053
X15.301 Y-39.989 Z-1.107
X15.302 Y-40.139 Z-1.158
X15.395 Y-40.215 Z-1.096
X15.467 Y-40.282 Z-1.048
X15.535 Y-40.35 Z-1.004
X15.634 Y-40.462 Z-0.941
X15.665 Y-40.501 Z-0.924
X15.722 Y-40.581 Z-0.889
X15.774 Y-40.663 Z-0.86
X15.821 Y-40.746 Z-0.837
X15.903 Y-40.907 Z-0.797
X15.933 Y-40.974 Z-0.784
X15.955 Y-41.028 Z-0.775
X15.99 Y-41.126 Z-0.763
X16.025 Y-41.24 Z-0.755
X16.058 Y-41.368 Z-0.749
X16.104 Y-41.574 Z-0.744
X16.154 Y-41.82 Z-0.743
X16.21 Y-42.159 Z-0.742
X16.26 Y-42.491 Z-0.744
X16.277 Y-42.612 Z-0.745
X16.356 Y-43.212 Z-0.755
X16.416 Y-43.648 Z-0.757
X16.489 Y-44.139 Z-0.759
X16.538 Y-44.443 Z-0.76
X16.585 Y-44.725 Z-0.765
X16.626 Y-44.955 Z-0.773
X16.658 Y-45.123 Z-0.78
X16.675 Y-45.201 Z-0.784
X16.717 Y-45.354 Z-0.786
X16.779 Y-45.536 Z-0.787
X16.81 Y-45.615 Z-0.788
X16.865 Y-45.745 Z-0.787
X16.903 Y-45.826 Z-0.784
X16.874 Y-45.867 Z-0.739
X16.834 Y-45.932 Z-0.67
X16.648 Y-46.137 Z-0.402
X16.834 Y-45.932 Z-0.67
X16.874 Y-45.867 Z-0.739
X16.903 Y-45.826 Z-0.784
X16.969 Y-45.882 Z-0.742
X17.037 Y-45.953 Z-0.695
X17.041 Y-45.958 Z-0.691
X17.055 Y-45.984 Z-0.673
X17.063 Y-45.993 Z-0.664
X17.101 Y-46.051 Z-0.605
X17.177 Y-46.178 Z-0.47
X17.192 Y-46.208 Z-0.438
X17.217 Y-46.269 Z-0.375
X17.23 Y-46.311 Z-0.332
X17.217 Y-46.269 Z-0.375
X17.192 Y-46.208 Z-0.438
X17.177 Y-46.178 Z-0.47
X17.101 Y-46.051 Z-0.605
X17.063 Y-45.993 Z-0.664
X17.055 Y-45.984 Z-0.673
X17.019 Y-46.147 Z-0.51
X16.983 Y-46.287 Z-0.371
X16.952 Y-46.378 Z-0.278
X16.921 Y-46.455 Z-0.199
X16.889 Y-46.516 Z-0.134
X16.86 Y-46.563 Z-0.084
X16.822 Y-46.601 Z-0.037
X16.803 Y-46.633 Z-0.001
X16.822 Y-46.601 Z-0.037
X16.789 Y-46.618 Z-0.001
Z5
X19.687 Y-46.285
Z-0.754 F333.3
X19.726 Y-46.231 Z-0.818 F2000
X19.764 Y-46.188 Z-0.872
X19.853 Y-46.092 Z-0.991
X19.906 Y-46.041 Z-1.055
X19.966 Y-45.965 Z-1.13
X19.921 Y-45.905 Z-1.095
X19.882 Y-45.843 Z-1.061
X19.844 Y-45.781 Z-1.029
X19.803 Y-45.699 Z-0.988
X19.758 Y-45.597 Z-0.943
X19.719 Y-45.49 Z-0.899
X19.696 Y-45.418 Z-0.873
X19.677 Y-45.34 Z-0.847
X19.661 Y-45.263 Z-0.824
X19.65 Y-45.186 Z-0.805
X19.644 Y-45.118 Z-0.79
X19.64 Y-44.993 Z-0.769
X19.643 Y-44.886 Z-0.755
X19.652 Y-44.762 Z-0.743
X19.664 Y-44.652 Z-0.735
X19.687 Y-44.481 Z-0.722
X19.722 Y-44.28 Z-0.712
X19.731 Y-44.233 Z-0.71
X19.788 Y-43.976 Z-0.704
X19.858 Y-43.705
X19.962 Y-43.337 Z-0.714
X19.995 Y-43.229 Z-0.717
X20.04 Y-43.099 Z-0.718
X20.174 Y-42.749
X20.336 Y-42.357 Z-0.719
X20.413 Y-42.184 Z-0.72
X20.48 Y-42.042 Z-0.722
X20.581 Y-41.859 Z-0.724
X20.666 Y-41.72 Z-0.732
X20.698 Y-41.672 Z-0.739
X20.782 Y-41.562 Z-0.752
X20.81 Y-41.526 Z-0.758
X20.912 Y-41.419 Z-0.783
X20.942 Y-41.388 Z-0.791
X21.007 Y-41.331 Z-0.809
X21.076 Y-41.276 Z-0.831
X21.195 Y-41.193 Z-0.869
X21.24 Y-41.167 Z-0.883
X21.286 Y-41.141 Z-0.9
X21.35 Y-41.114 Z-0.919
X21.426 Y-41.089 Z-0.935
X21.511 Y-41.067 Z-0.954
X21.661 Y-41.037 Z-0.994
X21.704 Y-41.029 Z-1.006
X21.768 Y-41.022 Z-1.024
X21.855 Y-41.014 Z-1.052
X21.854 Y-40.941 Z-0.984
X21.844 Y-40.742 Z-0.796
X21.832 Y-40.535 Z-0.597
X21.816 Y-40.357 Z-0.423
X21.799 Y-40.235 Z-0.3
X21.816 Y-40.357 Z-0.423
X21.832 Y-40.535 Z-0.597
X21.844 Y-40.742 Z-0.796
X21.854 Y-40.941 Z-0.984
X21.855 Y-41.014 Z-1.052
X21.903 Y-41.03 Z-1.051
X22.071 Y-40.848 Z-0.82
X22.22 Y-40.7 Z-0.619
X22.071 Y-40.848 Z-0.82
X21.903 Y-41.03 Z-1.051
X21.986 Y-41.105 Z-1.006
X22.036 Y-41.154 Z-0.98
X22.138 Y-41.256 Z-0.937
X22.177 Y-41.298 Z-0.921
X22.239 Y-41.366 Z-0.9
X22.31 Y-41.443 Z-0.884
X22.368 Y-41.507 Z-0.876
X22.481 Y-41.636 Z-0.866
X22.516 Y-41.675 Z-0.868
X22.562 Y-41.729 Z-0.874
X22.645 Y-41.83 Z-0.887
X22.694 Y-41.891 Z-0.899
X22.728 Y-41.936 Z-0.91
X22.789 Y-42.019 Z-0.937
X22.84 Y-42.09 Z-0.963
X22.891 Y-42.046 Z-0.898
X22.922 Y-42.019 Z-0.857
X22.986 Y-41.96 Z-0.771
X22.922 Y-42.019 Z-0.857
X22.891 Y-42.046 Z-0.898
X22.84 Y-42.09 Z-0.963
X22.843 Y-42.097 Z-0.964
X22.865 Y-42.171
X22.886 Y-42.264 Z-0.966
X22.899 Y-42.351 Z-0.97
X22.92 Y-42.513 Z-0.983
X22.929 Y-42.607 Z-0.996
X22.937 Y-42.819 Z-1.035
X22.938 Y-42.908 Z-1.054
X22.931 Y-43.118 Z-1.109
X22.926 Y-43.211 Z-1.133
X22.954 Y-43.242 Z-1.111
X23.01 Y-43.306 Z-1.068
X23.062 Y-43.372 Z-1.029
X23.138 Y-43.478 Z-0.971
X23.198 Y-43.569 Z-0.927
X23.225 Y-43.614 Z-0.908
X23.275 Y-43.705 Z-0.873
X23.298 Y-43.755 Z-0.856
X23.321 Y-43.804 Z-0.843
X23.34 Y-43.854 Z-0.829
X23.38 Y-43.962 Z-0.807
X23.397 Y-44.013 Z-0.797
X23.425 Y-44.109 Z-0.784
X23.455 Y-44.22 Z-0.772
X23.484 Y-44.339 Z-0.762
X23.516 Y-44.478 Z-0.754
X23.584 Y-44.771 Z-0.746
X23.658 Y-45.079 Z-0.749
X23.727 Y-45.369 Z-0.76
X23.734 Y-45.383 Z-0.758
X23.858 Y-45.64 Z-0.708
X23.912 Y-45.756 Z-0.683
X23.972 Y-45.883 Z-0.65
X24.025 Y-45.986 Z-0.614
X24.081 Y-46.082 Z-0.568
X24.114 Y-46.137 Z-0.536
X24.145 Y-46.186 Z-0.499
X24.158 Y-46.207 Z-0.479
X24.145 Y-46.186 Z-0.499
X24.114 Y-46.137 Z-0.536
X24.081 Y-46.082 Z-0.568
X24.025 Y-45.986 Z-0.614
X23.972 Y-45.883 Z-0.65
X23.912 Y-45.756 Z-0.683
X23.858 Y-45.64 Z-0.708
X23.734 Y-45.383 Z-0.758
X23.727 Y-45.369 Z-0.76
X23.658 Y-45.079 Z-0.749
X23.584 Y-44.771 Z-0.746
X23.516 Y-44.478 Z-0.754
X23.484 Y-44.339 Z-0.762
X23.455 Y-44.22 Z-0.772
X23.425 Y-44.109 Z-0.784
X23.397 Y-44.013 Z-0.797
X23.38 Y-43.962 Z-0.807
X23.34 Y-43.854 Z-0.829
X23.321 Y-43.804 Z-0.843
X23.298 Y-43.755 Z-0.856
X23.275 Y-43.705 Z-0.873
X23.225 Y-43.614 Z-0.908
X23.198 Y-43.569 Z-0.927
X23.138 Y-43.478 Z-0.971
X23.062 Y-43.372 Z-1.029
X23.01 Y-43.306 Z-1.068
X22.954 Y-43.242 Z-1.111
X22.926 Y-43.211 Z-1.133
X22.789 Y-43.283 Z-1.033
X22.752 Y-43.305 Z-1.006
X22.639 Y-43.372 Z-0.93
X22.558 Y-43.425 Z-0.879
X22.467 Y-43.491 Z-0.825
X22.372 Y-43.565 Z-0.772
X22.321 Y-43.609 Z-0.746
X22.273 Y-43.652 Z-0.725
X22.168 Y-43.752 Z-0.68
X22.112 Y-43.811 Z-0.661
X22.007 Y-43.936 Z-0.633
X21.975 Y-43.977 Z-0.626
X21.905 Y-44.077 Z-0.618
X21.839 Y-44.179 Z-0.615
X21.643 Y-44.514 Z-0.624
X21.483 Y-44.777 Z-0.633
X21.336 Y-45.004 Z-0.639
X21.213 Y-45.187 Z-0.647
X21.157 Y-45.264 Z-0.653
X21.121 Y-45.312 Z-0.658
X21.063 Y-45.38 Z-0.667
X21.034 Y-45.414 Z-0.675
X21.001 Y-45.447 Z-0.682
X20.966 Y-45.483 Z-0.694
X20.867 Y-45.571 Z-0.723
X20.797 Y-45.629 Z-0.749
X20.728 Y-45.679 Z-0.778
X20.603 Y-45.761 Z-0.832
X20.545 Y-45.796 Z-0.859
X20.502 Y-45.818 Z-0.879
X20.367 Y-45.882 Z-0.948
X20.254 Y-45.927 Z-1.007
X20.184 Y-45.951 Z-1.045
X20.079 Y-45.98 Z-1.102
X20.068 Y-45.982 Z-1.107
X19.998 Y-45.972 Z-1.123
X19.966 Y-45.965 Z-1.13
X19.998 Y-45.972 Z-1.123
X20.068 Y-45.982 Z-1.107
X20.082 Y-46.016 Z-1.073
X20.15 Y-46.161 Z-0.917
Z5
X26.442 Y-40.928
Z-0.69 F333.3
X26.45 Y-40.939 Z-0.704 F2000
X26.52 Y-41.012 Z-0.8
Z-0.799
X26.556 Y-40.968 Z-0.751
X26.657 Y-40.835 Z-0.602
X26.707 Y-40.773 Z-0.527
X26.715 Y-40.761 Z-0.513
X26.707 Y-40.773 Z-0.527
X26.657 Y-40.835 Z-0.602
X26.556 Y-40.968 Z-0.751
X26.52 Y-41.012 Z-0.799
X26.517 Y-40.995 Z-0.783
X26.488 Y-40.815 Z-0.606
X26.475 Y-40.755 Z-0.545
X26.488 Y-40.815 Z-0.606
X26.517 Y-40.995 Z-0.783
X26.52 Y-41.012 Z-0.799
Z-0.8
X26.519 Y-41.026 Z-0.805
X26.524 Y-41.087 Z-0.813
X26.527 Y-41.146 Z-0.817
X26.53 Y-41.296 Z-0.822
X26.529 Y-41.47 Z-0.82
X26.526 Y-41.637 Z-0.816
X26.512 Y-42.066 Z-0.798
X26.503 Y-42.36 Z-0.786
X26.499 Y-42.659 Z-0.777
X26.504 Y-42.931 Z-0.775
X26.514 Y-43.165 Z-0.779
X26.532 Y-43.432 Z-0.787
X26.55 Y-43.628 Z-0.797
X26.564 Y-43.748 Z-0.805
X26.585 Y-43.896 Z-0.817
X26.603 Y-43.997 Z-0.829
X26.65 Y-44.194 Z-0.861
X26.664 Y-44.25 Z-0.871
X26.681 Y-44.303 Z-0.881
X26.698 Y-44.356 Z-0.895
X26.719 Y-44.408 Z-0.909
X26.739 Y-44.461 Z-0.926
X26.783 Y-44.555 Z-0.959
X26.833 Y-44.648 Z-0.998
X26.884 Y-44.732 Z-1.037
X26.939 Y-44.814 Z-1.08
X26.991 Y-44.884 Z-1.12
X27.046 Y-44.953 Z-1.163
X27.113 Y-45.027 Z-1.214
X27.185 Y-45.101 Z-1.268
X27.16 Y-45.25 Z-1.212
X27.142 Y-45.399 Z-1.156
X27.12 Y-45.556 Z-1.091
X27.115 Y-45.613 Z-1.068
X27.162 Y-45.714 Z-0.98
X27.262 Y-45.896 Z-0.815
X27.327 Y-46.013 Z-0.705
X27.372 Y-46.101 Z-0.618
X27.405 Y-46.181 Z-0.538
X27.429 Y-46.23 Z-0.487
X27.473 Y-46.349 Z-0.364
X27.636 Y-46.678 Z-0.001
X27.473 Y-46.349 Z-0.364
X27.429 Y-46.23 Z-0.487
X27.405 Y-46.181 Z-0.538
X27.372 Y-46.101 Z-0.618
X27.327 Y-46.013 Z-0.705
X27.262 Y-45.896 Z-0.815
X27.162 Y-45.714 Z-0.98
X27.115 Y-45.613 Z-1.068
X27.075 Y-45.659 Z-1.014
X27.025 Y-45.713 Z-0.947
X26.866 Y-45.895 Z-0.722
X26.809 Y-45.967 Z-0.633
X26.761 Y-46.037 Z-0.55
X26.809 Y-45.967 Z-0.633
X26.866 Y-45.895 Z-0.722
X27.025 Y-45.713 Z-0.947
X27.075 Y-45.659 Z-1.014
X27.115 Y-45.613 Z-1.068
X27.12 Y-45.556 Z-1.091
X27.142 Y-45.399 Z-1.156
X27.16 Y-45.25 Z-1.212
X27.185 Y-45.101 Z-1.268
X27.324 Y-45.037 Z-1.184
X27.417 Y-44.991 Z-1.132
X27.512 Y-44.938 Z-1.082
X27.642 Y-44.857 Z-1.018
X27.684 Y-44.828 Z-0.999
X27.744 Y-44.784 Z-0.973
X27.801 Y-44.738 Z-0.95
X27.879 Y-44.668 Z-0.919
X27.918 Y-44.627 Z-0.904
X27.965 Y-44.571 Z-0.883
X28.009 Y-44.513 Z-0.865
X28.046 Y-44.454 Z-0.848
X28.106 Y-44.347 Z-0.821
X28.204 Y-44.168 Z-0.778
X28.289 Y-44.003 Z-0.747
X28.364 Y-43.843 Z-0.726
X28.42 Y-43.71 Z-0.716
X28.463 Y-43.592 Z-0.714
X28.563 Y-43.317 Z-0.708
X28.651 Y-43.091 Z-0.693
X28.72 Y-42.896 Z-0.683
X28.804 Y-42.642 Z-0.674
X28.827 Y-42.578 Z-0.673
X28.884 Y-42.423
X28.952 Y-42.256 Z-0.677
X28.998 Y-42.159 Z-0.684
X29.035 Y-42.083 Z-0.69
X29.066 Y-42.018 Z-0.694
X29.09 Y-41.954 Z-0.692
X29.153 Y-41.801 Z-0.691
X29.169 Y-41.766 Z-0.693
X29.199 Y-41.708 Z-0.698
X29.271 Y-41.578 Z-0.713
X29.295 Y-41.537 Z-0.72
X29.322 Y-41.497 Z-0.728
X29.368 Y-41.432 Z-0.746
X29.468 Y-41.306 Z-0.787
X29.521 Y-41.246 Z-0.812
X29.578 Y-41.188 Z-0.841
X29.652 Y-41.121 Z-0.88
X29.702 Y-41.078 Z-0.908
X29.761 Y-41.03 Z-0.942
X29.824 Y-40.983 Z-0.98
X29.879 Y-40.946 Z-1.012
X29.943 Y-40.904 Z-1.054
X29.857 Y-40.774 Z-0.919
X29.805 Y-40.701 Z-0.839
X29.75 Y-40.615 Z-0.742
X29.745 Y-40.609 Z-0.734
X29.75 Y-40.615 Z-0.742
X29.805 Y-40.701 Z-0.839
X29.857 Y-40.774 Z-0.919
X29.943 Y-40.904 Z-1.054
X29.982 Y-40.905
X30.098 Y-40.915 Z-1.056
X30.128 Y-40.92
X30.182 Y-40.932 Z-1.054
X30.242 Y-40.863 Z-0.967
X30.272 Y-40.829 Z-0.922
X30.242 Y-40.863 Z-0.967
X30.182 Y-40.932 Z-1.054
X30.212 Y-40.954 Z-1.04
X30.258 Y-40.993 Z-1.015
X30.305 Y-41.032 Z-0.994
X30.348 Y-41.072 Z-0.973
X30.391 Y-41.112 Z-0.955
X30.462 Y-41.188 Z-0.925
X30.512 Y-41.25 Z-0.904
X30.537 Y-41.289 Z-0.889
X30.604 Y-41.392 Z-0.856
X30.619 Y-41.417 Z-0.85
X30.661 Y-41.49 Z-0.836
X30.721 Y-41.602 Z-0.819
X30.765 Y-41.697 Z-0.809
X30.778 Y-41.728 Z-0.804
X30.81 Y-41.813 Z-0.795
X30.856 Y-41.952 Z-0.779
X30.915 Y-42.176 Z-0.756
X30.954 Y-42.352 Z-0.744
X30.983 Y-42.51 Z-0.74
X31.001 Y-42.637 Z-0.741
X31.03 Y-42.828 Z-0.745
X31.047 Y-42.965 Z-0.746
X31.06 Y-43.13 Z-0.741
X31.077 Y-43.334 Z-0.738
X31.084 Y-43.397
X31.114 Y-43.592 Z-0.75
X31.123 Y-43.648 Z-0.755
X31.15 Y-43.764 Z-0.77
X31.181 Y-43.879 Z-0.792
X31.212 Y-43.976 Z-0.814
X31.228 Y-44.023 Z-0.828
X31.266 Y-44.116 Z-0.859
X31.329 Y-44.252 Z-0.913
X31.373 Y-44.335 Z-0.951
X31.421 Y-44.417 Z-0.994
X31.491 Y-44.525 Z-1.059
X31.558 Y-44.618 Z-1.121
X31.599 Y-44.672 Z-1.16
X31.562 Y-44.854 Z-1.115
X31.539 Y-44.971 Z-1.09
X31.473 Y-45.341 Z-1.014
X31.453 Y-45.495 Z-0.984
X31.443 Y-45.585 Z-0.965
X31.439 Y-45.659 Z-0.948
X31.44 Y-45.673 Z-0.943
X31.464 Y-45.72 Z-0.907
X31.494 Y-45.772 Z-0.863
X31.547 Y-45.859 Z-0.785
X31.575 Y-45.908 Z-0.74
X31.6 Y-45.957 Z-0.695
X31.67 Y-46.217 Z-0.436
X31.6 Y-45.957 Z-0.695
X31.575 Y-45.908 Z-0.74
X31.547 Y-45.859 Z-0.785
X31.494 Y-45.772 Z-0.863
X31.464 Y-45.72 Z-0.907
X31.44 Y-45.673 Z-0.943
X31.426 Y-45.687 Z-0.925
X31.364 Y-45.744 Z-0.847
X31.309 Y-45.789 Z-0.779
X31.253 Y-45.827 Z-0.714
X31.309 Y-45.789 Z-0.779
X31.364 Y-45.744 Z-0.847
X31.426 Y-45.687 Z-0.925
X31.44 Y-45.673 Z-0.943
X31.439 Y-45.659 Z-0.948
X31.443 Y-45.585 Z-0.965
X31.453 Y-45.495 Z-0.984
X31.473 Y-45.341 Z-1.014
X31.539 Y-44.971 Z-1.09
X31.562 Y-44.854 Z-1.115
X31.599 Y-44.672 Z-1.16
X31.658 Y-44.647 Z-1.118
X31.774 Y-44.593 Z-1.041
X31.883 Y-44.535 Z-0.97
X31.91 Y-44.52 Z-0.954
X31.985 Y-44.476 Z-0.909
X32.057 Y-44.43 Z-0.869
X32.167 Y-44.35 Z-0.813
X32.228 Y-44.302 Z-0.783
X32.287 Y-44.252 Z-0.758
X32.373 Y-44.17 Z-0.726
X32.411 Y-44.131 Z-0.713
X32.485 Y-44.05 Z-0.693
X32.57 Y-43.953 Z-0.677
X32.595 Y-43.922 Z-0.674
X32.681 Y-43.819 Z-0.667
X32.779 Y-43.703 Z-0.666
X32.837 Y-43.637 Z-0.669
X32.934 Y-43.533 Z-0.682
X32.975 Y-43.491 Z-0.689
X33.061 Y-43.412 Z-0.711
X33.102 Y-43.376 Z-0.723
X33.153 Y-43.335 Z-0.74
X33.199 Y-43.302 Z-0.756
X33.298 Y-43.233 Z-0.798
X33.347 Y-43.202 Z-0.82
X33.388 Y-43.176 Z-0.84
X33.486 Y-43.123 Z-0.89
X33.607 Y-43.066 Z-0.958
X33.701 Y-43.026 Z-1.013
X33.786 Y-42.993 Z-1.065
X33.875 Y-42.962 Z-1.121
X33.888 Y-42.893 Z-1.094
X33.933 Y-42.651 Z-0.998
X33.953 Y-42.526 Z-0.947
X33.962 Y-42.458 Z-0.917
X34.07 Y-42.34 Z-0.777
X34.228 Y-42.158 Z-0.561
X34.354 Y-42 Z-0.373
X34.39 Y-41.947 Z-0.311
X34.48 Y-41.823 Z-0.162
X34.587 Y-41.699 Z-0.001
X34.48 Y-41.823 Z-0.162
X34.39 Y-41.947 Z-0.311
X34.354 Y-42 Z-0.373
X34.228 Y-42.158 Z-0.561
X34.07 Y-42.34 Z-0.777
X33.962 Y-42.458 Z-0.917
X33.853 Y-42.189 Z-0.677
X33.798 Y-42.043 Z-0.545
X33.759 Y-41.928 Z-0.439
X33.735 Y-41.843 Z-0.36
X33.718 Y-41.756 Z-0.276
X33.735 Y-41.843 Z-0.36
X33.759 Y-41.928 Z-0.439
X33.798 Y-42.043 Z-0.545
X33.853 Y-42.189 Z-0.677
X33.962 Y-42.458 Z-0.917
X33.953 Y-42.526 Z-0.947
X33.933 Y-42.651 Z-0.998
X33.888 Y-42.893 Z-1.094
X33.875 Y-42.962 Z-1.121
X33.917 Y-43.015 Z-1.087
X33.981 Y-43.098 Z-1.039
X34.032 Y-43.169 Z-1
X34.09 Y-43.26 Z-0.956
X34.141 Y-43.351 Z-0.917
X34.187 Y-43.443 Z-0.885
X34.243 Y-43.569 Z-0.845
X34.272 Y-43.643 Z-0.826
X34.3 Y-43.723 Z-0.81
X34.322 Y-43.798 Z-0.799
X34.364 Y-43.964 Z-0.781
X34.38 Y-44.046 Z-0.778
X34.408 Y-44.223 Z-0.775
X34.437 Y-44.462
X34.47 Y-44.775 Z-0.765
X34.514 Y-45.135 Z-0.757
X34.54 Y-45.32 Z-0.754
X34.576 Y-45.531 Z-0.752
X34.588 Y-45.584 Z-0.751
X34.625 Y-45.729
X34.663 Y-45.837
X34.678 Y-45.876 Z-0.753
X34.738 Y-45.996 Z-0.757
X34.77 Y-46.047
X34.798 Y-46.091 Z-0.759
X34.857 Y-46.169 Z-0.756
X34.92 Y-46.236 Z-0.751
X34.991 Y-46.302 Z-0.739
X35.084 Y-46.375 Z-0.718
X35.107 Y-46.388 Z-0.71
X35.143 Y-46.405 Z-0.696
X35.201 Y-46.428 Z-0.669
X35.308 Y-46.406 Z-0.574
X35.361 Y-46.395 Z-0.526
X35.421 Y-46.371 Z-0.464
X35.361 Y-46.395 Z-0.526
X35.308 Y-46.406 Z-0.574
X35.201 Y-46.428 Z-0.669
X35.206 Y-46.435 Z-0.662
X35.232 Y-46.471 Z-0.622
X35.285 Y-46.536 Z-0.545
X35.329 Y-46.582 Z-0.485
X35.385 Y-46.638 Z-0.407
Z5
X37.311 Y-40.914
Z-0.422 F333.3
X37.327 Y-40.963 Z-0.473 F2000
X37.424 Y-41.178 Z-0.699
X37.455 Y-41.242 Z-0.764
X37.51 Y-41.303 Z-0.825
X37.601 Y-41.381 Z-0.899
X37.607 Y-41.375 Z-0.893
X37.665 Y-41.312 Z-0.823
X37.762 Y-41.202 Z-0.699
X37.859 Y-41.094 Z-0.568
X37.913 Y-41.034 Z-0.491
X37.859 Y-41.094 Z-0.568
X37.762 Y-41.202 Z-0.699
X37.665 Y-41.312 Z-0.823
X37.607 Y-41.375 Z-0.893
X37.601 Y-41.381 Z-0.899
X37.627 Y-41.492 Z-0.894
X37.652 Y-41.611 Z-0.884
X37.678 Y-41.771 Z-0.872
X37.694 Y-41.924 Z-0.862
X37.698 Y-42.011 Z-0.856
X37.699 Y-42.055 Z-0.853
X37.698 Y-42.212 Z-0.846
X37.697 Y-42.372 Z-0.845
X37.699 Y-42.523 Z-0.849
X37.703 Y-42.627 Z-0.856
X37.713 Y-42.736 Z-0.869
X37.721 Y-42.793 Z-0.877
X37.738 Y-42.893 Z-0.896
X37.751 Y-42.957 Z-0.91
X37.767 Y-43.022 Z-0.927
X37.791 Y-43.103 Z-0.949
X37.825 Y-43.203 Z-0.982
X37.844 Y-43.257 Z-1.003
X37.898 Y-43.382 Z-1.056
X37.933 Y-43.454 Z-1.091
X37.971 Y-43.526 Z-1.129
X38.038 Y-43.643 Z-1.194
X38.133 Y-43.793 Z-1.288
X38.202 Y-43.891 Z-1.356
X38.237 Y-43.938 Z-1.391
X38.166 Y-44.384 Z-1.314
X38.112 Y-44.686 Z-1.257
X38.035 Y-45.117 Z-1.175
X37.997 Y-45.356 Z-1.134
X37.963 Y-45.54 Z-1.098
X37.919 Y-45.824 Z-1.049
X37.889 Y-46.063 Z-1.01
X37.887 Y-46.085 Z-1.006
X37.974 Y-46.22 Z-0.885
X38.032 Y-46.318 Z-0.801
X38.164 Y-46.434 Z-0.635
X38.203 Y-46.468 Z-0.583
X38.164 Y-46.434 Z-0.635
X38.032 Y-46.318 Z-0.801
X38.042 Y-46.409 Z-0.715
X38.053 Y-46.549 Z-0.58
X38.052 Y-46.608 Z-0.523
X38.053 Y-46.549 Z-0.58
X38.042 Y-46.409 Z-0.715
X38.032 Y-46.318 Z-0.801
X37.974 Y-46.22 Z-0.885
X37.887 Y-46.085 Z-1.006
X37.748 Y-46.222 Z-0.858
X37.701 Y-46.27 Z-0.805
X37.68 Y-46.287 Z-0.782
X37.611 Y-46.35 Z-0.697
X37.574 Y-46.389 Z-0.646
X37.485 Y-46.461 Z-0.533
X37.574 Y-46.389 Z-0.646
X37.611 Y-46.35 Z-0.697
X37.68 Y-46.287 Z-0.782
X37.701 Y-46.27 Z-0.805
X37.748 Y-46.222 Z-0.858
X37.887 Y-46.085 Z-1.006
X37.889 Y-46.063 Z-1.01
X37.919 Y-45.824 Z-1.049
X37.963 Y-45.54 Z-1.098
X37.997 Y-45.356 Z-1.134
X38.035 Y-45.117 Z-1.175
X38.112 Y-44.686 Z-1.257
X38.166 Y-44.384 Z-1.314
X38.237 Y-43.938 Z-1.391
X38.359 Y-43.871 Z-1.296
X38.441 Y-43.824 Z-1.235
X38.563 Y-43.749 Z-1.148
X38.622 Y-43.709 Z-1.106
X38.716 Y-43.644 Z-1.046
X38.796 Y-43.572 Z-0.985
X38.843 Y-43.531 Z-0.953
X38.91 Y-43.474 Z-0.912
X38.981 Y-43.413 Z-0.876
X39.019 Y-43.381 Z-0.86
X39.059 Y-43.347 Z-0.846
X39.102 Y-43.311 Z-0.835
X39.148 Y-43.271 Z-0.827
X39.201 Y-43.228 Z-0.822
X39.332 Y-43.335 Z-0.656
X39.446 Y-43.432 Z-0.509
X39.546 Y-43.529 Z-0.373
X39.628 Y-43.614 Z-0.26
X39.691 Y-43.687 Z-0.168
X39.718 Y-43.726 Z-0.124
X39.738 Y-43.76 Z-0.087
X39.757 Y-43.808 Z-0.042
X39.762 Y-43.829 Z-0.023
X39.771 Y-43.85 Z-0.001
X39.762 Y-43.829 Z-0.023
X39.757 Y-43.808 Z-0.042
X39.738 Y-43.76 Z-0.087
X39.718 Y-43.726 Z-0.124
X39.691 Y-43.687 Z-0.168
X39.628 Y-43.614 Z-0.26
X39.546 Y-43.529 Z-0.373
X39.446 Y-43.432 Z-0.509
X39.332 Y-43.335 Z-0.656
X39.201 Y-43.228 Z-0.822
X39.273 Y-43.14 Z-0.797
X39.316 Y-43.079 Z-0.785
X39.381 Y-42.982 Z-0.767
X39.425 Y-42.906 Z-0.756
X39.483 Y-42.795 Z-0.74
X39.514 Y-42.73 Z-0.732
X39.574 Y-42.596 Z-0.72
X39.64 Y-42.447 Z-0.716
X39.72 Y-42.278 Z-0.719
X39.793 Y-42.136 Z-0.727
X39.828 Y-42.075 Z-0.73
X39.907 Y-41.953 Z-0.744
X39.963 Y-41.878 Z-0.753
X40.031 Y-41.794 Z-0.771
X40.075 Y-41.745 Z-0.782
X40.133 Y-41.684 Z-0.799
X40.225 Y-41.6 Z-0.833
X40.344 Y-41.503 Z-0.881
X40.398 Y-41.463 Z-0.905
X40.455 Y-41.425 Z-0.931
X40.52 Y-41.384 Z-0.963
X40.587 Y-41.345 Z-0.998
X40.721 Y-41.277 Z-1.072
X40.834 Y-41.224 Z-1.136
X40.839 Y-41.134 Z-1.09
X40.84 Y-41.075 Z-1.058
X40.839 Y-41.064 Z-1.05
X40.701 Y-40.787 Z-0.775
X40.67 Y-40.722 Z-0.709
X40.645 Y-40.647 Z-0.633
X40.619 Y-40.558 Z-0.542
X40.601 Y-40.466 Z-0.449
X40.619 Y-40.558 Z-0.542
X40.645 Y-40.647 Z-0.633
X40.67 Y-40.722 Z-0.709
X40.701 Y-40.787 Z-0.775
X40.839 Y-41.064 Z-1.05
X40.92 Y-40.85 Z-0.827
X40.922 Y-40.847 Z-0.824
X40.92 Y-40.85 Z-0.827
X40.839 Y-41.064 Z-1.05
X40.84 Y-41.075 Z-1.058
X40.839 Y-41.134 Z-1.09
X40.834 Y-41.224 Z-1.136
X40.893 Y-41.268 Z-1.103
X40.941 Y-41.309 Z-1.074
X40.988 Y-41.35 Z-1.048
X41.032 Y-41.393 Z-1.023
X41.076 Y-41.435 Z-1.001
X41.13 Y-41.494 Z-0.972
X41.196 Y-41.572 Z-0.937
X41.257 Y-41.652 Z-0.908
X41.337 Y-41.775 Z-0.87
X41.396 Y-41.877 Z-0.847
X41.438 Y-41.959 Z-0.831
X41.479 Y-42.049 Z-0.816
X41.546 Y-42.216 Z-0.798
X41.624 Y-42.446 Z-0.779
X41.695 Y-42.684 Z-0.768
X41.755 Y-42.906 Z-0.762
X41.831 Y-43.193 Z-0.764
X41.87 Y-43.339 Z-0.768
X41.93 Y-43.555 Z-0.78
X41.972 Y-43.689 Z-0.791
X42.02 Y-43.822 Z-0.805
X42.067 Y-43.934 Z-0.82
X42.137 Y-44.08 Z-0.848
X42.199 Y-44.191 Z-0.874
X42.248 Y-44.266 Z-0.897
X42.332 Y-44.387 Z-0.943
X42.397 Y-44.476 Z-0.983
X42.469 Y-44.564 Z-1.029
X42.561 Y-44.667 Z-1.094
X42.678 Y-44.786 Z-1.181
X42.651 Y-44.963 Z-1.119
X42.629 Y-45.125 Z-1.066
X42.621 Y-45.198 Z-1.044
X42.615 Y-45.307 Z-1.009
X42.565 Y-45.361 Z-0.944
X42.481 Y-45.444 Z-0.834
X42.428 Y-45.497 Z-0.761
X42.481 Y-45.444 Z-0.834
X42.565 Y-45.361 Z-0.944
X42.615 Y-45.307 Z-1.009
X42.643 Y-45.36 Z-0.964
X42.7 Y-45.458 Z-0.878
X42.799 Y-45.616 Z-0.729
X42.838 Y-45.675 Z-0.67
X42.893 Y-45.735 Z-0.595
X42.974 Y-45.825 Z-0.477
X42.893 Y-45.735 Z-0.595
X42.838 Y-45.675 Z-0.67
X42.799 Y-45.616 Z-0.729
X42.7 Y-45.458 Z-0.878
X42.643 Y-45.36 Z-0.964
X42.615 Y-45.307 Z-1.009
X42.621 Y-45.198 Z-1.044
X42.629 Y-45.125 Z-1.066
X42.651 Y-44.963 Z-1.119
X42.678 Y-44.786 Z-1.181
X42.779 Y-44.739 Z-1.116
X42.889 Y-44.683 Z-1.049
X42.969 Y-44.64 Z-1.004
X43.045 Y-44.594 Z-0.963
X43.135 Y-44.534 Z-0.918
X43.183 Y-44.499 Z-0.895
X43.267 Y-44.436 Z-0.861
X43.309 Y-44.4 Z-0.842
X43.362 Y-44.356 Z-0.824
X43.43 Y-44.292 Z-0.803
X43.509 Y-44.212 Z-0.781
X43.599 Y-44.115 Z-0.762
X43.699 Y-44.001 Z-0.745
X43.733 Y-43.961 Z-0.74
X43.91 Y-43.742 Z-0.721
X44.006 Y-43.614 Z-0.718
X44.12 Y-43.454 Z-0.72
X44.253 Y-43.276 Z-0.721
X44.324 Y-43.174 Z-0.727
X44.44 Y-43.002 Z-0.742
X44.501 Y-42.922 Z-0.744
X44.59 Y-42.816 Z-0.743
X44.732 Y-42.651
X44.851 Y-42.52 Z-0.747
X44.935 Y-42.431 Z-0.755
X45.022 Y-42.344 Z-0.77
X45.088 Y-42.281 Z-0.787
X45.128 Y-42.245 Z-0.8
X45.2 Y-42.181 Z-0.828
X45.304 Y-42.1 Z-0.875
X45.381 Y-42.054 Z-0.905
X45.49 Y-41.995 Z-0.954
X45.565 Y-41.956 Z-0.993
X45.651 Y-41.917 Z-1.04
X45.716 Y-41.889 Z-1.077
X45.837 Y-41.847 Z-1.146
X45.945 Y-41.814 Z-1.209
X45.969 Y-41.73 Z-1.172
X46.029 Y-41.531 Z-1.085
X46.068 Y-41.404 Z-1.026
X46.088 Y-41.33 Z-0.989
X46.075 Y-41.248 Z-0.922
X46.048 Y-41.181 Z-0.855
X46.013 Y-41.096 Z-0.767
X45.986 Y-41.029 Z-0.696
X46.013 Y-41.096 Z-0.767
X46.048 Y-41.181 Z-0.855
X46.075 Y-41.248 Z-0.922
X46.088 Y-41.194 Z-0.867
X46.117 Y-41.041 Z-0.714
X46.088 Y-41.194 Z-0.867
X46.075 Y-41.248 Z-0.922
X46.088 Y-41.33 Z-0.989
X46.116 Y-41.309 Z-0.958
X46.171 Y-41.262 Z-0.889
X46.21 Y-41.233 Z-0.843
X46.263 Y-41.189 Z-0.777
X46.21 Y-41.233 Z-0.843
X46.171 Y-41.262 Z-0.889
X46.116 Y-41.309 Z-0.958
X46.088 Y-41.33 Z-0.989
X46.068 Y-41.404 Z-1.026
X46.029 Y-41.531 Z-1.085
X45.969 Y-41.73 Z-1.172
X45.945 Y-41.814 Z-1.209
X46.037 Y-41.93 Z-1.136
X46.048 Y-41.943 Z-1.128
X46.108 Y-42.027 Z-1.083
X46.173 Y-42.127 Z-1.036
X46.233 Y-42.228 Z-0.996
X46.261 Y-42.278 Z-0.978
X46.291 Y-42.336 Z-0.96
X46.338 Y-42.439 Z-0.931
X46.361 Y-42.493 Z-0.92
X46.405 Y-42.616 Z-0.894
X46.426 Y-42.689 Z-0.882
X46.455 Y-42.8 Z-0.866
X46.484 Y-42.948 Z-0.85
X46.512 Y-43.113 Z-0.835
X46.53 Y-43.238 Z-0.827
X46.547 Y-43.365 Z-0.819
X46.577 Y-43.589 Z-0.808
X46.607 Y-43.801 Z-0.8
X46.64 Y-44.004 Z-0.795
X46.678 Y-44.214 Z-0.793
X46.752 Y-44.553 Z-0.795
X46.803 Y-44.746 Z-0.797
X46.84 Y-44.872
X46.907 Y-45.067 Z-0.794
X46.933 Y-45.131 Z-0.791
X47.002 Y-45.296 Z-0.786
X47.067 Y-45.429 Z-0.783
X47.127 Y-45.536 Z-0.785
X47.151 Y-45.577 Z-0.786
X47.192 Y-45.641 Z-0.792
X47.258 Y-45.737 Z-0.803
X47.3 Y-45.788 Z-0.81
X47.336 Y-45.823 Z-0.812
X47.355 Y-45.838
X47.389 Y-45.863 Z-0.81
X47.432 Y-45.889 Z-0.805
X47.484 Y-45.914 Z-0.796
X47.547 Y-45.936 Z-0.785
X47.637 Y-45.961 Z-0.766
X47.718 Y-45.974 Z-0.749
X47.723 Z-0.747
X47.732 Y-45.972 Z-0.742
X47.77 Y-45.963 Z-0.721
X47.802 Y-45.952 Z-0.701
X47.849 Y-45.93 Z-0.666
X47.882 Y-45.912 Z-0.64
X47.934 Y-45.878 Z-0.593
X48 Y-45.825 Z-0.525
X48.051 Y-45.781 Z-0.468
X48.196 Y-45.625 Z-0.275
Z5
X50.875 Y-41.314
Z-0.535 F333.3
X50.982 Y-41.373 Z-0.656 F2000
X51.174 Y-41.49 Z-0.876
X51.239 Y-41.527 Z-0.949
X51.203 Y-41.449 Z-0.869
X51.156 Y-41.328 Z-0.748
X51.087 Y-41.168 Z-0.581
X51.037 Y-41.052 Z-0.458
X51.032 Y-41.04 Z-0.446
X51.037 Y-41.052 Z-0.458
X51.087 Y-41.168 Z-0.581
X51.156 Y-41.328 Z-0.748
X51.203 Y-41.449 Z-0.869
X51.239 Y-41.527 Z-0.949
X51.261 Y-41.557 Z-0.979
X51.218 Y-41.608 Z-0.954
X51.176 Y-41.664 Z-0.93
X51.131 Y-41.728 Z-0.905
X50.997 Y-41.932 Z-0.833
X50.92 Y-42.072 Z-0.796
X50.861 Y-42.191 Z-0.77
X50.816 Y-42.289 Z-0.752
X50.757 Y-42.433 Z-0.732
X50.704 Y-42.576 Z-0.716
X50.656 Y-42.721 Z-0.705
X50.611 Y-42.87 Z-0.698
X50.568 Y-43.026 Z-0.694
X50.522 Y-43.203 Z-0.692
X50.475 Y-43.4 Z-0.693
X50.397 Y-43.764 Z-0.696
X50.33 Y-44.109 Z-0.698
X50.303 Y-44.273 Z-0.699
X50.268 Y-44.533 Z-0.698
X50.263 Y-44.579 Z-0.699
X50.254 Y-44.688 Z-0.698
X50.247 Y-44.819 Z-0.699
X50.244 Y-44.949 Z-0.702
X50.246 Y-45.043 Z-0.706
X50.25 Y-45.111 Z-0.71
X50.269 Y-45.303 Z-0.728
X50.286 Y-45.401 Z-0.744
X50.308 Y-45.501 Z-0.762
X50.323 Y-45.539 Z-0.763
X50.35 Y-45.593 Z-0.764
X50.377 Y-45.638 Z-0.765
X50.417 Y-45.703 Z-0.772
X50.478 Y-45.788 Z-0.776
X50.541 Y-45.86 Z-0.779
X50.604 Y-45.921 Z-0.781
X50.665 Y-45.972 Z-0.78
X50.749 Y-46.026 Z-0.777
X50.784 Y-46.045 Z-0.776
X50.838 Y-46.068 Z-0.771
X50.876 Y-46.08 Z-0.767
X50.938 Y-46.094 Z-0.758
X51.037 Y-46.104 Z-0.743
X51.087 Y-46.105 Z-0.734
X51.137 Y-46.106 Z-0.729
X51.188 Y-46.101 Z-0.721
X51.278 Y-46.091 Z-0.713
X51.335 Y-46.08 Z-0.707
X51.396 Y-46.066 Z-0.704
X51.488 Y-46.038 Z-0.698
X51.57 Y-46.01 Z-0.693
X51.698 Y-45.96 Z-0.685
X51.838 Y-45.902 Z-0.679
X51.942 Y-45.856 Z-0.68
X52.007 Y-45.827 Z-0.684
X52.041 Y-45.811 Z-0.688
X52.115 Y-45.767 Z-0.687
X52.224 Y-45.699 Z-0.683
X52.348 Y-45.609 Z-0.681
X52.489 Y-45.499 Z-0.678
X52.624 Y-45.385 Z-0.681
X52.738 Y-45.281 Z-0.682
X52.791 Y-45.229 Z-0.681
X52.972 Y-45.034 Z-0.683
X52.989 Y-45.014 Z-0.682
X53.101 Y-44.878 Z-0.684
X53.212 Y-44.734 Z-0.683
X53.323 Y-44.571
X53.412 Y-44.43 Z-0.68
X53.494 Y-44.283 Z-0.678
X53.56 Y-44.151 Z-0.672
X53.582 Y-44.104 Z-0.668
X53.614 Y-44.029 Z-0.664
X53.658 Y-43.9 Z-0.649
X53.715 Y-43.706 Z-0.629
X53.76 Y-43.524 Z-0.613
X53.797 Y-43.343 Z-0.603
X53.81 Y-43.274 Z-0.6
X53.832 Y-43.12 Z-0.596
X53.841 Y-43.042 Z-0.595
X53.845 Y-42.987 Z-0.594
X53.846 Y-42.918 Z-0.588
X53.838 Y-42.711 Z-0.57
X53.819 Y-42.5 Z-0.554
X53.795 Y-42.274 Z-0.541
X53.784 Y-42.179 Z-0.538
X53.768 Y-42.089 Z-0.537
X53.755 Y-42.034 Z-0.535
X53.731 Y-41.962 Z-0.533
X53.701 Y-41.883 Z-0.529
X53.624 Y-41.724 Z-0.527
X53.537 Y-41.574 Z-0.529
X53.507 Y-41.528 Z-0.531
X53.439 Y-41.431 Z-0.536
X53.345 Y-41.311 Z-0.548
X53.311 Y-41.274 Z-0.551
X53.218 Y-41.177 Z-0.566
X53.154 Y-41.119 Z-0.578
X53.053 Y-41.038 Z-0.598
X53.005 Y-41.006 Z-0.608
X52.971 Y-40.987 Z-0.614
X52.872 Y-40.941 Z-0.628
X52.83 Y-40.923 Z-0.637
X52.777 Y-40.907 Z-0.645
X52.723 Y-40.894 Z-0.656
X52.612 Y-40.878 Z-0.673
X52.568 Z-0.676
X52.524 Z-0.683
X52.481 Y-40.885 Z-0.686
X52.437 Y-40.892 Z-0.692
X52.357 Y-40.916 Z-0.699
X52.304 Y-40.937 Z-0.702
X52.23 Y-40.972 Z-0.708
X52.157 Y-41.017 Z-0.713
X52.086 Y-41.067 Z-0.723
X52.035 Y-41.11 Z-0.733
X51.959 Y-41.178 Z-0.755
X51.894 Y-41.237 Z-0.78
X51.81 Y-41.317 Z-0.822
X51.731 Y-41.392 Z-0.867
X51.66 Y-41.457 Z-0.914
X51.655 Y-41.461 Z-0.917
X51.531 Y-41.49 Z-0.926
X51.477 Y-41.503 Z-0.933
X51.433 Y-41.515 Z-0.941
X51.261 Y-41.557 Z-0.979
X51.433 Y-41.515 Z-0.941
X51.477 Y-41.503 Z-0.933
X51.531 Y-41.49 Z-0.926
X51.655 Y-41.461 Z-0.917
X51.839 Y-41.646 Z-0.691
X51.874 Y-41.682 Z-0.648
X51.979 Y-41.793 Z-0.517
X52.056 Y-41.874 Z-0.413
X52.061 Y-41.881 Z-0.405
Z5
X55.857 Y-41.307
Z-0.379 F333.3
X55.933 Y-41.36 Z-0.469 F2000
X56.003 Y-41.403 Z-0.548
X56.256 Y-41.573 Z-0.828
X56.219 Y-41.59 Z-0.793
X56.128 Y-41.628 Z-0.701
X56.219 Y-41.59 Z-0.793
X56.256 Y-41.573 Z-0.828
X56.677 Z-1.035
X56.708 Z-1.049
X56.811 Y-41.576 Z-1.1
X56.957 Y-41.583 Z-1.177
X57.045 Y-41.487 Z-1.138
X57.136 Y-41.392 Z-1.109
X57.176 Y-41.353 Z-1.1
X57.273 Y-41.258 Z-1.087
X57.322 Y-41.211 Z-1.084
X57.409 Y-41.128 Z-1.09
X57.475 Y-41.063 Z-1.101
X57.515 Y-41.023 Z-1.11
X57.508 Y-40.926 Z-1.053
X57.505 Y-40.884 Z-1.03
X57.494 Y-40.743 Z-0.958
X57.489 Y-40.679 Z-0.931
X57.484 Y-40.621 Z-0.909
X57.478 Y-40.562 Z-0.89
X57.467 Y-40.448 Z-0.86
X57.46 Y-40.36 Z-0.843
X57.452 Y-40.223 Z-0.826
X57.45 Y-40.077 Z-0.818
X57.452 Y-39.931 Z-0.816
X57.472 Y-39.497 Z-0.832
X57.474 Y-39.437 Z-0.834
X57.478 Y-39.33
X57.468 Y-39.317 Z-0.824
X57.418 Y-39.262 Z-0.772
X57.361 Y-39.206 Z-0.712
X57.283 Y-39.144 Z-0.631
X57.238 Y-39.113 Z-0.584
X57.187 Y-39.085 Z-0.531
X57.075 Y-39.038 Z-0.416
X57.187 Y-39.085 Z-0.531
X57.238 Y-39.113 Z-0.584
X57.283 Y-39.144 Z-0.631
X57.361 Y-39.206 Z-0.712
X57.418 Y-39.262 Z-0.772
X57.468 Y-39.317 Z-0.824
X57.478 Y-39.33 Z-0.834
X57.525 Y-39.292 Z-0.786
X57.574 Y-39.246 Z-0.73
X57.619 Y-39.209 Z-0.68
X57.643 Y-39.184 Z-0.648
X57.771 Y-39.059 Z-0.482
X57.643 Y-39.184 Z-0.648
X57.619 Y-39.209 Z-0.68
X57.574 Y-39.246 Z-0.73
X57.525 Y-39.292 Z-0.786
X57.478 Y-39.33 Z-0.834
X57.474 Y-39.437
X57.472 Y-39.497 Z-0.832
X57.452 Y-39.931 Z-0.816
X57.45 Y-40.077 Z-0.818
X57.452 Y-40.223 Z-0.826
X57.46 Y-40.36 Z-0.843
X57.467 Y-40.448 Z-0.86
X57.478 Y-40.562 Z-0.89
X57.484 Y-40.621 Z-0.909
X57.489 Y-40.679 Z-0.931
X57.494 Y-40.743 Z-0.958
X57.505 Y-40.884 Z-1.03
X57.508 Y-40.926 Z-1.053
X57.515 Y-41.023 Z-1.11
X57.59 Y-41.031 Z-1.062
X57.741 Y-41.045 Z-0.971
X57.864 Y-41.054 Z-0.903
X57.982 Y-41.057 Z-0.843
X58.142 Y-41.056 Z-0.771
X58.234 Y-41.052 Z-0.736
X58.359 Y-41.044 Z-0.693
X58.4 Y-41.041 Z-0.681
X58.547 Y-41.023 Z-0.639
X58.692 Y-41.002 Z-0.603
X58.893 Y-40.975 Z-0.564
X59.062 Y-40.955 Z-0.54
X59.228 Y-40.938 Z-0.519
X59.282 Y-40.929 Z-0.51
X59.348 Y-40.912 Z-0.492
X59.396 Y-40.895 Z-0.474
X59.524 Y-40.849 Z-0.427
X59.638 Y-40.812 Z-0.388
X59.783 Y-40.775 Z-0.347
X59.825 Y-40.766 Z-0.339
X59.967 Y-40.744 Z-0.312
X60.131 Y-40.729 Z-0.284
X60.149 Y-40.726 Z-0.278
X60.175 Y-40.72 Z-0.266
X60.243 Y-40.709 Z-0.233
X60.324 Y-40.687 Z-0.182
X60.358 Y-40.678 Z-0.158
X60.378 Y-40.671 Z-0.141
X60.407 Y-40.654 Z-0.11
X60.491 Y-40.58 Z-0.001
X60.407 Y-40.654 Z-0.11
X60.378 Y-40.671 Z-0.141
X60.358 Y-40.678 Z-0.158
X60.324 Y-40.687 Z-0.182
X60.243 Y-40.709 Z-0.233
X60.175 Y-40.72 Z-0.266
X60.149 Y-40.726 Z-0.278
X60.131 Y-40.729 Z-0.284
X59.967 Y-40.744 Z-0.312
X59.825 Y-40.766 Z-0.339
X59.783 Y-40.775 Z-0.347
X59.638 Y-40.812 Z-0.388
X59.524 Y-40.849 Z-0.427
X59.396 Y-40.895 Z-0.474
X59.348 Y-40.912 Z-0.492
X59.282 Y-40.929 Z-0.51
X59.228 Y-40.938 Z-0.519
X59.062 Y-40.955 Z-0.54
X58.893 Y-40.975 Z-0.564
X58.692 Y-41.002 Z-0.603
X58.547 Y-41.023 Z-0.639
X58.4 Y-41.041 Z-0.681
X58.359 Y-41.044 Z-0.693
X58.234 Y-41.052 Z-0.736
X58.142 Y-41.056 Z-0.771
X57.982 Y-41.057 Z-0.843
X57.864 Y-41.054 Z-0.903
X57.741 Y-41.045 Z-0.971
X57.59 Y-41.031 Z-1.062
X57.515 Y-41.023 Z-1.11
X57.475 Y-41.063 Z-1.101
X57.409 Y-41.128 Z-1.09
X57.322 Y-41.211 Z-1.084
X57.273 Y-41.258 Z-1.087
X57.176 Y-41.353 Z-1.1
X57.136 Y-41.392 Z-1.109
X57.045 Y-41.487 Z-1.138
X56.957 Y-41.583 Z-1.177
X56.99 Y-41.706 Z-1.1
X57.012 Y-41.782 Z-1.056
X57.049 Y-41.909 Z-0.99
X57.085 Y-42.039 Z-0.927
X57.105 Y-42.105 Z-0.899
X57.122 Y-42.17 Z-0.872
X57.151 Y-42.299 Z-0.831
X57.165 Y-42.379 Z-0.811
X57.172 Y-42.436 Z-0.799
X57.18 Y-42.527 Z-0.784
X57.183 Y-42.577 Z-0.779
Y-42.628 Z-0.774
X57.158 Y-43.327 Z-0.754
X57.15 Y-43.564 Z-0.748
X57.147 Y-43.727 Z-0.745
X57.145 Y-44.001 Z-0.742
X57.148 Y-44.132 Z-0.743
X57.152 Y-44.251
X57.173 Y-44.526 Z-0.748
X57.178 Y-44.566
X57.226 Y-44.871 Z-0.755
X57.24 Y-44.944
X57.26 Y-45.037 Z-0.757
X57.308 Y-45.223 Z-0.762
X57.365 Y-45.397 Z-0.77
X57.394 Y-45.469
X57.427 Y-45.546 Z-0.776
X57.495 Y-45.681 Z-0.779
X57.541 Y-45.752 Z-0.781
X57.57 Y-45.795 Z-0.784
X57.642 Y-45.891
X57.71 Y-45.964
X57.767 Y-46.015 Z-0.782
X57.816 Y-46.052 Z-0.776
X57.89 Y-46.098 Z-0.764
X58.015 Y-46.158 Z-0.748
X58.115 Y-46.199 Z-0.734
X58.161 Y-46.217 Z-0.731
X58.299 Y-46.256 Z-0.723
X58.399 Y-46.275 Z-0.712
X58.446 Y-46.278 Z-0.707
X58.605 Y-46.288 Z-0.699
X58.675 Z-0.694
X58.731 Y-46.285 Z-0.692
X58.827 Y-46.273 Z-0.688
X58.898 Y-46.258 Z-0.682
X58.981 Y-46.233 Z-0.671
X59.049 Y-46.206 Z-0.658
X59.176 Y-46.149 Z-0.631
X59.332 Y-46.067 Z-0.594
X59.481 Y-45.981 Z-0.557
X59.619 Y-45.894 Z-0.524
X59.741 Y-45.809 Z-0.495
X59.825 Y-45.744 Z-0.476
X59.856 Y-45.716 Z-0.468
X59.909 Y-45.665 Z-0.451
X59.926 Y-45.645 Z-0.443
X59.971 Y-45.582 Z-0.406
X60.02 Y-45.508 Z-0.355
X60.076 Y-45.428 Z-0.291
X60.123 Y-45.368 Z-0.235
X60.162 Y-45.325 Z-0.188
X60.195 Y-45.295 Z-0.149
X60.317 Y-45.204 Z-0.001
Z5
X61.774 Y-37.665
Z-0.001 F333.3
X61.938 Y-37.887 Z-0.274 F2000
X62.019 Y-38.02 Z-0.425
X62.066 Y-38.089 Z-0.503
X62.129 Y-38.167 Z-0.59
X62.172 Y-38.214 Z-0.643
X62.218 Y-38.269 Z-0.699
X62.303 Y-38.361 Z-0.794
X62.362 Y-38.302 Z-0.734
X62.404 Y-38.26 Z-0.688
X62.451 Y-38.224 Z-0.637
X62.481 Y-38.2 Z-0.601
X62.451 Y-38.224 Z-0.637
X62.404 Y-38.26 Z-0.688
X62.362 Y-38.302 Z-0.734
X62.303 Y-38.361 Z-0.794
X62.3 Y-38.444 Z-0.797
Y-38.641 Z-0.799
X62.303 Y-38.795 Z-0.797
X62.314 Y-39.079 Z-0.787
X62.33 Y-39.479 Z-0.773
X62.334 Y-39.675 Z-0.769
X62.337 Y-39.88 Z-0.767
X62.336 Y-40.365 Z-0.769
X62.329 Y-41.048 Z-0.779
X62.314 Y-42.128 Z-0.798
X62.305 Y-42.791 Z-0.816
X62.303 Y-42.979 Z-0.822
X62.305 Y-43.179 Z-0.829
X62.31 Y-43.316 Z-0.835
X62.318 Y-43.423 Z-0.844
X62.325 Y-43.471 Z-0.849
X62.335 Y-43.539 Z-0.859
X62.353 Y-43.635 Z-0.876
X62.376 Y-43.731 Z-0.899
X62.406 Y-43.826 Z-0.927
X62.44 Y-43.922 Z-0.961
X62.473 Y-44 Z-0.992
X62.506 Y-44.071 Z-1.023
X62.531 Y-44.123 Z-1.048
X62.586 Y-44.225 Z-1.102
X62.647 Y-44.328 Z-1.162
X62.715 Y-44.43 Z-1.229
X62.648 Y-44.661 Z-1.161
X62.598 Y-44.84 Z-1.113
X62.567 Y-44.953 Z-1.086
X62.538 Y-45.073 Z-1.062
X62.475 Y-45.337 Z-1.017
X62.449 Y-45.476 Z-0.996
X62.426 Y-45.629 Z-0.972
X62.416 Y-45.636 Z-0.962
X62.337 Y-45.688 Z-0.88
X62.221 Y-45.761 Z-0.757
X62.161 Y-45.798 Z-0.692
X62.004 Y-45.887 Z-0.518
X62.161 Y-45.798 Z-0.692
X62.221 Y-45.761 Z-0.757
X62.337 Y-45.688 Z-0.88
X62.416 Y-45.636 Z-0.962
X62.426 Y-45.629 Z-0.972
X62.452 Y-45.683 Z-0.931
X62.485 Y-45.746 Z-0.88
X62.498 Y-45.768 Z-0.861
X62.596 Y-45.907 Z-0.718
X62.628 Y-45.959 Z-0.662
X62.637 Y-45.971 Z-0.648
X62.681 Y-46.051 Z-0.559
X62.733 Y-46.132 Z-0.464
X62.681 Y-46.051 Z-0.559
X62.637 Y-45.971 Z-0.648
X62.628 Y-45.959 Z-0.662
X62.596 Y-45.907 Z-0.718
X62.498 Y-45.768 Z-0.861
X62.485 Y-45.746 Z-0.88
X62.452 Y-45.683 Z-0.931
X62.426 Y-45.629 Z-0.972
X62.449 Y-45.476 Z-0.996
X62.475 Y-45.337 Z-1.017
X62.538 Y-45.073 Z-1.062
X62.567 Y-44.953 Z-1.086
X62.598 Y-44.84 Z-1.113
X62.648 Y-44.661 Z-1.161
X62.715 Y-44.43 Z-1.229
X62.811 Y-44.398 Z-1.167
X62.912 Y-44.36 Z-1.104
X63.031 Y-44.309 Z-1.033
X63.144 Y-44.254 Z-0.97
X63.197 Y-44.225 Z-0.941
X63.29 Y-44.171 Z-0.896
X63.405 Y-44.093 Z-0.843
X63.477 Y-44.038 Z-0.814
X63.545 Y-43.982 Z-0.791
X63.605 Y-43.926 Z-0.771
X63.672 Y-43.86 Z-0.755
X63.744 Y-43.783 Z-0.739
X63.773 Y-43.751 Z-0.734
X63.884 Y-43.623 Z-0.716
X64.03 Y-43.449 Z-0.698
X64.162 Y-43.289 Z-0.686
X64.298 Y-43.124 Z-0.678
X64.483 Y-42.899 Z-0.676
X64.596 Y-42.766 Z-0.68
X64.692 Y-42.658 Z-0.686
X64.761 Y-42.584 Z-0.692
X64.804 Y-42.542 Z-0.696
X64.932 Y-42.422 Z-0.711
X64.969 Y-42.39 Z-0.714
X65.042 Y-42.331 Z-0.727
X65.166 Y-42.24 Z-0.743
X65.296 Y-42.16 Z-0.76
X65.375 Y-42.12 Z-0.769
X65.463 Y-42.083 Z-0.776
X65.49 Y-42.073 Z-0.777
X65.571 Y-42.054
X65.68 Y-42.043 Z-0.776
X65.818 Y-42.044 Z-0.772
X65.893 Y-42.053 Z-0.77
X65.972 Y-42.067 Z-0.772
X66.033 Y-42.084 Z-0.773
X66.113 Y-42.11 Z-0.779
X66.197 Y-42.146 Z-0.782
X66.238 Y-42.164 Z-0.785
X66.283 Y-42.191 Z-0.787
X66.328 Y-42.217 Z-0.791
X66.367 Y-42.248 Z-0.792
X66.412 Y-42.303 Z-0.784
X66.473 Y-42.388 Z-0.773
X66.508 Y-42.438 Z-0.768
X66.553 Y-42.514 Z-0.763
X66.607 Y-42.615 Z-0.76
X66.65 Y-42.707
X66.689 Y-42.796 Z-0.761
X66.762 Y-42.984 Z-0.764
X66.824 Y-43.165
X66.882 Y-43.375 Z-0.755
X66.947 Y-43.608 Z-0.751
X67.081 Y-44.098
X67.166 Y-44.403 Z-0.755
X67.241 Y-44.654 Z-0.76
X67.269 Y-44.74 Z-0.763
X67.341 Y-44.943 Z-0.773
X67.39 Y-45.061 Z-0.78
X67.406 Y-45.099 Z-0.782
X67.452 Y-45.184 Z-0.78
X67.519 Y-45.279 Z-0.773
X67.611 Y-45.391 Z-0.757
X67.674 Y-45.454 Z-0.746
X67.727 Y-45.503 Z-0.74
X67.818 Y-45.579 Z-0.723
X67.853 Y-45.607 Z-0.72
X67.979 Y-45.686 Z-0.704
X68.054 Y-45.725 Z-0.691
X68.102 Y-45.748 Z-0.685
X68.158 Y-45.767 Z-0.676
X68.265 Y-45.791 Z-0.652
X68.311 Y-45.797 Z-0.637
X68.358 Y-45.802 Z-0.626
X68.449 Y-45.799 Z-0.6
X68.539 Y-45.789 Z-0.566
X68.584 Y-45.777 Z-0.546
X68.636 Y-45.763 Z-0.525
X68.719 Y-45.73 Z-0.485
X68.817 Y-45.679 Z-0.427
X68.939 Y-45.601 Z-0.339
X69.001 Y-45.56 Z-0.286
X69.045 Y-45.531 Z-0.242
X69.063 Y-45.518 Z-0.22
Z5
X19.948 Y-29.157
Z-0.248 F333.3
X20.05 Y-29.063 Z-0.375 F2000
X20.158 Y-28.975 Z-0.498
X20.207 Y-28.937 Z-0.552
X20.298 Y-28.856 Z-0.653
X20.44 Y-28.719 Z-0.809
X20.544 Y-28.611 Z-0.921
X20.627 Y-28.524 Z-1.007
X20.729 Y-28.665 Z-0.863
X20.825 Y-28.791 Z-0.725
X20.917 Y-28.911 Z-0.584
X20.825 Y-28.791 Z-0.725
X20.729 Y-28.665 Z-0.863
X20.627 Y-28.524 Z-1.007
X20.655 Y-28.355 Z-1.037
X20.687 Y-28.177 Z-1.066
X20.759 Y-27.799 Z-1.125
X20.878 Y-27.228 Z-1.205
X20.975 Y-26.795 Z-1.263
X21.083 Y-26.344 Z-1.321
X21.137 Y-26.134 Z-1.347
X21.222 Y-25.82 Z-1.381
X21.248 Y-25.734 Z-1.388
X21.364 Y-25.379 Z-1.412
X21.503 Y-24.973 Z-1.435
X21.612 Y-24.673 Z-1.448
X21.63 Y-24.627
X21.789 Y-24.263 Z-1.442
X22.082 Y-23.603 Z-1.43
X22.517 Y-22.639 Z-1.418
X22.975 Y-21.638 Z-1.411
X23.458 Y-20.599 Z-1.408
X24.151 Y-19.128 Z-1.412
X24.929 Y-17.491 Z-1.421
X25.82 Y-15.617 Z-1.432
X26.404 Y-14.375 Z-1.439
X26.666 Y-13.807 Z-1.444
X26.73 Y-13.662 Z-1.448
X26.975 Y-13.067 Z-1.477
X27.378 Y-12.093 Z-1.518
X27.415 Y-12.015 Z-1.524
X27.444 Y-11.955 Z-1.531
X27.475 Y-11.896 Z-1.539
X27.507 Y-11.836 Z-1.549
X27.541 Y-11.778 Z-1.56
X27.579 Y-11.713 Z-1.575
X27.649 Y-11.606 Z-1.603
X27.723 Y-11.5 Z-1.636
X27.808 Y-11.388 Z-1.678
X27.887 Y-11.291 Z-1.72
X27.971 Y-11.196 Z-1.767
X28.068 Y-11.092 Z-1.824
X28.156 Y-11.004 Z-1.877
X28.248 Y-10.918 Z-1.935
X28.357 Y-10.821 Z-2.007
X28.43 Y-10.76 Z-2.054
X28.502 Y-10.7 Z-2.105
X28.655 Y-10.583 Z-2.211
X28.752 Y-10.513 Z-2.28
X28.829 Y-10.458 Z-2.338
X28.993 Y-10.349 Z-2.459
X29.033 Y-10.323 Z-2.489
X29.187 Y-10.227 Z-2.607
X29.25 Y-9.71 Z-2.512
X29.276 Y-9.463 Z-2.468
X29.318 Y-9.046 Z-2.392
X29.369 Y-8.42 Z-2.278
X29.392 Y-8.08 Z-2.216
X29.411 Y-7.729 Z-2.15
X29.416 Y-7.619 Z-2.129
X29.427 Y-7.318 Z-2.069
X29.434 Y-6.984 Z-2
X29.437 Y-6.771 Z-1.953
Y-6.435 Z-1.872
Y-6.412 Z-1.866
X29.57 Y-6.197 Z-1.678
X29.629 Y-6.113 Z-1.598
X29.701 Y-6.015 Z-1.5
X29.908 Y-5.731 Z-1.212
X30.162 Y-5.389 Z-0.851
X30.287 Y-5.225 Z-0.67
X30.426 Y-5.054 Z-0.474
X30.762 Y-4.652 Z-0.001
X30.426 Y-5.054 Z-0.474
X30.287 Y-5.225 Z-0.67
X30.162 Y-5.389 Z-0.851
X29.908 Y-5.731 Z-1.212
X29.701 Y-6.015 Z-1.5
X29.629 Y-6.113 Z-1.598
X29.57 Y-6.197 Z-1.678
X29.437 Y-6.412 Z-1.866
X29.423 Y-6.397 Z-1.849
X29.14 Y-6.113 Z-1.498
X28.915 Y-5.895 Z-1.215
X28.853 Y-5.836 Z-1.135
X28.811 Y-5.793 Z-1.078
X28.699 Y-5.696 Z-0.934
X28.811 Y-5.793 Z-1.078
X28.853 Y-5.836 Z-1.135
X28.915 Y-5.895 Z-1.215
X29.14 Y-6.113 Z-1.498
X29.423 Y-6.397 Z-1.849
X29.437 Y-6.412 Z-1.866
Y-6.435 Z-1.872
Y-6.771 Z-1.953
X29.434 Y-6.984 Z-2
X29.427 Y-7.318 Z-2.069
X29.416 Y-7.619 Z-2.129
X29.411 Y-7.729 Z-2.15
X29.392 Y-8.08 Z-2.216
X29.369 Y-8.42 Z-2.278
X29.318 Y-9.046 Z-2.392
X29.276 Y-9.463 Z-2.468
X29.25 Y-9.71 Z-2.512
X29.187 Y-10.227 Z-2.607
X29.313 Y-10.373 Z-2.491
X29.42 Y-10.504 Z-2.392
X29.483 Y-10.588 Z-2.332
X29.546 Y-10.671 Z-2.275
X29.614 Y-10.767 Z-2.212
X29.678 Y-10.862 Z-2.153
X29.745 Y-10.966 Z-2.092
X29.808 Y-11.07 Z-2.035
X29.891 Y-11.218 Z-1.96
X29.929 Y-11.291 Z-1.924
X29.967 Y-11.365 Z-1.892
X30.001 Y-11.439 Z-1.86
X30.035 Y-11.513 Z-1.831
X30.065 Y-11.585 Z-1.804
X30.095 Y-11.657 Z-1.779
X30.122 Y-11.73 Z-1.755
X30.148 Y-11.802 Z-1.734
X30.171 Y-11.875 Z-1.713
X30.194 Y-11.947 Z-1.695
X30.212 Y-12.009 Z-1.68
X30.243 Y-12.133 Z-1.655
X30.281 Y-12.31 Z-1.628
X30.299 Y-12.422 Z-1.616
X30.313 Y-12.529 Z-1.609
X30.322 Y-12.63 Z-1.605
X30.33 Y-12.75
X30.345 Y-13.103 Z-1.615
X30.362 Y-13.472 Z-1.63
X30.387 Y-13.931 Z-1.655
X30.411 Y-14.3 Z-1.679
X30.469 Y-15.119 Z-1.736
X30.539 Y-16.021 Z-1.798
X30.588 Y-16.633 Z-1.838
X30.627 Y-17.073 Z-1.864
X30.665 Y-17.427 Z-1.881
X30.687 Y-17.618 Z-1.892
X30.712 Y-17.786 Z-1.903
X30.728 Y-17.877 Z-1.913
X30.756 Y-18.016 Z-1.93
X30.786 Y-18.138 Z-1.949
X30.819 Y-18.259 Z-1.972
X30.857 Y-18.381 Z-1.999
X30.893 Y-18.483 Z-2.024
X30.932 Y-18.584 Z-2.052
X30.988 Y-18.72 Z-2.094
X31.024 Y-18.798 Z-2.119
X31.061 Y-18.876 Z-2.147
X31.1 Y-18.954 Z-2.176
X31.14 Y-19.031 Z-2.207
X31.221 Y-19.174 Z-2.268
X31.308 Y-19.315 Z-2.334
X31.39 Y-19.437 Z-2.396
X31.477 Y-19.558 Z-2.463
X31.462 Y-19.637 Z-2.435
X31.403 Y-19.982 Z-2.311
X31.387 Y-20.087 Z-2.274
X31.356 Y-20.313 Z-2.192
X31.33 Y-20.568 Z-2.098
X31.32 Y-20.693 Z-2.052
X31.311 Y-20.846 Z-1.992
X31.306 Y-21.046 Z-1.909
Y-21.085 Z-1.892
X31.345 Y-21.159 Z-1.825
X31.409 Y-21.272 Z-1.719
X31.52 Y-21.458 Z-1.541
X31.727 Y-21.784 Z-1.218
X31.881 Y-22.011 Z-0.988
X31.904 Y-22.043 Z-0.954
X31.977 Y-22.135 Z-0.851
X32.094 Y-22.264 Z-0.695
X32.227 Y-22.404 Z-0.52
X32.395 Y-22.572 Z-0.3
X32.42 Y-22.597 Z-0.266
X32.395 Y-22.572 Z-0.3
X32.227 Y-22.404 Z-0.52
X32.094 Y-22.264 Z-0.695
X31.977 Y-22.135 Z-0.851
X31.904 Y-22.043 Z-0.954
X31.881 Y-22.011 Z-0.988
X31.727 Y-21.784 Z-1.218
X31.52 Y-21.458 Z-1.541
X31.409 Y-21.272 Z-1.719
X31.345 Y-21.159 Z-1.825
X31.306 Y-21.085 Z-1.892
X31.243 Y-21.173 Z-1.792
X31.19 Y-21.247 Z-1.706
X31.163 Y-21.277 Z-1.667
X31.113 Y-21.339 Z-1.588
X31.163 Y-21.277 Z-1.667
X31.19 Y-21.247 Z-1.706
X31.243 Y-21.173 Z-1.792
X31.306 Y-21.085 Z-1.892
Y-21.046 Z-1.909
X31.311 Y-20.846 Z-1.992
X31.32 Y-20.693 Z-2.052
X31.33 Y-20.568 Z-2.098
X31.356 Y-20.313 Z-2.192
X31.387 Y-20.087 Z-2.274
X31.403 Y-19.982 Z-2.311
X31.462 Y-19.637 Z-2.435
X31.477 Y-19.558 Z-2.463
X31.621 Y-19.516 Z-2.363
X31.762 Y-19.471 Z-2.267
X31.972 Y-19.397 Z-2.13
X32.112 Y-19.344 Z-2.043
X32.246 Y-19.288 Z-1.962
X32.416 Y-19.211 Z-1.864
X32.516 Y-19.163 Z-1.81
X32.634 Y-19.101 Z-1.748
X32.733 Y-19.046 Z-1.7
X32.845 Y-18.979 Z-1.648
X32.942 Y-18.917 Z-1.606
X33.049 Y-18.844 Z-1.564
X33.136 Y-18.78 Z-1.532
X33.247 Y-18.691 Z-1.496
X33.341 Y-18.61 Z-1.47
X33.431 Y-18.526 Z-1.449
X33.499 Y-18.458 Z-1.437
X33.61 Y-18.337 Z-1.423
X33.808 Y-18.11 Z-1.407
X34.219 Y-17.636 Z-1.379
X34.542 Y-17.268 Z-1.361
X34.788 Y-16.997 Z-1.354
X35.297 Y-16.445 Z-1.347
X35.943 Y-15.752 Z-1.343
X36.674 Y-14.976 Z-1.341
X37.362 Y-14.252 Z-1.342
X37.754 Y-13.838 Z-1.343
X38.057 Y-14.04 Z-0.982
X38.264 Y-14.168 Z-0.742
X38.444 Y-14.274 Z-0.536
X38.584 Y-14.347 Z-0.381
X38.703 Y-14.404 Z-0.253
X38.784 Y-14.435 Z-0.17
X38.85 Y-14.455 Z-0.104
X38.915 Y-14.465 Z-0.043
X38.959 Y-14.464 Z-0.001
X38.915 Y-14.465 Z-0.043
X38.85 Y-14.455 Z-0.104
X38.784 Y-14.435 Z-0.17
X38.703 Y-14.404 Z-0.253
X38.584 Y-14.347 Z-0.381
X38.444 Y-14.274 Z-0.536
X38.264 Y-14.168 Z-0.742
X38.057 Y-14.04 Z-0.982
X37.754 Y-13.838 Z-1.343
X37.824 Y-13.743 Z-1.328
X37.89 Y-13.66 Z-1.319
X37.958 Y-13.581 Z-1.315
X37.993 Y-13.542
X38.057 Y-13.476 Z-1.317
X38.101 Y-13.434 Z-1.319
X38.145 Y-13.392 Z-1.324
X38.191 Y-13.352 Z-1.329
X38.237 Y-13.312 Z-1.337
X38.402 Y-13.142 Z-1.342
X38.81 Y-12.717 Z-1.353
X39.667 Y-11.81 Z-1.369
X39.98 Y-11.481 Z-1.373
X40.365 Y-11.08 Z-1.379
X40.613 Y-10.828 Z-1.382
X40.749 Y-10.692 Z-1.385
X40.84 Y-10.603 Z-1.39
X40.92 Y-10.532 Z-1.396
X41.002 Y-10.463 Z-1.407
X41.088 Y-10.397 Z-1.421
X41.161 Y-10.345 Z-1.436
X41.262 Y-10.278 Z-1.46
X41.366 Y-10.215 Z-1.488
X41.471 Y-10.157 Z-1.521
X41.632 Y-10.077 Z-1.579
X41.744 Y-10.029 Z-1.623
X41.825 Y-9.997 Z-1.656
X41.908 Y-9.967 Z-1.691
X42.002 Y-9.936 Z-1.733
X42.097 Y-9.906 Z-1.778
X42.204 Y-9.877 Z-1.83
X42.313 Y-9.851 Z-1.885
X42.427 Y-9.827 Z-1.944
X42.543 Y-9.805 Z-2.007
X42.731 Y-9.777 Z-2.112
X42.924 Y-9.756 Z-2.226
X43.123 Y-9.741 Z-2.349
X43.4 Y-9.282 Z-2.192
X43.685 Y-8.816 Z-2.03
X43.953 Y-8.386 Z-1.874
X44.035 Y-8.257 Z-1.825
X44.203 Y-8.017 Z-1.719
X44.364 Y-7.805 Z-1.613
X44.46 Y-7.686 Z-1.547
X44.509 Y-7.629 Z-1.514
X44.604 Y-7.524 Z-1.445
X44.669 Y-7.461 Z-1.397
X44.763 Y-7.378 Z-1.325
X44.889 Y-7.273 Z-1.225
X45.045 Y-7.154 Z-1.101
X45.223 Y-7.024 Z-0.956
X45.422 Y-6.888 Z-0.791
X45.639 Y-6.748 Z-0.607
X45.915 Y-6.582 Z-0.367
X46.061 Y-6.496 Z-0.235
X46.09 Y-6.479 Z-0.206
X46.118 Y-6.459 Z-0.176
X46.177 Y-6.427 Z-0.114
X46.118 Y-6.459 Z-0.176
X46.09 Y-6.479 Z-0.206
X46.061 Y-6.496 Z-0.235
X45.915 Y-6.582 Z-0.367
X45.639 Y-6.748 Z-0.607
X45.422 Y-6.888 Z-0.791
X45.223 Y-7.024 Z-0.956
X45.045 Y-7.154 Z-1.101
X44.889 Y-7.273 Z-1.225
X44.763 Y-7.378 Z-1.325
X44.669 Y-7.461 Z-1.397
X44.604 Y-7.524 Z-1.445
X44.509 Y-7.629 Z-1.514
X44.46 Y-7.686 Z-1.547
X44.364 Y-7.805 Z-1.613
X44.203 Y-8.017 Z-1.719
X44.035 Y-8.257 Z-1.825
X43.953 Y-8.386 Z-1.874
X43.685 Y-8.816 Z-2.03
X43.4 Y-9.282 Z-2.192
X43.123 Y-9.741 Z-2.349
X43.145 Y-9.803 Z-2.312
X43.202 Y-9.974 Z-2.215
X43.252 Y-10.143 Z-2.124
X43.274 Y-10.23 Z-2.08
X43.297 Y-10.317 Z-2.038
X43.315 Y-10.403 Z-1.997
X43.334 Y-10.49 Z-1.959
X43.349 Y-10.578 Z-1.921
X43.365 Y-10.667 Z-1.886
X43.376 Y-10.754 Z-1.852
X43.387 Y-10.842 Z-1.821
X43.398 Y-10.962 Z-1.781
X43.405 Y-11.08 Z-1.745
X43.408 Y-11.198 Z-1.712
X43.406 Y-11.32 Z-1.683
X43.404 Y-11.38 Z-1.67
X43.396 Y-11.499 Z-1.647
X43.378 Y-11.674 Z-1.622
X43.361 Y-11.788 Z-1.611
X43.34 Y-11.901 Z-1.603
X43.322 Y-11.982 Z-1.599
X43.293 Y-12.1
X43.159 Y-12.609 Z-1.603
X42.814 Y-13.893 Z-1.623
X42.5 Y-15.061 Z-1.647
X42.222 Y-16.117 Z-1.672
X41.999 Y-16.986 Z-1.693
X41.872 Y-17.495 Z-1.706
X41.771 Y-17.913 Z-1.717
X41.609 Y-18.621 Z-1.734
X41.535 Y-18.964 Z-1.743
X41.472 Y-19.27 Z-1.751
X41.413 Y-19.57 Z-1.761
X41.361 Y-19.857 Z-1.772
X41.337 Y-20.009 Z-1.78
X41.317 Y-20.156 Z-1.791
X41.301 Y-20.305 Z-1.807
X41.294 Y-20.404 Z-1.82
X41.289 Y-20.532 Z-1.839
X41.288 Y-20.66 Z-1.863
X41.291 Y-20.79 Z-1.892
X41.298 Y-20.898 Z-1.918
X41.303 Y-20.986 Z-1.942
X41.313 Y-21.066 Z-1.964
X41.322 Y-21.147 Z-1.989
X41.335 Y-21.228 Z-2.014
X41.348 Y-21.309 Z-2.042
X41.364 Y-21.39 Z-2.071
X41.38 Y-21.472 Z-2.102
X41.418 Y-21.636 Z-2.169
X41.46 Y-21.782 Z-2.232
X41.506 Y-21.929 Z-2.3
X41.563 Y-22.093 Z-2.382
X41.621 Y-22.244 Z-2.462
X41.698 Y-22.42 Z-2.56
X41.781 Y-22.596 Z-2.666
X41.872 Y-22.774 Z-2.779
X41.865 Y-22.795 Z-2.774
X41.708 Y-23.248 Z-2.664
X41.691 Y-23.302 Z-2.65
X41.569 Y-23.661 Z-2.553
X41.446 Y-24.034 Z-2.442
X41.432 Y-24.08 Z-2.427
X41.338 Y-24.365 Z-2.33
X41.305 Y-24.47 Z-2.291
X41.244 Y-24.654 Z-2.219
X41.209 Y-24.762 Z-2.172
X41.162 Y-24.9 Z-2.109
X41.117 Y-25.03 Z-2.041
X41.08 Y-25.123 Z-1.986
X41.02 Y-25.222 Z-1.902
X40.984 Y-25.276 Z-1.853
X40.949 Y-25.334 Z-1.8
X40.931 Y-25.354 Z-1.776
X40.826 Y-25.459 Z-1.638
X40.75 Y-25.53 Z-1.538
X40.669 Y-25.597 Z-1.436
X40.619 Y-25.635 Z-1.373
X40.125 Y-25.951 Z-0.789
X40.619 Y-25.635 Z-1.373
X40.669 Y-25.597 Z-1.436
X40.75 Y-25.53 Z-1.538
X40.826 Y-25.459 Z-1.638
X40.931 Y-25.354 Z-1.776
X40.949 Y-25.334 Z-1.8
X40.984 Y-25.276 Z-1.853
X41.02 Y-25.222 Z-1.902
X41.08 Y-25.123 Z-1.986
X41.117 Y-25.03 Z-2.041
X41.162 Y-24.9 Z-2.109
X41.209 Y-24.762 Z-2.172
X41.244 Y-24.654 Z-2.219
X41.305 Y-24.47 Z-2.291
X41.338 Y-24.365 Z-2.33
X41.432 Y-24.08 Z-2.427
X41.446 Y-24.034 Z-2.442
X41.569 Y-23.661 Z-2.553
X41.691 Y-23.302 Z-2.65
X41.708 Y-23.248 Z-2.664
X41.865 Y-22.795 Z-2.774
X41.872 Y-22.774 Z-2.779
X42.081 Y-22.712 Z-2.635
X42.266 Y-22.652 Z-2.51
X42.445 Y-22.588 Z-2.393
X42.618 Y-22.52 Z-2.284
X42.784 Y-22.448 Z-2.182
X42.945 Y-22.372 Z-2.087
X43.099 Y-22.292 Z-2
X43.249 Y-22.207 Z-1.919
X43.365 Y-22.137 Z-1.859
X43.431 Y-22.096 Z-1.828
X43.559 Y-22.01 Z-1.77
X43.621 Y-21.965 Z-1.742
X43.682 Y-21.921 Z-1.718
X43.74 Y-21.874 Z-1.694
X43.799 Y-21.828 Z-1.673
X43.855 Y-21.779 Z-1.652
X43.911 Y-21.731 Z-1.634
X43.964 Y-21.68 Z-1.617
X44.017 Y-21.63 Z-1.602
X44.067 Y-21.578 Z-1.588
X44.166 Y-21.473 Z-1.567
X44.24 Y-21.392 Z-1.555
X44.31 Y-21.308 Z-1.546
X44.427 Y-21.156 Z-1.539
X44.483 Y-21.079 Z-1.538
X44.546 Y-20.99 Z-1.539
X44.774 Y-20.673
X44.883 Y-20.533 Z-1.537
X45.006 Y-20.377 Z-1.533
X45.14 Y-20.212 Z-1.527
X45.341 Y-19.969 Z-1.513
X45.441 Y-19.854 Z-1.508
X45.612 Y-19.661 Z-1.496
X45.94 Y-19.297 Z-1.47
X46.145 Y-19.08 Z-1.457
X46.535 Y-18.679 Z-1.424
X46.757 Y-18.462 Z-1.408
X47.154 Y-18.082 Z-1.377
X47.696 Y-17.585 Z-1.343
X48.254 Y-17.096 Z-1.32
X48.805 Y-16.636 Z-1.312
X49.329 Y-16.218 Z-1.32
X49.728 Y-15.909 Z-1.339
X49.835 Y-15.827 Z-1.347
X49.965 Y-15.726 Z-1.362
X50.057 Y-15.652 Z-1.379
X50.107 Y-15.609 Z-1.392
X50.174 Y-15.556 Z-1.407
X50.313 Y-15.455 Z-1.444
X50.39 Y-15.404 Z-1.467
X50.458 Y-15.361 Z-1.488
X50.571 Y-15.296 Z-1.527
X50.632 Y-15.261 Z-1.551
X50.761 Y-15.196 Z-1.603
X50.836 Y-15.163 Z-1.634
X50.911 Y-15.129 Z-1.668
X50.99 Y-15.098 Z-1.704
X51.068 Y-15.068 Z-1.743
X51.172 Y-15.031 Z-1.795
X51.279 Y-14.997 Z-1.85
X51.427 Y-14.954 Z-1.931
X51.559 Y-14.92 Z-2.005
X51.695 Y-14.889 Z-2.084
X51.834 Y-14.862 Z-2.168
X52.032 Y-14.83 Z-2.292
X52.236 Y-14.804 Z-2.424
X52.565 Y-14.243 Z-2.285
X52.786 Y-13.875 Z-2.197
X52.945 Y-13.616 Z-2.136
X53.263 Y-13.103 Z-2.015
X53.343 Y-12.982 Z-1.981
X53.445 Y-12.842 Z-1.931
X53.508 Y-12.76 Z-1.898
X53.61 Y-12.636 Z-1.841
X53.733 Y-12.495 Z-1.765
X53.825 Y-12.394 Z-1.703
X53.925 Y-12.288 Z-1.63
X54.028 Y-12.182 Z-1.545
X54.101 Y-12.111 Z-1.479
X54.146 Y-12.07 Z-1.435
X54.21 Y-12.022 Z-1.372
X54.276 Y-11.976 Z-1.306
X54.365 Y-11.916 Z-1.216
X54.427 Y-11.878 Z-1.152
X54.517 Y-11.816 Z-1.055
X54.557 Y-11.792 Z-1.012
X54.669 Y-11.717 Z-0.882
X54.557 Y-11.792 Z-1.012
X54.517 Y-11.816 Z-1.055
X54.427 Y-11.878 Z-1.152
X54.365 Y-11.916 Z-1.216
X54.276 Y-11.976 Z-1.306
X54.21 Y-12.022 Z-1.372
X54.146 Y-12.07 Z-1.435
X54.101 Y-12.111 Z-1.479
X54.028 Y-12.182 Z-1.545
X53.925 Y-12.288 Z-1.63
X53.825 Y-12.394 Z-1.703
X53.733 Y-12.495 Z-1.765
X53.61 Y-12.636 Z-1.841
X53.508 Y-12.76 Z-1.898
X53.445 Y-12.842 Z-1.931
X53.343 Y-12.982 Z-1.981
X53.263 Y-13.103 Z-2.015
X52.945 Y-13.616 Z-2.136
X52.786 Y-13.875 Z-2.197
X52.565 Y-14.243 Z-2.285
X52.236 Y-14.804 Z-2.424
X52.274 Y-14.92 Z-2.352
X52.316 Y-15.056 Z-2.271
X52.363 Y-15.23 Z-2.174
X52.404 Y-15.402 Z-2.084
X52.438 Y-15.571 Z-2.001
X52.455 Y-15.673 Z-1.953
X52.469 Y-15.762 Z-1.916
X52.479 Y-15.849 Z-1.879
X52.49 Y-15.936 Z-1.845
X52.496 Y-16.022 Z-1.812
X52.502 Y-16.108 Z-1.783
X52.507 Y-16.252 Z-1.737
Y-16.384 Z-1.7
X52.502 Y-16.514 Z-1.667
X52.491 Y-16.643 Z-1.64
X52.482 Y-16.72 Z-1.626
X52.474 Y-16.789 Z-1.616
X52.463 Y-16.856 Z-1.606
X52.452 Y-16.924 Z-1.599
X52.439 Y-16.991 Z-1.592
X52.425 Y-17.057 Z-1.588
X52.398 Y-17.171 Z-1.582
X52.336 Y-17.396 Z-1.579
X52.166 Y-17.989 Z-1.58
X51.789 Y-19.293 Z-1.596
X51.49 Y-20.346 Z-1.616
X51.303 Y-21.02 Z-1.631
X51.112 Y-21.725 Z-1.65
X50.961 Y-22.304 Z-1.666
X50.843 Y-22.788 Z-1.682
X50.713 Y-23.346 Z-1.696
X50.594 Y-23.907 Z-1.708
X50.534 Y-24.206 Z-1.714
X50.435 Y-24.723 Z-1.725
X49.777 Y-28.366 Z-1.828
X49.587 Y-29.424 Z-1.858
X49.496 Y-29.943 Z-1.869
X49.425 Y-30.366 Z-1.876
X49.384 Y-30.627 Z-1.878
X49.309 Y-31.137 Z-1.875
X49.225 Y-31.694 Z-1.873
X49.165 Y-32.057 Z-1.878
X49.103 Y-32.404 Z-1.887
X49.038 Y-32.735 Z-1.902
X48.969 Y-33.055 Z-1.924
X48.9 Y-33.353 Z-1.953
X48.871 Y-33.477 Z-1.968
X48.819 Y-33.686 Z-1.999
X48.766 Y-33.894 Z-2.034
X48.745 Y-33.963 Z-2.047
X48.7 Y-34.107 Z-2.076
X48.667 Y-34.198 Z-2.097
X48.632 Y-34.29 Z-2.119
X48.599 Y-34.366 Z-2.138
X48.566 Y-34.442 Z-2.16
X48.563 Y-34.45 Z-2.162
X48.774 Y-34.705 Z-1.901
X48.811 Y-34.749 Z-1.854
X48.982 Y-34.966 Z-1.625
X49.041 Y-35.039 Z-1.543
X49.142 Y-35.144 Z-1.405
X49.246 Y-35.262 Z-1.253
X49.142 Y-35.144 Z-1.405
X49.041 Y-35.039 Z-1.543
X48.982 Y-34.966 Z-1.625
X48.811 Y-34.749 Z-1.854
X48.774 Y-34.705 Z-1.901
X48.563 Y-34.45 Z-2.162
X48.428 Y-34.511 Z-2.103
X48.345 Y-34.546 Z-2.068
X48.204 Y-34.602 Z-2.012
X48.13 Y-34.624 Z-1.981
X47.994 Y-34.66 Z-1.927
X47.865 Y-34.691 Z-1.881
X47.781 Y-34.707 Z-1.852
X47.698 Y-34.723 Z-1.826
X47.601 Y-34.736 Z-1.797
X47.506 Y-34.747 Z-1.77
X47.413 Y-34.754 Z-1.746
X47.264 Y-34.763 Z-1.71
X47.132 Y-34.765 Z-1.682
X47.059 Y-34.762 Z-1.667
X46.985 Y-34.76 Z-1.656
X46.878 Y-34.752 Z-1.641
X46.723 Y-34.737 Z-1.621
X46.656 Y-34.73 Z-1.615
X46.52 Y-34.71 Z-1.603
X46.28 Y-34.669 Z-1.588
X45.85 Y-34.591 Z-1.565
X44.621 Y-34.359 Z-1.498
X44.252 Y-34.288 Z-1.482
X43.879 Y-34.216 Z-1.468
X43.62 Y-34.168 Z-1.461
X43.06 Y-34.074 Z-1.46
X42.108 Y-33.917 Z-1.467
X40.67 Y-33.677 Z-1.484
X38.461 Y-33.304 Z-1.518
X36.86 Y-33.033 Z-1.542
X35.811 Y-32.86 Z-1.553
X34.866 Y-32.708 Z-1.559
X34.043 Y-32.58
X33.419 Y-32.487 Z-1.556
X32.452 Y-32.349 Z-1.543
X31.717 Y-32.251 Z-1.526
X30.988 Y-32.16 Z-1.504
X30.744 Y-32.132 Z-1.494
X30.436 Y-32.1 Z-1.479
X30.105 Y-32.07 Z-1.459
X29.541 Y-32.027 Z-1.424
X28.893 Y-31.984 Z-1.383
X28.496 Y-31.961 Z-1.36
X27.881 Y-31.93 Z-1.325
X27.469 Y-31.911 Z-1.295
X27.155 Y-31.899 Z-1.268
X26.869 Y-31.892 Z-1.238
X26.569 Y-31.888 Z-1.2
X26.411 Y-31.887 Z-1.178
X25.819 Y-31.884 Z-1.087
X25.552 Y-31.879 Z-1.044
X25.364 Y-31.873 Z-1.017
X25.014 Y-31.852 Z-0.966
X24.752 Y-31.828 Z-0.932
X24.695 Y-31.821 Z-0.925
X24.249 Y-31.76 Z-0.876
X23.969 Y-31.709 Z-0.847
X23.856 Y-31.686 Z-0.837
X23.53 Y-31.616 Z-0.802
X23.281 Y-31.559 Z-0.77
X23.091 Y-31.517 Z-0.738
X22.905 Y-31.479 Z-0.703
X22.735 Y-31.444 Z-0.665
X22.595 Y-31.418 Z-0.631
X22.473 Y-31.397 Z-0.595
X22.397 Y-31.387 Z-0.57
X22.272 Y-31.378 Z-0.523
X22.212 Y-31.373 Z-0.499
X21.988 Y-31.361 Z-0.402
X21.924 Y-31.36 Z-0.373
X21.798 Y-31.358 Z-0.313
X21.749 Y-31.359 Z-0.288
X21.686 Y-31.32 Z-0.219
X21.665 Y-31.304 Z-0.193
X21.686 Y-31.32 Z-0.219
X21.749 Y-31.359 Z-0.288
X21.461 Y-31.525 Z-0.001
Z15
G28 G91 Z0
G90
G28 G91 X0 Y0
G90
M5
M30
