(logo)
(T4  D=6.35 CR=0 TAPER=45deg - ZMIN=-3.016 - chamfer mill)
G90 G94
G17
G21
(When using Fusion 360 for Personal Use, the feedrate of)
(rapid moves is reduced to match the feedrate of cutting)
(moves, which can increase machining time. Unrestricted rapid)
(moves are available with a Fusion 360 Subscription.)
G28 G91 Z0
G90

(Engrave3)
T4
S15000 M3
G54
G0 X1.532 Y-52.986
Z15
G1 Z5 F2000
Z-0.521 F333.3
X1.565 Y-52.932 Z-0.582 F2000
X1.573 Y-52.916 Z-0.6
X1.706 Y-52.69 Z-0.839
X1.786 Y-52.551 Z-0.98
X1.811 Y-52.509 Z-1.02
X1.828 Y-52.485 Z-1.044
X1.876 Y-52.429 Z-1.096
X1.899 Y-52.451 Z-1.072
X2.047 Y-52.533 Z-0.92
X2.17 Y-52.609 Z-0.791
X2.174 Y-52.612 Z-0.786
X2.214 Y-52.648 Z-0.736
X2.315 Y-52.756 Z-0.596
X2.402 Y-52.856 Z-0.471
X2.474 Y-52.947 Z-0.364
X2.51 Y-53.006 Z-0.3
X2.541 Y-53.061 Z-0.243
X2.58 Y-53.161 Z-0.145
X2.589 Y-53.193 Z-0.113
X2.627 Y-53.303 Z-0.001
X2.589 Y-53.193 Z-0.113
X2.58 Y-53.161 Z-0.145
X2.541 Y-53.061 Z-0.243
X2.51 Y-53.006 Z-0.3
X2.474 Y-52.947 Z-0.364
X2.402 Y-52.856 Z-0.471
X2.315 Y-52.756 Z-0.596
X2.214 Y-52.648 Z-0.736
X2.174 Y-52.612 Z-0.786
X2.17 Y-52.609 Z-0.791
X2.047 Y-52.533 Z-0.92
X1.899 Y-52.451 Z-1.072
X1.948 Y-52.576 Z-0.944
X2.039 Y-52.767 Z-0.74
X2.108 Y-52.891 Z-0.603
X2.173 Y-53.001 Z-0.481
X2.242 Y-53.1 Z-0.365
X2.306 Y-53.183 Z-0.267
X2.362 Y-53.241 Z-0.191
X2.413 Y-53.285 Z-0.129
X2.457 Y-53.311 Z-0.082
X2.525 Y-53.361 Z-0.001
X2.457 Y-53.311 Z-0.082
X2.413 Y-53.285 Z-0.129
X2.362 Y-53.241 Z-0.191
X2.306 Y-53.183 Z-0.267
X2.242 Y-53.1 Z-0.365
X2.173 Y-53.001 Z-0.481
X2.108 Y-52.891 Z-0.603
X2.039 Y-52.767 Z-0.74
X1.948 Y-52.576 Z-0.944
X1.899 Y-52.451 Z-1.072
X1.876 Y-52.429 Z-1.096
X1.879 Y-52.345 Z-1.097
X1.889 Y-52.187 Z-1.092
X1.898 Y-52.129 Z-1.084
X1.915 Y-51.994 Z-1.07
X1.939 Y-51.734 Z-1.051
X1.963 Y-51.367 Z-1.029
X1.989 Y-51.007 Z-1.004
X2.002 Y-50.854 Z-0.992
X2.021 Y-50.647 Z-0.976
X2.042 Y-50.399 Z-0.961
X2.077 Y-50.006 Z-0.944
X2.098 Y-49.802 Z-0.939
X2.145 Y-49.419 Z-0.935
X2.165 Y-49.271 Z-0.933
X2.187 Y-49.111 Z-0.927
X2.213 Y-48.924 Z-0.919
X2.254 Y-48.577 Z-0.905
X2.283 Y-48.295 Z-0.896
X2.32 Y-47.897 Z-0.88
X2.374 Y-47.327 Z-0.857
X2.417 Y-46.925 Z-0.845
X2.472 Y-46.472 Z-0.838
X2.513 Y-46.167
X2.592 Y-45.63 Z-0.84
X2.614 Y-45.492 Z-0.839
X2.675 Y-45.102 Z-0.836
X2.686 Y-45.046
X2.705 Y-44.963 Z-0.841
X2.723 Y-44.9 Z-0.848
X2.752 Y-44.812 Z-0.859
X2.79 Y-44.711 Z-0.879
X2.823 Y-44.637 Z-0.895
X2.866 Y-44.546 Z-0.916
X2.928 Y-44.429 Z-0.944
X2.966 Y-44.359 Z-0.965
X3.007 Y-44.285 Z-0.99
X3.055 Y-44.202 Z-1.025
X3.127 Y-44.079 Z-1.083
X3.162 Y-44.02 Z-1.115
X3.202 Y-43.962 Z-1.148
X3.272 Y-43.859 Z-1.213
X3.331 Y-43.797 Z-1.248
X3.43 Y-43.698 Z-1.313
X3.545 Y-43.587 Z-1.397
X3.655 Y-43.489 Z-1.482
X3.618 Y-43.229 Z-1.397
X3.565 Y-42.909 Z-1.297
X3.54 Y-42.791 Z-1.257
X3.496 Y-42.617 Z-1.198
X3.461 Y-42.553 Z-1.159
X3.385 Y-42.429 Z-1.08
X3.391 Y-42.145 Z-0.815
X3.392 Y-42.128 Z-0.8
X3.393 Y-41.979 Z-0.654
X3.392 Y-42.128 Z-0.8
X3.391 Y-42.145 Z-0.815
X3.385 Y-42.429 Z-1.08
X3.312 Y-42.38 Z-1.006
X3.234 Y-42.332 Z-0.928
X3.153 Y-42.312 Z-0.848
X3.073 Y-42.291 Z-0.767
X2.968 Y-42.258 Z-0.658
X3.073 Y-42.291 Z-0.767
X3.153 Y-42.312 Z-0.848
X3.234 Y-42.332 Z-0.928
X3.312 Y-42.38 Z-1.006
X3.385 Y-42.429 Z-1.08
X3.461 Y-42.553 Z-1.159
X3.496 Y-42.617 Z-1.198
X3.541 Y-42.568 Z-1.134
X3.496 Y-42.617 Z-1.198
X3.54 Y-42.791 Z-1.257
X3.565 Y-42.909 Z-1.297
X3.618 Y-43.229 Z-1.397
X3.655 Y-43.489 Z-1.482
X3.755 Y-43.544 Z-1.42
X3.839 Y-43.594 Z-1.369
X3.955 Y-43.667 Z-1.303
X4.059 Y-43.742 Z-1.244
X4.163 Y-43.824 Z-1.185
X4.221 Y-43.872 Z-1.153
X4.282 Y-43.928 Z-1.12
X4.392 Y-44.038 Z-1.064
X4.433 Y-44.085 Z-1.043
X4.474 Y-44.132 Z-1.025
X4.512 Y-44.181 Z-1.007
X4.55 Y-44.229 Z-0.993
X4.583 Y-44.279 Z-0.979
X4.617 Y-44.328 Z-0.968
X4.647 Y-44.379 Z-0.958
X4.677 Y-44.429 Z-0.951
X4.72 Y-44.514 Z-0.941
X4.744 Y-44.566 Z-0.936
X4.767 Y-44.619 Z-0.935
X4.804 Y-44.72 Z-0.934
X4.843 Y-44.821 Z-0.929
X4.939 Y-45.082 Z-0.906
X4.99 Y-45.222 Z-0.898
X5.099 Y-45.533 Z-0.887
X5.217 Y-45.89 Z-0.881
X5.345 Y-46.299 Z-0.875
X5.482 Y-46.761 Z-0.871
X5.631 Y-47.28 Z-0.868
X5.799 Y-47.878
X6.031 Y-48.742 Z-0.866
X6.105 Y-49.014
X6.276 Y-49.621 Z-0.869
X6.445 Y-50.191 Z-0.877
X6.545 Y-50.51 Z-0.886
X6.554 Y-50.537 Z-0.887
X6.745 Y-50.498 Z-0.694
X7.012 Y-50.45 Z-0.428
X7.112 Y-50.434 Z-0.329
X7.266 Y-50.416 Z-0.182
X7.325 Y-50.414 Z-0.129
X7.336 Z-0.119
X7.458 Y-50.403 Z-0.001
X7.336 Y-50.414 Z-0.119
X7.325 Z-0.129
X7.266 Y-50.416 Z-0.182
X7.112 Y-50.434 Z-0.329
X7.012 Y-50.45 Z-0.428
X6.745 Y-50.498 Z-0.694
X6.554 Y-50.537 Z-0.887
X6.569 Y-50.615 Z-0.88
X6.582 Y-50.666 Z-0.877
X6.594 Y-50.717
X6.61 Y-50.768
X6.626 Y-50.82 Z-0.88
X6.645 Y-50.871 Z-0.883
X6.665 Y-50.921 Z-0.89
X6.687 Y-50.971 Z-0.896
X6.709 Y-51.021 Z-0.906
X6.735 Y-51.069 Z-0.916
X6.761 Y-51.118 Z-0.93
X6.789 Y-51.166 Z-0.943
X6.818 Y-51.214 Z-0.959
X6.85 Y-51.261 Z-0.976
X6.882 Y-51.308 Z-0.996
X6.952 Y-51.4 Z-1.039
X7.182 Y-51.062 Z-0.634
X7.382 Y-50.764 Z-0.288
X7.44 Y-50.663 Z-0.18
X7.459 Y-50.624 Z-0.141
X7.473 Y-50.588 Z-0.108
X7.481 Y-50.545 Z-0.07
X7.48 Y-50.527 Z-0.053
X7.489 Y-50.473 Z-0.001
X7.48 Y-50.527 Z-0.053
X7.481 Y-50.545 Z-0.07
X7.473 Y-50.588 Z-0.108
X7.459 Y-50.624 Z-0.141
X7.44 Y-50.663 Z-0.18
X7.382 Y-50.764 Z-0.288
X7.182 Y-51.062 Z-0.634
X6.952 Y-51.4 Z-1.039
X7.033 Y-51.525 Z-1.085
X7.079 Y-51.59 Z-1.114
X7.144 Y-51.674 Z-1.155
X7.206 Y-51.75 Z-1.198
X7.285 Y-51.838 Z-1.253
X7.348 Y-51.907 Z-1.299
X7.44 Y-52.002 Z-1.368
X7.519 Y-52.075 Z-1.427
X7.497 Y-52.196 Z-1.378
X7.468 Y-52.367 Z-1.302
X7.45 Y-52.482 Z-1.245
X7.408 Y-52.515 Z-1.195
X7.284 Y-52.626 Z-1.036
X7.17 Y-52.732 Z-0.889
X7 Y-52.918 Z-0.648
X6.874 Y-53.078 Z-0.451
X6.628 Y-53.461 Z-0.001
X6.874 Y-53.078 Z-0.451
X7 Y-52.918 Z-0.648
X7.17 Y-52.732 Z-0.889
X7.284 Y-52.626 Z-1.036
X7.408 Y-52.515 Z-1.195
X7.45 Y-52.482 Z-1.245
X7.465 Y-52.578 Z-1.175
X7.473 Y-52.656 Z-1.118
X7.478 Y-52.68 Z-1.098
X7.484 Y-52.742 Z-1.041
X7.492 Y-52.816 Z-0.969
X7.493 Y-52.83 Z-0.956
X7.492 Y-52.816 Z-0.969
X7.484 Y-52.742 Z-1.041
X7.478 Y-52.68 Z-1.098
X7.473 Y-52.656 Z-1.118
X7.465 Y-52.578 Z-1.175
X7.45 Y-52.482 Z-1.245
X7.468 Y-52.367 Z-1.302
X7.497 Y-52.196 Z-1.378
X7.519 Y-52.075 Z-1.427
X7.552 Y-52.06 Z-1.408
X7.625 Y-52.009 Z-1.351
X7.75 Y-51.923 Z-1.262
X7.853 Y-51.852 Z-1.198
X7.951 Y-51.787 Z-1.146
X8.037 Y-51.73 Z-1.108
X8.116 Y-51.678 Z-1.08
X8.192 Y-51.628 Z-1.062
X8.375 Y-51.781 Z-0.825
X8.532 Y-51.918 Z-0.619
X8.659 Y-52.038 Z-0.446
X8.763 Y-52.142 Z-0.303
X8.861 Y-52.254 Z-0.159
X8.895 Y-52.301 Z-0.103
X8.92 Y-52.339 Z-0.06
X8.935 Y-52.375 Z-0.026
X8.938 Y-52.392 Z-0.012
X8.937 Y-52.404 Z-0.001
X8.938 Y-52.392 Z-0.012
X8.944 Y-52.402 Z-0.001
X8.938 Y-52.392 Z-0.012
X8.935 Y-52.375 Z-0.026
X8.92 Y-52.339 Z-0.06
X8.895 Y-52.301 Z-0.103
X8.861 Y-52.254 Z-0.159
X8.763 Y-52.142 Z-0.303
X8.659 Y-52.038 Z-0.446
X8.532 Y-51.918 Z-0.619
X8.375 Y-51.781 Z-0.825
X8.192 Y-51.628 Z-1.062
X8.25 Y-51.576 Z-1.039
X8.296 Y-51.533 Z-1.021
X8.342 Y-51.489 Z-1.006
X8.382 Y-51.446 Z-0.993
X8.47 Y-51.348 Z-0.969
X8.514 Y-51.295 Z-0.957
X8.611 Y-51.168 Z-0.938
X8.63 Y-51.143 Z-0.934
X8.366 Y-50.824 Z-0.528
X8.279 Y-50.709 Z-0.388
X8.209 Y-50.608 Z-0.271
X8.177 Y-50.555 Z-0.212
X8.148 Y-50.498 Z-0.153
X8.116 Y-50.414 Z-0.068
X8.094 Y-50.349 Z-0.001
X8.116 Y-50.414 Z-0.068
X8.148 Y-50.498 Z-0.153
X8.177 Y-50.555 Z-0.212
X8.209 Y-50.608 Z-0.271
X8.279 Y-50.709 Z-0.388
X8.366 Y-50.824 Z-0.528
X8.63 Y-51.143 Z-0.934
X8.668 Y-51.101 Z-0.92
X8.706 Y-51.06 Z-0.91
X8.761 Y-50.993 Z-0.895
X8.787 Y-50.959 Z-0.889
X8.839 Y-50.89 Z-0.878
X8.887 Y-50.818 Z-0.872
X8.931 Y-50.744 Z-0.869
X8.997 Y-50.618 Z-0.874
X9.03 Y-50.542 Z-0.881
X9.052 Y-50.485 Z-0.889
X9.073 Y-50.428 Z-0.898
X8.828 Y-50.346 Z-0.646
X8.664 Y-50.297 Z-0.48
X8.516 Y-50.258 Z-0.334
X8.418 Y-50.238 Z-0.24
X8.346 Y-50.229 Z-0.173
X8.286 Y-50.226 Z-0.119
X8.236 Y-50.23 Z-0.078
X8.208 Y-50.236 Z-0.057
X8.176 Y-50.251 Z-0.036
X8.162 Y-50.262 Z-0.029
X8.121 Y-50.305 Z-0.008
X8.118 Y-50.313 Z-0.001
X8.121 Y-50.305 Z-0.008
X8.114 Z-0.001
X8.121 Z-0.008
X8.162 Y-50.262 Z-0.029
X8.176 Y-50.251 Z-0.036
X8.208 Y-50.236 Z-0.057
X8.236 Y-50.23 Z-0.078
X8.286 Y-50.226 Z-0.119
X8.346 Y-50.229 Z-0.173
X8.418 Y-50.238 Z-0.24
X8.516 Y-50.258 Z-0.334
X8.664 Y-50.297 Z-0.48
X8.828 Y-50.346 Z-0.646
X9.073 Y-50.428 Z-0.898
X9.189 Y-50.219 Z-0.895
X9.307 Y-49.994 Z-0.891
X9.346 Y-49.915 Z-0.889
X9.406 Y-49.79 Z-0.884
X9.446 Y-49.733 Z-0.871
X9.474 Y-49.691 Z-0.863
X9.5 Y-49.647 Z-0.856
X9.53 Y-49.597 Z-0.852
X9.559 Y-49.542 Z-0.848
X9.586 Y-49.486 Z-0.847
X9.608 Y-49.436
X9.629 Y-49.386 Z-0.85
X9.647 Y-49.334 Z-0.854
X9.665 Y-49.283 Z-0.861
X9.718 Y-49.168
X9.79 Y-49.019 Z-0.859
X9.963 Y-48.661 Z-0.849
X10.158 Y-48.253 Z-0.837
X10.415 Y-47.713 Z-0.826
X10.612 Y-47.283 Z-0.819
X10.8 Y-46.853 Z-0.816
X10.905 Y-46.601
X11.025 Y-46.31 Z-0.817
X11.102 Y-46.12 Z-0.819
X11.197 Y-45.896 Z-0.827
X11.28 Y-45.717 Z-0.841
X11.317 Y-45.645 Z-0.852
X11.379 Y-45.53 Z-0.87
X11.425 Y-45.454 Z-0.886
X11.498 Y-45.341 Z-0.918
X11.55 Y-45.267 Z-0.942
X11.605 Y-45.194 Z-0.97
X11.668 Y-45.119 Z-1.004
X11.778 Y-45.001 Z-1.068
X11.852 Y-44.926 Z-1.113
X11.932 Y-44.853 Z-1.164
X12.023 Y-44.776 Z-1.224
X12.12 Y-44.701 Z-1.29
X12.222 Y-44.628 Z-1.363
X12.32 Y-44.563 Z-1.433
Y-44.379 Z-1.371
X12.314 Y-44.033 Z-1.247
X12.307 Y-43.838 Z-1.169
X12.292 Y-43.791 Z-1.138
X12.272 Y-43.738 Z-1.099
X12.246 Y-43.674 Z-1.05
X12.184 Y-43.539 Z-0.939
X12.109 Y-43.443 Z-0.829
X11.989 Y-43.283 Z-0.644
X11.944 Y-43.228 Z-0.577
X11.891 Y-43.157 Z-0.491
X11.851 Y-43.094 Z-0.416
X11.891 Y-43.157 Z-0.491
X11.944 Y-43.228 Z-0.577
X11.989 Y-43.283 Z-0.644
X12.109 Y-43.443 Z-0.829
X12.184 Y-43.539 Z-0.939
X12.246 Y-43.674 Z-1.05
X12.272 Y-43.738 Z-1.099
X12.292 Y-43.791 Z-1.138
X12.307 Y-43.838 Z-1.169
X12.368 Y-43.785 Z-1.089
X12.444 Y-43.724 Z-0.993
X12.368 Y-43.785 Z-1.089
X12.307 Y-43.838 Z-1.169
X12.314 Y-44.033 Z-1.247
X12.32 Y-44.379 Z-1.371
Y-44.563 Z-1.433
X12.38 Y-44.612 Z-1.391
X12.441 Y-44.662 Z-1.353
X12.573 Y-44.782 Z-1.263
X12.652 Y-44.862 Z-1.212
X12.727 Y-44.943 Z-1.166
X12.766 Y-44.991 Z-1.139
X12.806 Y-45.04 Z-1.116
X12.842 Y-45.089 Z-1.093
X12.879 Y-45.139 Z-1.074
X12.912 Y-45.19 Z-1.054
X12.945 Y-45.24 Z-1.038
X13.006 Y-45.346 Z-1.004
X13.052 Y-45.433 Z-0.981
X13.094 Y-45.521 Z-0.963
X13.127 Y-45.601 Z-0.951
X13.183 Y-45.754 Z-0.931
X13.203 Y-45.819 Z-0.926
X13.228 Y-45.907 Z-0.921
X13.268 Y-46.073 Z-0.915
X13.334 Y-46.39 Z-0.912
X13.379 Y-46.638 Z-0.913
X13.424 Y-46.907 Z-0.914
X13.463 Y-47.159 Z-0.916
X13.515 Y-47.529 Z-0.921
X13.572 Y-47.955 Z-0.927
X13.656 Y-48.577 Z-0.933
X13.742 Y-49.183 Z-0.934
X13.817 Y-49.67 Z-0.933
X13.876 Y-50.036 Z-0.937
X13.932 Y-50.352 Z-0.944
X13.957 Y-50.483 Z-0.95
X13.986 Y-50.627 Z-0.955
X14.05 Y-50.894 Z-0.968
X14.097 Y-51.05 Z-0.975
X14.131 Y-51.15 Z-0.977
X14.178 Y-51.276 Z-0.978
X14.182 Y-51.285
X14.214 Y-51.339 Z-0.967
X14.246 Y-51.392 Z-0.959
X14.277 Y-51.451 Z-0.951
X14.303 Y-51.502 Z-0.948
X14.335 Y-51.574 Z-0.944
X14.343 Y-51.593 Z-0.943
X14.378 Y-51.626 Z-0.92
X14.417 Y-51.667 Z-0.889
X14.445 Y-51.697 Z-0.862
X14.533 Y-51.784 Z-0.777
X14.621 Y-51.809 Z-0.688
X14.715 Y-51.841 Z-0.59
X14.621 Y-51.809 Z-0.688
X14.533 Y-51.784 Z-0.777
X14.596 Y-51.889 Z-0.665
X14.648 Y-51.977 Z-0.568
X14.596 Y-51.889 Z-0.665
X14.533 Y-51.784 Z-0.777
X14.445 Y-51.697 Z-0.862
X14.417 Y-51.667 Z-0.889
X14.378 Y-51.626 Z-0.92
X14.343 Y-51.593 Z-0.943
X14.267 Y-51.679 Z-0.842
X14.208 Y-51.737 Z-0.767
X14.126 Y-51.806 Z-0.67
X14.047 Y-51.861 Z-0.581
X13.933 Y-51.915 Z-0.461
X13.831 Y-51.95 Z-0.357
X13.741 Y-51.977 Z-0.267
X13.662 Y-51.996 Z-0.192
X13.608 Y-52.002 Z-0.141
X13.562 Y-52.005 Z-0.099
X13.498 Y-51.996 Z-0.042
X13.455 Y-51.98 Z-0.001
Z5
X17.134 Y-52.821
Z-0.001 F333.3
X17.218 Y-52.632 Z-0.205 F2000
X17.233 Y-52.596 Z-0.243
X17.29 Y-52.482 Z-0.367
X17.341 Y-52.397 Z-0.462
X17.401 Y-52.316 Z-0.558
X17.469 Y-52.229 Z-0.663
X17.589 Y-52.101 Z-0.83
X17.725 Y-51.981 Z-1.001
X17.885 Y-51.86 Z-1.189
X18 Y-51.785 Z-1.317
X17.996 Y-51.796 Z-1.305
X17.895 Y-52.014 Z-1.071
X17.81 Y-52.171 Z-0.897
X17.729 Y-52.313 Z-0.738
X17.657 Y-52.423 Z-0.61
X17.546 Y-52.581 Z-0.422
X17.463 Y-52.685 Z-0.292
X17.391 Y-52.767 Z-0.188
X17.336 Y-52.815 Z-0.118
X17.277 Y-52.856 Z-0.052
X17.26 Y-52.865 Z-0.034
X17.231 Y-52.883 Z-0.001
X17.26 Y-52.865 Z-0.034
X17.277 Y-52.856 Z-0.052
X17.336 Y-52.815 Z-0.118
X17.391 Y-52.767 Z-0.188
X17.463 Y-52.685 Z-0.292
X17.546 Y-52.581 Z-0.422
X17.657 Y-52.423 Z-0.61
X17.729 Y-52.313 Z-0.738
X17.81 Y-52.171 Z-0.897
X17.895 Y-52.014 Z-1.071
X17.996 Y-51.796 Z-1.305
X18 Y-51.785 Z-1.317
X18.057 Y-51.725 Z-1.384
X18 Y-51.646 Z-1.338
X17.961 Y-51.584 Z-1.302
X17.922 Y-51.522 Z-1.27
X17.881 Y-51.445 Z-1.231
X17.842 Y-51.368 Z-1.194
X17.803 Y-51.278 Z-1.154
X17.769 Y-51.187 Z-1.117
X17.737 Y-51.084 Z-1.079
X17.71 Y-50.981 Z-1.046
X17.696 Y-50.911 Z-1.025
X17.679 Y-50.805 Z-0.998
X17.672 Y-50.754 Z-0.986
X17.664 Y-50.648 Z-0.964
X17.663 Y-50.596 Z-0.955
X17.662 Y-50.479 Z-0.939
X17.666 Y-50.388 Z-0.928
X17.676 Y-50.25 Z-0.916
X17.692 Y-50.109 Z-0.905
X17.711 Y-49.96 Z-0.895
X17.739 Y-49.788 Z-0.885
X17.756 Y-49.694 Z-0.882
X17.799 Y-49.472 Z-0.871
X17.85 Y-49.247 Z-0.866
X17.907 Y-49.017 Z-0.864
X17.97 Y-48.779 Z-0.867
X18.072 Y-48.426 Z-0.879
X18.1 Y-48.337 Z-0.881
X18.154 Y-48.185 Z-0.883
X18.228 Y-47.985 Z-0.884
X18.331 Y-47.721 Z-0.885
X18.515 Y-47.279 Z-0.888
X18.63 Y-47.021 Z-0.889
X18.687 Y-46.903 Z-0.89
X18.785 Y-46.715 Z-0.893
X18.816 Y-46.661 Z-0.895
X18.918 Y-46.494 Z-0.901
X18.964 Y-46.427 Z-0.909
X19.069 Y-46.288 Z-0.924
X19.106 Y-46.241 Z-0.933
X19.166 Y-46.177 Z-0.947
X19.279 Y-46.062 Z-0.977
X19.359 Y-45.992 Z-1
X19.443 Y-45.926 Z-1.028
X19.451 Y-45.92 Z-1.031
X19.557 Y-45.847 Z-1.065
X19.6 Y-45.818 Z-1.08
X19.659 Y-45.786 Z-1.099
X19.729 Y-45.748 Z-1.124
X19.849 Y-45.71 Z-1.15
X19.948 Y-45.684 Z-1.172
X20.027 Y-45.666 Z-1.191
X20.174 Y-45.641 Z-1.231
X20.28 Y-45.627 Z-1.261
X20.359 Y-45.62 Z-1.286
X20.379 Y-45.464 Z-1.149
X20.477 Y-45.27 Z-0.937
X20.57 Y-45.098 Z-0.748
X20.642 Y-44.982 Z-0.615
X20.711 Y-44.879 Z-0.496
X20.774 Y-44.789 Z-0.391
X20.843 Y-44.707 Z-0.289
X20.905 Y-44.641 Z-0.204
X20.977 Y-44.578 Z-0.118
X21.021 Y-44.55 Z-0.073
X21.061 Y-44.535 Z-0.038
X21.078 Y-44.533 Z-0.024
X21.101 Y-44.524 Z-0.001
X21.078 Y-44.533 Z-0.024
X21.101 Y-44.539 Z-0.001
X21.078 Y-44.533 Z-0.024
X21.061 Y-44.535 Z-0.038
X21.021 Y-44.55 Z-0.073
X20.977 Y-44.578 Z-0.118
X20.905 Y-44.641 Z-0.204
X20.843 Y-44.707 Z-0.289
X20.774 Y-44.789 Z-0.391
X20.711 Y-44.879 Z-0.496
X20.642 Y-44.982 Z-0.615
X20.57 Y-45.098 Z-0.748
X20.477 Y-45.27 Z-0.937
X20.379 Y-45.464 Z-1.149
X20.35 Y-45.014 Z-0.719
X20.317 Y-44.623 Z-0.335
X20.35 Y-45.014 Z-0.719
X20.379 Y-45.464 Z-1.149
X20.359 Y-45.62 Z-1.286
X20.424 Y-45.65 Z-1.276
X20.495 Y-45.681 Z-1.268
X20.629 Y-45.553 Z-1.093
X20.75 Y-45.431 Z-0.933
X20.834 Y-45.339 Z-0.817
X20.911 Y-45.251 Z-0.711
X21.002 Y-45.134 Z-0.577
X21.01 Y-45.121 Z-0.563
X21.068 Y-44.997 Z-0.433
X21.122 Y-44.863 Z-0.3
X21.147 Y-44.765 Z-0.206
X21.156 Y-44.677 Z-0.125
X21.153 Y-44.641 Z-0.091
X21.157 Y-44.549 Z-0.001
X21.153 Y-44.641 Z-0.091
X21.156 Y-44.677 Z-0.125
X21.147 Y-44.765 Z-0.206
X21.122 Y-44.863 Z-0.3
X21.068 Y-44.997 Z-0.433
X21.01 Y-45.121 Z-0.563
X21.002 Y-45.134 Z-0.577
X20.911 Y-45.251 Z-0.711
X20.834 Y-45.339 Z-0.817
X20.75 Y-45.431 Z-0.933
X20.629 Y-45.553 Z-1.093
X20.495 Y-45.681 Z-1.268
X20.496 Y-45.682 Z-1.267
X20.59 Y-45.771 Z-1.217
X20.705 Y-45.888 Z-1.163
X20.774 Y-45.959 Z-1.134
X20.875 Y-46.067 Z-1.101
X20.932 Y-46.128 Z-1.086
X21.027 Y-46.234 Z-1.068
X21.075 Y-46.289 Z-1.061
X21.154 Y-46.379 Z-1.059
X21.221 Y-46.456 Z-1.063
X21.321 Y-46.579 Z-1.076
X21.358 Y-46.623 Z-1.084
X21.437 Y-46.719 Z-1.111
X21.534 Y-46.843 Z-1.152
X21.554 Y-46.871 Z-1.162
X21.603 Y-46.939 Z-1.189
X21.669 Y-46.887 Z-1.107
X21.682 Y-46.876 Z-1.09
X21.669 Y-46.887 Z-1.107
X21.603 Y-46.939 Z-1.189
X21.617 Y-46.985 Z-1.192
X21.644 Y-47.088 Z-1.193
X21.656 Y-47.154
X21.677 Y-47.283 Z-1.2
X21.692 Y-47.391 Z-1.207
X21.698 Y-47.453 Z-1.212
X21.712 Y-47.622 Z-1.236
X21.717 Y-47.705 Z-1.249
X21.72 Y-47.836 Z-1.274
X21.721 Y-47.976 Z-1.304
X21.72 Y-48.05 Z-1.323
X21.71 Y-48.252 Z-1.374
X21.706 Y-48.309 Z-1.39
X21.813 Y-48.435 Z-1.306
X21.887 Y-48.528 Z-1.251
X21.962 Y-48.634 Z-1.195
X22.029 Y-48.74 Z-1.145
X22.06 Y-48.794 Z-1.121
X22.09 Y-48.847 Z-1.101
X22.118 Y-48.902 Z-1.082
X22.16 Y-48.988 Z-1.055
X22.198 Y-49.074 Z-1.031
X22.256 Y-49.228 Z-0.999
X22.295 Y-49.351 Z-0.978
X22.331 Y-49.478 Z-0.961
X22.373 Y-49.635 Z-0.946
X22.43 Y-49.868 Z-0.929
X22.485 Y-50.095 Z-0.92
X22.495 Y-50.137 Z-0.919
X22.561 Y-50.413 Z-0.918
X22.587 Y-50.533 Z-0.92
X22.678 Y-50.913 Z-0.935
X22.69 Y-50.946 Z-0.933
X22.724 Y-51.031 Z-0.923
X22.775 Y-51.147 Z-0.906
X22.844 Y-51.296 Z-0.878
X22.914 Y-51.442 Z-0.845
X22.977 Y-51.571 Z-0.81
X23.04 Y-51.698 Z-0.77
X23.087 Y-51.787 Z-0.734
X23.127 Y-51.857 Z-0.7
X23.164 Y-51.916 Z-0.664
X23.196 Y-51.963 Z-0.629
X23.219 Y-51.996 Z-0.601
X23.236 Y-52.042 Z-0.554
X23.245 Y-52.059 Z-0.535
X23.236 Y-52.042 Z-0.554
X23.219 Y-51.996 Z-0.601
X23.287 Y-52.042 Z-0.521
X23.33 Y-52.079 Z-0.465
X23.287 Y-52.042 Z-0.521
X23.219 Y-51.996 Z-0.601
X23.196 Y-51.963 Z-0.629
X23.164 Y-51.916 Z-0.664
X23.127 Y-51.857 Z-0.7
X23.087 Y-51.787 Z-0.734
X23.04 Y-51.698 Z-0.77
X22.977 Y-51.571 Z-0.81
X22.914 Y-51.442 Z-0.845
X22.844 Y-51.296 Z-0.878
X22.775 Y-51.147 Z-0.906
X22.724 Y-51.031 Z-0.923
X22.69 Y-50.946 Z-0.933
X22.678 Y-50.913 Z-0.935
X22.587 Y-50.533 Z-0.92
X22.561 Y-50.413 Z-0.918
X22.495 Y-50.137 Z-0.919
X22.485 Y-50.095 Z-0.92
X22.43 Y-49.868 Z-0.929
X22.373 Y-49.635 Z-0.946
X22.331 Y-49.478 Z-0.961
X22.295 Y-49.351 Z-0.978
X22.256 Y-49.228 Z-0.999
X22.198 Y-49.074 Z-1.031
X22.16 Y-48.988 Z-1.055
X22.118 Y-48.902 Z-1.082
X22.09 Y-48.847 Z-1.101
X22.06 Y-48.794 Z-1.121
X22.029 Y-48.74 Z-1.145
X21.962 Y-48.634 Z-1.195
X21.887 Y-48.528 Z-1.251
X21.813 Y-48.435 Z-1.306
X21.706 Y-48.309 Z-1.39
X21.613 Y-48.357 Z-1.321
X21.524 Y-48.406 Z-1.256
X21.455 Y-48.445 Z-1.208
X21.353 Y-48.506 Z-1.14
X21.257 Y-48.569 Z-1.078
X21.139 Y-48.653 Z-1.009
X21.099 Y-48.683 Z-0.986
X21.019 Y-48.747 Z-0.943
X20.941 Y-48.814 Z-0.904
X20.885 Y-48.867 Z-0.879
X20.799 Y-48.952 Z-0.844
X20.756 Y-48.997 Z-0.828
X20.73 Y-49.027 Z-0.82
X20.653 Y-49.117 Z-0.796
X20.62 Y-49.158 Z-0.789
X20.529 Y-49.28 Z-0.771
X20.478 Y-49.352 Z-0.765
X20.392 Y-49.481 Z-0.759
X20.309 Y-49.614 Z-0.758
X20.173 Y-49.847 Z-0.764
X19.992 Y-50.147 Z-0.774
X19.847 Y-50.377 Z-0.782
X19.69 Y-50.615 Z-0.792
X19.589 Y-50.758 Z-0.8
X19.502 Y-50.876 Z-0.811
X19.426 Y-50.97 Z-0.823
X19.338 Y-51.07 Z-0.845
X19.266 Y-51.147 Z-0.863
X19.207 Y-51.203 Z-0.881
X19.145 Y-51.259 Z-0.901
X19.065 Y-51.327 Z-0.928
X18.98 Y-51.391 Z-0.962
X18.898 Y-51.445 Z-0.996
X18.766 Y-51.526 Z-1.054
X18.667 Y-51.576 Z-1.1
X18.565 Y-51.624 Z-1.151
X18.478 Y-51.658 Z-1.195
X18.388 Y-51.689 Z-1.242
X18.317 Y-51.708 Z-1.278
X18.246 Y-51.728 Z-1.317
X18.159 Y-51.745 Z-1.363
X18.148 Y-51.743 Z-1.366
X18.057 Y-51.725 Z-1.384
X18.148 Y-51.743 Z-1.366
X18.159 Y-51.745 Z-1.363
X18.17 Y-51.769 Z-1.338
X18.197 Y-51.837 Z-1.267
X18.313 Y-52.094 Z-0.99
Z5
X26.111 Y-45.585
Z-0.953 F333.3
X26.129 Y-45.611 Z-0.982 F2000
X26.141 Y-45.593 Z-0.966
X26.163 Y-45.563 Z-0.935
X26.191 Y-45.522 Z-0.893
X26.283 Y-45.401 Z-0.757
X26.32 Y-45.355 Z-0.7
X26.331 Y-45.34 Z-0.682
X26.32 Y-45.355 Z-0.7
X26.283 Y-45.401 Z-0.757
X26.191 Y-45.522 Z-0.893
X26.163 Y-45.563 Z-0.935
X26.141 Y-45.593 Z-0.966
X26.129 Y-45.611 Z-0.982
X26.128 Y-45.628 Z-0.989
X26.134 Y-45.705 Z-1
X26.138 Y-45.777 Z-1.005
X26.142 Y-45.965 Z-1.011
X26.141 Y-46.172 Z-1.01
X26.136 Y-46.384 Z-1.004
X26.115 Y-47.036 Z-0.977
X26.105 Y-47.386 Z-0.964
X26.103 Y-47.641 Z-0.956
X26.108 Y-47.976 Z-0.954
X26.11 Y-48.019
X26.12 Y-48.244 Z-0.959
X26.143 Y-48.59 Z-0.969
X26.165 Y-48.826 Z-0.98
X26.178 Y-48.944 Z-0.987
X26.196 Y-49.086 Z-0.998
X26.219 Y-49.227 Z-1.012
X26.248 Y-49.363 Z-1.031
X26.273 Y-49.461 Z-1.049
X26.309 Y-49.584 Z-1.076
X26.33 Y-49.644 Z-1.09
X26.371 Y-49.75 Z-1.122
X26.411 Y-49.846 Z-1.153
X26.439 Y-49.904 Z-1.173
X26.468 Y-49.963 Z-1.196
X26.5 Y-50.021 Z-1.22
X26.533 Y-50.079 Z-1.247
X26.598 Y-50.182 Z-1.298
X26.67 Y-50.285 Z-1.355
X26.741 Y-50.376 Z-1.41
X26.816 Y-50.466 Z-1.47
X26.919 Y-50.577 Z-1.551
X26.901 Y-50.718 Z-1.503
X26.894 Y-50.801 Z-1.478
X26.89 Y-50.922 Z-1.442
X26.891 Y-51.041 Z-1.412
X26.877 Y-51.156 Z-1.368
X26.868 Y-51.263 Z-1.325
X26.754 Y-51.391 Z-1.172
X26.629 Y-51.537 Z-0.994
X26.569 Y-51.604 Z-0.909
X26.504 Y-51.686 Z-0.808
X26.446 Y-51.771 Z-0.707
X26.504 Y-51.686 Z-0.808
X26.569 Y-51.604 Z-0.909
X26.629 Y-51.537 Z-0.994
X26.754 Y-51.391 Z-1.172
X26.868 Y-51.263 Z-1.325
X26.915 Y-51.369 Z-1.234
X27.028 Y-51.596 Z-1.029
X27.122 Y-51.766 Z-0.871
X27.152 Y-51.812 Z-0.826
X27.274 Y-51.897 Z-0.68
X27.439 Y-52.003 Z-0.489
X27.597 Y-52.089 Z-0.313
X27.63 Y-52.106 Z-0.277
X27.74 Y-52.156 Z-0.159
X27.63 Y-52.106 Z-0.277
X27.597 Y-52.089 Z-0.313
X27.439 Y-52.003 Z-0.489
X27.274 Y-51.897 Z-0.68
X27.152 Y-51.812 Z-0.826
X27.231 Y-52.033 Z-0.608
X27.271 Y-52.135 Z-0.505
X27.352 Y-52.336 Z-0.293
X27.271 Y-52.135 Z-0.505
X27.231 Y-52.033 Z-0.608
X27.152 Y-51.812 Z-0.826
X27.122 Y-51.766 Z-0.871
X27.028 Y-51.596 Z-1.029
X26.915 Y-51.369 Z-1.234
X26.868 Y-51.263 Z-1.325
X26.877 Y-51.156 Z-1.368
X26.891 Y-51.041 Z-1.412
X26.89 Y-50.922 Z-1.442
X26.894 Y-50.801 Z-1.478
X26.901 Y-50.718 Z-1.503
X26.919 Y-50.577 Z-1.551
X26.981 Y-50.55 Z-1.511
X27.106 Y-50.496 Z-1.437
X27.234 Y-50.44 Z-1.371
X27.302 Y-50.411 Z-1.34
X27.372 Y-50.38 Z-1.312
X27.445 Y-50.348 Z-1.287
X27.523 Y-50.315 Z-1.266
X27.699 Y-50.485 Z-1.025
X27.853 Y-50.641 Z-0.811
X27.958 Y-50.756 Z-0.659
X28.049 Y-50.862 Z-0.523
X28.129 Y-50.963 Z-0.399
X28.193 Y-51.054 Z-0.292
X28.239 Y-51.128 Z-0.209
X28.272 Y-51.193 Z-0.142
X28.289 Y-51.24 Z-0.097
X28.299 Y-51.291 Z-0.052
X28.3 Y-51.315 Z-0.032
X28.31 Y-51.346 Z-0.001
X28.3 Y-51.315 Z-0.032
X28.291 Y-51.346 Z-0.001
X28.3 Y-51.315 Z-0.032
X28.299 Y-51.291 Z-0.052
X28.289 Y-51.24 Z-0.097
X28.272 Y-51.193 Z-0.142
X28.239 Y-51.128 Z-0.209
X28.193 Y-51.054 Z-0.292
X28.129 Y-50.963 Z-0.399
X28.049 Y-50.862 Z-0.523
X27.958 Y-50.756 Z-0.659
X27.853 Y-50.641 Z-0.811
X27.699 Y-50.485 Z-1.025
X27.523 Y-50.315 Z-1.266
X27.582 Y-50.274 Z-1.239
X27.645 Y-50.226 Z-1.209
X27.709 Y-50.173 Z-1.18
X27.805 Y-50.058 Z-1.113
X27.858 Y-49.995 Z-1.082
X27.906 Y-49.94 Z-1.059
X27.949 Y-49.89 Z-1.042
X28.023 Y-49.804 Z-1.022
X28.066 Y-49.757 Z-1.015
X28.227 Y-49.841 Z-0.836
X28.371 Y-49.921 Z-0.675
X28.498 Y-49.995 Z-0.532
X28.596 Y-50.059 Z-0.418
X28.681 Y-50.117 Z-0.319
X28.748 Y-50.17 Z-0.237
X28.802 Y-50.219 Z-0.169
X28.867 Y-50.292 Z-0.08
X28.883 Y-50.317 Z-0.053
X28.894 Y-50.342 Z-0.032
X28.897 Y-50.36 Z-0.017
X28.906 Y-50.375 Z-0.001
X28.897 Y-50.36 Z-0.017
X28.895 Y-50.377 Z-0.001
X28.897 Y-50.36 Z-0.017
X28.894 Y-50.342 Z-0.032
X28.883 Y-50.317 Z-0.053
X28.867 Y-50.292 Z-0.08
X28.802 Y-50.219 Z-0.169
X28.748 Y-50.17 Z-0.237
X28.681 Y-50.117 Z-0.319
X28.596 Y-50.059 Z-0.418
X28.498 Y-49.995 Z-0.532
X28.371 Y-49.921 Z-0.675
X28.227 Y-49.841 Z-0.836
X28.066 Y-49.757 Z-1.015
X28.138 Y-49.632 Z-0.981
X28.167 Y-49.577 Z-0.968
X28.208 Y-49.497 Z-0.953
X28.061 Y-49.341 Z-0.742
X27.936 Y-49.201 Z-0.558
X27.815 Y-49.055 Z-0.374
X27.752 Y-48.972 Z-0.275
X27.703 Y-48.899 Z-0.192
X27.677 Y-48.848 Z-0.14
X27.659 Y-48.804 Z-0.097
X27.649 Y-48.756 Z-0.053
X27.629 Y-48.706 Z-0.001
X27.649 Y-48.756 Z-0.053
X27.659 Y-48.804 Z-0.097
X27.677 Y-48.848 Z-0.14
X27.703 Y-48.899 Z-0.192
X27.752 Y-48.972 Z-0.275
X27.815 Y-49.055 Z-0.374
X27.936 Y-49.201 Z-0.558
X28.061 Y-49.341 Z-0.742
X28.208 Y-49.497 Z-0.953
X28.243 Y-49.448 Z-0.933
X28.277 Y-49.399 Z-0.917
X28.308 Y-49.349 Z-0.901
X28.339 Y-49.298 Z-0.889
X28.384 Y-49.214 Z-0.872
X28.42 Y-49.139 Z-0.861
X28.452 Y-49.062 Z-0.855
X28.48 Y-48.988 Z-0.853
X28.504 Y-48.912 Z-0.855
X28.525 Y-48.835 Z-0.86
X28.537 Y-48.778 Z-0.866
X28.55 Y-48.716 Z-0.876
X28.636 Y-48.475 Z-0.871
X28.681 Y-48.358 Z-0.865
X28.739 Y-48.208 Z-0.855
X28.827 Y-47.969 Z-0.842
X28.948 Y-47.609 Z-0.832
X29.029 Y-47.382
X29.078 Y-47.256
X29.137 Y-47.115 Z-0.835
X29.197 Y-46.986 Z-0.843
X29.243 Y-46.898 Z-0.853
X29.344 Y-46.646 Z-0.85
X29.37 Y-46.586
X29.406 Y-46.51 Z-0.855
X29.484 Y-46.363 Z-0.871
X29.512 Y-46.313 Z-0.878
X29.547 Y-46.256 Z-0.887
X29.614 Y-46.156 Z-0.91
X29.67 Y-46.08 Z-0.931
X29.73 Y-46.005 Z-0.957
X29.805 Y-45.92 Z-0.991
X29.877 Y-45.844 Z-1.027
X29.981 Y-45.747 Z-1.084
X30.064 Y-45.676 Z-1.131
X30.133 Y-45.621 Z-1.172
X30.205 Y-45.567 Z-1.216
X30.266 Y-45.526 Z-1.252
X30.336 Y-45.481 Z-1.297
X30.193 Y-45.328 Z-1.102
X30.079 Y-45.178 Z-0.924
X29.98 Y-45.039 Z-0.763
X29.917 Y-44.93 Z-0.644
X29.842 Y-44.774 Z-0.48
X29.785 Y-44.625 Z-0.328
X29.756 Y-44.508 Z-0.214
X29.751 Y-44.462 Z-0.17
X29.716 Y-44.294 Z-0.001
X29.751 Y-44.462 Z-0.17
X29.756 Y-44.508 Z-0.214
X29.785 Y-44.625 Z-0.328
X29.842 Y-44.774 Z-0.48
X29.917 Y-44.93 Z-0.644
X29.98 Y-45.039 Z-0.763
X30.079 Y-45.178 Z-0.924
X30.193 Y-45.328 Z-1.102
X30.336 Y-45.481 Z-1.297
X30.341 Y-45.479 Z-1.298
X30.275 Y-45.221 Z-1.036
X30.21 Y-44.993 Z-0.804
X30.147 Y-44.795 Z-0.603
X30.102 Y-44.682 Z-0.485
X30.062 Y-44.586 Z-0.385
X30.024 Y-44.503 Z-0.297
X29.983 Y-44.431 Z-0.218
X29.946 Y-44.372 Z-0.153
X29.911 Y-44.327 Z-0.1
X29.881 Y-44.299 Z-0.064
X29.841 Y-44.274 Z-0.025
X29.816 Y-44.265 Z-0.001
X29.841 Y-44.274 Z-0.025
X29.827 Y-44.253 Z-0.001
X29.841 Y-44.274 Z-0.025
X29.881 Y-44.299 Z-0.064
X29.911 Y-44.327 Z-0.1
X29.946 Y-44.372 Z-0.153
X29.983 Y-44.431 Z-0.218
X30.024 Y-44.503 Z-0.297
X30.062 Y-44.586 Z-0.385
X30.102 Y-44.682 Z-0.485
X30.147 Y-44.795 Z-0.603
X30.21 Y-44.993 Z-0.804
X30.275 Y-45.221 Z-1.036
X30.341 Y-45.479 Z-1.298
X30.426 Y-45.48 Z-1.301
X30.487 Y-45.487
X30.595 Y-45.505 Z-1.299
X30.624 Y-45.512
X30.715 Y-45.384 Z-1.15
X30.808 Y-45.261 Z-0.999
X30.845 Y-45.217 Z-0.942
X30.808 Y-45.261 Z-0.999
X30.715 Y-45.384 Z-1.15
X30.624 Y-45.512 Z-1.299
X30.688 Y-45.555 Z-1.271
X30.739 Y-45.609 Z-1.235
X30.788 Y-45.659 Z-1.203
X30.833 Y-45.706 Z-1.177
X30.918 Y-45.795 Z-1.137
X30.997 Y-45.877 Z-1.11
X31.076 Y-45.958 Z-1.093
X31.093 Y-45.975 Z-1.091
X31.135 Y-45.954 Z-1.045
X31.358 Y-45.816 Z-0.787
X31.546 Y-45.692 Z-0.567
X31.661 Y-45.605 Z-0.426
X31.757 Y-45.527 Z-0.307
X31.824 Y-45.464 Z-0.218
X31.867 Y-45.42 Z-0.159
X31.901 Y-45.382 Z-0.111
X31.93 Y-45.34 Z-0.064
X31.945 Y-45.306 Z-0.032
X31.948 Y-45.272 Z-0.001
X31.945 Y-45.306 Z-0.032
X31.967 Y-45.283 Z-0.001
X31.945 Y-45.306 Z-0.032
X31.93 Y-45.34 Z-0.064
X31.901 Y-45.382 Z-0.111
X31.867 Y-45.42 Z-0.159
X31.824 Y-45.464 Z-0.218
X31.757 Y-45.527 Z-0.307
X31.661 Y-45.605 Z-0.426
X31.546 Y-45.692 Z-0.567
X31.358 Y-45.816 Z-0.787
X31.135 Y-45.954 Z-1.045
X31.093 Y-45.975 Z-1.091
X31.108 Y-46.001 Z-1.081
X31.157 Y-46.084 Z-1.054
X31.216 Y-46.188 Z-1.03
X31.234 Y-46.223 Z-1.024
X31.291 Y-46.328 Z-1.009
X31.345 Y-46.437 Z-0.999
X31.367 Y-46.488 Z-0.993
X31.408 Y-46.597 Z-0.979
X31.459 Y-46.754 Z-0.96
X31.533 Y-47.024 Z-0.933
X31.58 Y-47.234 Z-0.916
X31.616 Y-47.423 Z-0.91
X31.645 Y-47.612 Z-0.911
X31.68 Y-47.847 Z-0.916
X31.701 Y-48.018 Z-0.917
X31.726 Y-48.361 Z-0.907
X31.744 Y-48.542
X31.754 Y-48.624 Z-0.91
X31.78 Y-48.788 Z-0.921
X31.805 Y-48.907 Z-0.936
X31.812 Y-48.952 Z-0.937
X31.829 Y-49.057 Z-0.946
X31.839 Y-49.108 Z-0.954
X31.852 Y-49.159 Z-0.961
X31.865 Y-49.21 Z-0.972
X31.896 Y-49.311 Z-0.995
X31.933 Y-49.412 Z-1.024
X31.958 Y-49.472 Z-1.044
X32.002 Y-49.568 Z-1.081
X32.076 Y-49.712 Z-1.147
X32.132 Y-49.807 Z-1.197
X32.205 Y-49.92 Z-1.264
X32.259 Y-49.997 Z-1.313
X32.319 Y-50.078 Z-1.369
X32.373 Y-50.147 Z-1.421
X32.319 Y-50.418 Z-1.357
X32.229 Y-50.921 Z-1.253
X32.198 Y-51.17 Z-1.202
X32.194 Y-51.209 Z-1.194
X32.184 Y-51.349 Z-1.162
X32.247 Y-51.466 Z-1.068
X32.266 Y-51.5 Z-1.039
X32.344 Y-51.632 Z-0.92
X32.384 Y-51.705 Z-0.848
X32.402 Y-51.746 Z-0.807
X32.439 Y-51.852 Z-0.698
X32.467 Y-51.924 Z-0.622
X32.439 Y-51.852 Z-0.698
X32.402 Y-51.746 Z-0.807
X32.384 Y-51.705 Z-0.848
X32.344 Y-51.632 Z-0.92
X32.266 Y-51.5 Z-1.039
X32.247 Y-51.466 Z-1.068
X32.184 Y-51.349 Z-1.162
X32.081 Y-51.439 Z-1.041
X31.975 Y-51.529 Z-0.912
X31.908 Y-51.588 Z-0.825
X31.975 Y-51.529 Z-0.912
X32.081 Y-51.439 Z-1.041
X32.184 Y-51.349 Z-1.162
X32.194 Y-51.209 Z-1.194
X32.198 Y-51.17 Z-1.202
X32.229 Y-50.921 Z-1.253
X32.319 Y-50.418 Z-1.357
X32.373 Y-50.147 Z-1.421
X32.474 Y-50.1 Z-1.351
X32.597 Y-50.037 Z-1.27
X32.656 Y-50.004 Z-1.231
X32.768 Y-49.939 Z-1.163
X32.866 Y-49.878 Z-1.107
X32.958 Y-49.814 Z-1.056
X33.035 Y-49.758 Z-1.017
X33.118 Y-49.692 Z-0.977
X33.158 Y-49.658 Z-0.959
X33.254 Y-49.571 Z-0.921
X33.34 Y-49.488 Z-0.889
X33.394 Y-49.43 Z-0.873
X33.498 Y-49.314 Z-0.846
X33.53 Y-49.276 Z-0.84
X33.621 Y-49.169 Z-0.826
X33.679 Y-49.097 Z-0.82
X33.77 Y-48.989 Z-0.816
X33.843 Y-48.903 Z-0.817
X33.942 Y-48.793 Z-0.825
X33.993 Y-48.741 Z-0.833
X34.097 Y-48.64 Z-0.854
X34.146 Y-48.596 Z-0.867
X34.246 Y-48.514 Z-0.899
X34.341 Y-48.441 Z-0.933
X34.417 Y-48.39 Z-0.964
X34.544 Y-48.312 Z-1.022
X34.666 Y-48.244 Z-1.082
X34.757 Y-48.199 Z-1.131
X34.846 Y-48.158 Z-1.18
X35.005 Y-48.09 Z-1.273
X35.03 Y-48.08 Z-1.289
X35.178 Y-48.025 Z-1.382
X35.199 Y-47.922 Z-1.343
X35.254 Y-47.609 Z-1.227
X35.277 Y-47.432 Z-1.156
X35.251 Y-47.344 Z-1.085
X35.415 Y-46.857 Z-0.575
X35.471 Y-46.706 Z-0.418
X35.55 Y-46.518 Z-0.22
X35.574 Y-46.467 Z-0.166
X35.597 Y-46.424 Z-0.121
X35.636 Y-46.367 Z-0.061
X35.652 Y-46.351 Z-0.043
X35.673 Y-46.337 Z-0.023
X35.685 Y-46.317 Z-0.001
X35.673 Y-46.337 Z-0.023
X35.697 Y-46.328 Z-0.001
X35.673 Y-46.337 Z-0.023
X35.652 Y-46.351 Z-0.043
X35.636 Y-46.367 Z-0.061
X35.597 Y-46.424 Z-0.121
X35.574 Y-46.467 Z-0.166
X35.55 Y-46.518 Z-0.22
X35.471 Y-46.706 Z-0.418
X35.415 Y-46.857 Z-0.575
X35.251 Y-47.344 Z-1.085
X35.152 Y-47.095 Z-0.865
X35.11 Y-46.975 Z-0.757
X35.066 Y-46.836 Z-0.632
X35.026 Y-46.702 Z-0.508
X35.006 Y-46.631 Z-0.44
X34.989 Y-46.579 Z-0.389
X34.968 Y-46.503 Z-0.314
X34.959 Y-46.475 Z-0.285
X34.888 Y-46.197 Z-0.001
X34.959 Y-46.475 Z-0.285
X34.968 Y-46.503 Z-0.314
X34.989 Y-46.579 Z-0.389
X35.006 Y-46.631 Z-0.44
X35.026 Y-46.702 Z-0.508
X35.066 Y-46.836 Z-0.632
X35.11 Y-46.975 Z-0.757
X35.152 Y-47.095 Z-0.865
X35.251 Y-47.344 Z-1.085
X35.277 Y-47.432 Z-1.156
X35.344 Y-47.371 Z-1.075
X35.444 Y-47.267 Z-0.944
X35.504 Y-47.225 Z-0.873
X35.658 Y-47.106 Z-0.685
X35.789 Y-46.996 Z-0.521
X35.864 Y-46.926 Z-0.423
X35.928 Y-46.86 Z-0.335
X35.982 Y-46.799 Z-0.259
X36.028 Y-46.736 Z-0.187
X36.074 Y-46.659 Z-0.108
X36.086 Y-46.626 Z-0.077
X36.097 Y-46.577 Z-0.036
Y-46.571 Z-0.03
X36.102 Y-46.541 Z-0.001
X36.097 Y-46.571 Z-0.03
Y-46.577 Z-0.036
X36.086 Y-46.626 Z-0.077
X36.074 Y-46.659 Z-0.108
X36.028 Y-46.736 Z-0.187
X35.982 Y-46.799 Z-0.259
X35.928 Y-46.86 Z-0.335
X35.864 Y-46.926 Z-0.423
X35.789 Y-46.996 Z-0.521
X35.658 Y-47.106 Z-0.685
X35.504 Y-47.225 Z-0.873
X35.444 Y-47.267 Z-0.944
X35.584 Y-47.01 Z-0.661
X35.718 Y-46.766 Z-0.404
X35.777 Y-46.665 Z-0.304
X35.811 Y-46.613 Z-0.256
X35.882 Y-46.557 Z-0.177
X35.916 Y-46.534 Z-0.143
X35.961 Y-46.514 Z-0.102
X36.001 Y-46.506 Z-0.068
X36.009 Z-0.061
X36.071 Y-46.498 Z-0.001
X36.009 Y-46.506 Z-0.061
X36.001 Z-0.068
X35.961 Y-46.514 Z-0.102
X35.916 Y-46.534 Z-0.143
X35.882 Y-46.557 Z-0.177
X35.811 Y-46.613 Z-0.256
X35.812 Y-46.604 Z-0.248
X35.811 Y-46.613 Z-0.256
X35.777 Y-46.665 Z-0.304
X35.718 Y-46.766 Z-0.404
X35.584 Y-47.01 Z-0.661
X35.444 Y-47.267 Z-0.944
X35.344 Y-47.371 Z-1.075
X35.277 Y-47.432 Z-1.156
X35.254 Y-47.609 Z-1.227
X35.199 Y-47.922 Z-1.343
X35.178 Y-48.025 Z-1.382
X35.268 Y-48.133 Z-1.311
X35.35 Y-48.243 Z-1.248
X35.388 Y-48.298 Z-1.218
X35.449 Y-48.39 Z-1.174
X35.507 Y-48.486 Z-1.131
X35.56 Y-48.586 Z-1.092
X35.585 Y-48.636 Z-1.075
X35.641 Y-48.766 Z-1.035
X35.663 Y-48.821 Z-1.02
X35.689 Y-48.897 Z-1.001
X35.725 Y-49.025 Z-0.977
X35.74 Y-49.089 Z-0.965
X35.763 Y-49.21 Z-0.949
X35.787 Y-49.337 Z-0.943
X35.802 Y-49.409 Z-0.945
X35.819 Y-49.484 Z-0.95
X35.836 Y-49.557 Z-0.958
X35.861 Y-49.763 Z-0.957
X35.934 Y-50.46 Z-0.937
X35.965 Y-50.689 Z-0.931
X36.012 Y-50.989 Z-0.925
X36.036 Y-51.122 Z-0.923
X36.06 Y-51.238 Z-0.922
X36.085 Y-51.343
X35.906 Y-51.426 Z-0.727
X35.749 Y-51.503 Z-0.557
X35.616 Y-51.577 Z-0.408
X35.506 Y-51.644 Z-0.283
X35.444 Y-51.688 Z-0.209
X35.381 Y-51.739 Z-0.133
X35.342 Y-51.777 Z-0.08
X35.281 Y-51.831 Z-0.001
X35.342 Y-51.777 Z-0.08
X35.381 Y-51.739 Z-0.133
X35.444 Y-51.688 Z-0.209
X35.506 Y-51.644 Z-0.283
X35.616 Y-51.577 Z-0.408
X35.749 Y-51.503 Z-0.557
X35.906 Y-51.426 Z-0.727
X36.085 Y-51.343 Z-0.922
X36.114 Y-51.411 Z-0.912
X36.144 Y-51.482 Z-0.906
X36.162 Y-51.528 Z-0.904
X36.19 Y-51.601 Z-0.908
X36.228 Y-51.704 Z-0.922
X36.244 Y-51.75 Z-0.931
X36.213 Y-51.762 Z-0.899
X36.045 Y-51.812 Z-0.728
X35.895 Y-51.853 Z-0.576
X35.743 Y-51.884 Z-0.425
X35.614 Y-51.904 Z-0.299
X35.409 Y-51.913 Z-0.101
X35.309 Y-51.904 Z-0.001
X35.409 Y-51.913 Z-0.101
X35.614 Y-51.904 Z-0.299
X35.743 Y-51.884 Z-0.425
X35.895 Y-51.853 Z-0.576
X36.045 Y-51.812 Z-0.728
X36.213 Y-51.762 Z-0.899
X36.244 Y-51.75 Z-0.931
X36.35 Y-51.911 Z-0.932
X36.385 Y-51.957
X36.408 Y-51.983 Z-0.931
X36.512 Y-52.084 Z-0.916
X36.584 Y-52.147 Z-0.902
X36.61 Y-52.169 Z-0.896
X36.687 Y-52.226 Z-0.878
X36.697 Y-52.233 Z-0.876
X36.709 Y-52.238 Z-0.871
X36.815 Y-52.278 Z-0.82
X36.826 Y-52.29 Z-0.806
X36.887 Y-52.371 Z-0.714
X36.982 Y-52.476 Z-0.582
X37.047 Y-52.561 Z-0.478
X36.982 Y-52.476 Z-0.582
X36.887 Y-52.371 Z-0.714
X36.826 Y-52.29 Z-0.806
X36.815 Y-52.278 Z-0.82
X37.009 Y-52.238 Z-0.647
X37.135 Y-52.197 Z-0.522
X37.2 Y-52.175 Z-0.454
Z5
X39.455 Y-45.618
Z-0.651 F333.3
X39.487 Y-45.694 Z-0.732 F2000
X39.569 Y-45.882 Z-0.923
X39.57 Y-45.884 Z-0.926
X39.577 Y-45.892 Z-0.934
X39.624 Y-45.941 Z-0.983
X39.669 Y-45.986 Z-1.026
X39.766 Y-46.073 Z-1.107
X39.883 Y-45.934 Z-0.959
X39.952 Y-45.853 Z-0.869
X39.996 Y-45.796 Z-0.806
X40.033 Y-45.753 Z-0.756
X40.091 Y-45.68 Z-0.669
X40.132 Y-45.628 Z-0.605
X40.091 Y-45.68 Z-0.669
X40.033 Y-45.753 Z-0.756
X39.996 Y-45.796 Z-0.806
X39.952 Y-45.853 Z-0.869
X39.883 Y-45.934 Z-0.959
X39.766 Y-46.073 Z-1.107
X39.778 Y-46.123
X39.809 Y-46.262 Z-1.1
X39.84 Y-46.417 Z-1.088
X39.853 Y-46.506 Z-1.08
X39.863 Y-46.577 Z-1.077
X39.878 Y-46.743 Z-1.065
X39.882 Y-46.843 Z-1.057
X39.884 Y-46.995 Z-1.049
X39.882 Y-47.15 Z-1.043
X39.881 Y-47.316
X39.883 Y-47.459 Z-1.046
X39.886 Y-47.53 Z-1.051
X39.898 Y-47.693 Z-1.065
X39.908 Y-47.773 Z-1.077
X39.93 Y-47.903 Z-1.1
X39.945 Y-47.978 Z-1.115
X39.962 Y-48.053 Z-1.133
X39.981 Y-48.118 Z-1.15
X39.999 Y-48.183 Z-1.17
X40.021 Y-48.248 Z-1.191
X40.056 Y-48.345 Z-1.227
X40.086 Y-48.422 Z-1.257
X40.149 Y-48.564 Z-1.319
X40.182 Y-48.631 Z-1.351
X40.223 Y-48.709 Z-1.392
X40.275 Y-48.801 Z-1.443
X40.337 Y-48.904 Z-1.505
X40.459 Y-49.085 Z-1.625
X40.549 Y-49.209 Z-1.714
X40.532 Y-49.308 Z-1.697
X40.487 Y-49.592 Z-1.651
X40.444 Y-49.851 Z-1.606
X40.408 Y-50.054 Z-1.569
X40.356 Y-50.325 Z-1.515
X40.309 Y-50.597 Z-1.467
X40.267 Y-50.854 Z-1.424
X40.2 Y-51.217 Z-1.352
X40.145 Y-51.574 Z-1.29
X40.122 Y-51.77 Z-1.258
X40.112 Y-51.857 Z-1.243
X40.286 Y-52.133 Z-0.998
X40.295 Y-52.219 Z-0.917
X40.301 Y-52.272 Z-0.866
X40.305 Y-52.378 Z-0.763
X40.297 Y-52.457 Z-0.684
X40.305 Y-52.378 Z-0.763
X40.301 Y-52.272 Z-0.866
X40.295 Y-52.219 Z-0.917
X40.286 Y-52.133 Z-0.998
X40.289 Y-52.136 Z-0.994
X40.41 Y-52.242 Z-0.843
X40.51 Y-52.33 Z-0.713
X40.41 Y-52.242 Z-0.843
X40.289 Y-52.136 Z-0.994
X40.286 Y-52.133 Z-0.998
X40.112 Y-51.857 Z-1.243
X40.08 Y-51.886 Z-1.209
X39.978 Y-51.985 Z-1.099
X39.887 Y-52.083 Z-0.995
X39.811 Y-52.146 Z-0.906
X39.766 Y-52.18 Z-0.855
X39.709 Y-52.229 Z-0.783
X39.629 Y-52.302 Z-0.677
X39.547 Y-52.369 Z-0.573
X39.629 Y-52.302 Z-0.677
X39.709 Y-52.229 Z-0.783
X39.766 Y-52.18 Z-0.855
X39.811 Y-52.146 Z-0.906
X39.887 Y-52.083 Z-0.995
X39.978 Y-51.985 Z-1.099
X40.08 Y-51.886 Z-1.209
X40.112 Y-51.857 Z-1.243
X40.122 Y-51.77 Z-1.258
X40.145 Y-51.574 Z-1.29
X40.2 Y-51.217 Z-1.352
X40.267 Y-50.854 Z-1.424
X40.309 Y-50.597 Z-1.467
X40.356 Y-50.325 Z-1.515
X40.408 Y-50.054 Z-1.569
X40.444 Y-49.851 Z-1.606
X40.487 Y-49.592 Z-1.651
X40.532 Y-49.308 Z-1.697
X40.549 Y-49.209 Z-1.714
X40.717 Y-49.118 Z-1.586
X40.805 Y-49.068 Z-1.521
X40.902 Y-49.012 Z-1.453
X41.05 Y-48.918 Z-1.353
X41.158 Y-48.846 Z-1.283
X41.293 Y-48.751 Z-1.202
X41.386 Y-48.682 Z-1.151
X41.459 Y-48.626 Z-1.113
X41.564 Y-48.541 Z-1.064
X41.611 Y-48.484 Z-1.029
X41.655 Y-48.43 Z-1.001
X41.695 Y-48.381 Z-0.979
X41.734 Y-48.334 Z-0.961
X41.77 Y-48.289 Z-0.947
X41.806 Y-48.246 Z-0.937
X41.84 Y-48.204 Z-0.931
X41.9 Y-48.131 Z-0.926
X41.931 Y-48.094 Z-0.928
X41.969 Y-48.049 Z-0.932
X42.037 Y-48.096 Z-0.851
X42.202 Y-48.219 Z-0.65
X42.341 Y-48.33 Z-0.478
X42.415 Y-48.396 Z-0.382
X42.478 Y-48.457 Z-0.298
X42.531 Y-48.513 Z-0.225
X42.567 Y-48.558 Z-0.172
X42.595 Y-48.598 Z-0.127
X42.616 Y-48.634 Z-0.09
X42.635 Y-48.687 Z-0.04
Y-48.728 Z-0.001
Y-48.687 Z-0.04
X42.657 Y-48.722 Z-0.001
X42.635 Y-48.687 Z-0.04
X42.616 Y-48.634 Z-0.09
X42.595 Y-48.598 Z-0.127
X42.567 Y-48.558 Z-0.172
X42.531 Y-48.513 Z-0.225
X42.478 Y-48.457 Z-0.298
X42.415 Y-48.396 Z-0.382
X42.341 Y-48.33 Z-0.478
X42.202 Y-48.219 Z-0.65
X42.037 Y-48.096 Z-0.851
X41.969 Y-48.049 Z-0.932
X42.002 Y-47.982 Z-0.927
X42.033 Y-47.908 Z-0.922
X42.076 Y-47.82 Z-0.911
X42.197 Y-47.552 Z-0.887
X42.227 Y-47.485 Z-0.884
X42.281 Y-47.36 Z-0.881
X42.554 Y-47.422 Z-0.606
X42.677 Y-47.446 Z-0.485
X42.854 Y-47.471 Z-0.313
X42.972 Y-47.473 Z-0.2
X43.036 Y-47.468 Z-0.137
X43.174 Z-0.001
X43.036 Z-0.137
X42.972 Y-47.473 Z-0.2
X42.854 Y-47.471 Z-0.313
X42.677 Y-47.446 Z-0.485
X42.554 Y-47.422 Z-0.606
X42.281 Y-47.36 Z-0.881
X42.299 Y-47.292 Z-0.869
X42.313 Y-47.244 Z-0.863
X42.329 Y-47.197 Z-0.857
X42.345 Y-47.151 Z-0.855
X42.364 Y-47.105 Z-0.852
X42.404 Y-47.014
X42.431 Y-46.966
X42.457 Y-46.919 Z-0.856
X42.487 Y-46.873 Z-0.859
X42.517 Y-46.826 Z-0.866
X42.55 Y-46.782 Z-0.873
X42.583 Y-46.738 Z-0.884
X42.641 Y-46.67 Z-0.901
X42.704 Y-46.605 Z-0.923
X42.762 Y-46.551 Z-0.944
X42.823 Y-46.498 Z-0.969
X43.007 Y-46.845 Z-0.582
X43.077 Y-46.982 Z-0.433
X43.131 Y-47.102 Z-0.306
X43.157 Y-47.169 Z-0.238
X43.177 Y-47.229 Z-0.179
X43.191 Y-47.281 Z-0.13
X43.194 Y-47.349 Z-0.067
Y-47.357 Z-0.06
X43.176 Y-47.415 Z-0.001
X43.194 Y-47.357 Z-0.06
X43.206 Y-47.417 Z-0.001
X43.194 Y-47.357 Z-0.06
Y-47.349 Z-0.067
X43.191 Y-47.281 Z-0.13
X43.177 Y-47.229 Z-0.179
X43.157 Y-47.169 Z-0.238
X43.131 Y-47.102 Z-0.306
X43.077 Y-46.982 Z-0.433
X43.007 Y-46.845 Z-0.582
X42.823 Y-46.498 Z-0.969
X42.894 Y-46.426 Z-0.992
X42.99 Y-46.336 Z-1.025
X43.045 Y-46.289 Z-1.046
X43.119 Y-46.231 Z-1.077
X43.24 Y-46.144 Z-1.131
X43.372 Y-46.058 Z-1.196
X43.459 Y-46.008 Z-1.241
X43.538 Y-45.966 Z-1.284
X43.619 Y-45.926 Z-1.329
X43.746 Y-45.869 Z-1.404
X43.751 Y-45.792 Z-1.365
Y-45.775 Z-1.355
X43.746 Y-45.717 Z-1.319
X43.737 Y-45.649 Z-1.274
X43.724 Y-45.618 Z-1.245
X43.618 Y-45.389 Z-1.025
X43.608 Y-45.345 Z-0.981
X43.551 Y-45.1 Z-0.735
X43.608 Y-45.345 Z-0.981
X43.618 Y-45.389 Z-1.025
X43.525 Y-45.276 Z-0.882
X43.464 Y-45.195 Z-0.782
X43.398 Y-45.114 Z-0.678
X43.464 Y-45.195 Z-0.782
X43.525 Y-45.276 Z-0.882
X43.618 Y-45.389 Z-1.025
X43.724 Y-45.618 Z-1.245
X43.737 Y-45.649 Z-1.274
X43.746 Y-45.717 Z-1.319
X43.751 Y-45.775 Z-1.355
Y-45.792 Z-1.365
X43.746 Y-45.869 Z-1.404
X43.798 Y-45.909 Z-1.373
X43.894 Y-45.99 Z-1.317
X43.982 Y-46.072 Z-1.266
X44.027 Y-46.12 Z-1.239
X44.073 Y-46.168 Z-1.215
X44.115 Y-46.217 Z-1.191
X44.196 Y-46.315 Z-1.151
X44.24 Y-46.373 Z-1.126
X44.277 Y-46.422 Z-1.109
X44.31 Y-46.472 Z-1.091
X44.343 Y-46.522 Z-1.077
X44.373 Y-46.574 Z-1.063
X44.447 Y-46.704 Z-1.036
X44.491 Y-46.791 Z-1.018
X44.579 Y-46.994 Z-0.99
X44.597 Y-47.04 Z-0.984
X44.674 Y-47.249 Z-0.968
X44.695 Y-47.309 Z-0.965
X44.759 Y-47.511 Z-0.954
X44.841 Y-47.801 Z-0.944
X44.897 Y-48.019 Z-0.94
X44.937 Y-48.174 Z-0.939
X45.011 Y-48.459 Z-0.943
X45.047 Y-48.591 Z-0.949
X45.093 Y-48.752 Z-0.959
X45.134 Y-48.883 Z-0.969
X45.192 Y-49.046 Z-0.986
X45.247 Y-49.178 Z-1.002
X45.266 Y-49.22 Z-1.008
X45.305 Y-49.304 Z-1.023
X45.379 Y-49.447 Z-1.055
X45.427 Y-49.532 Z-1.076
X45.487 Y-49.625 Z-1.105
X45.552 Y-49.719 Z-1.14
X45.608 Y-49.796 Z-1.173
X45.679 Y-49.891 Z-1.217
X45.717 Y-49.938 Z-1.241
X45.783 Y-50.017 Z-1.285
X45.875 Y-50.119 Z-1.351
X45.925 Y-50.17 Z-1.386
X46.009 Y-50.254 Z-1.45
X45.975 Y-50.493 Z-1.369
X45.96 Y-50.609 Z-1.333
X45.939 Y-50.832 Z-1.267
X45.811 Y-50.912 Z-1.126
X45.667 Y-51.009 Z-0.962
X45.558 Y-51.089 Z-0.837
X45.466 Y-51.178 Z-0.715
X45.384 Y-51.261 Z-0.603
X45.301 Y-51.363 Z-0.477
X45.232 Y-51.456 Z-0.368
X45.175 Y-51.539 Z-0.274
X45.147 Y-51.593 Z-0.217
X45.124 Y-51.643 Z-0.167
X45.101 Y-51.723 Z-0.092
X45.097 Y-51.753 Z-0.064
X45.082 Y-51.817 Z-0.001
X45.097 Y-51.753 Z-0.064
X45.101 Y-51.723 Z-0.092
X45.124 Y-51.643 Z-0.167
X45.147 Y-51.593 Z-0.217
X45.175 Y-51.539 Z-0.274
X45.232 Y-51.456 Z-0.368
X45.301 Y-51.363 Z-0.477
X45.384 Y-51.261 Z-0.603
X45.466 Y-51.178 Z-0.715
X45.558 Y-51.089 Z-0.837
X45.667 Y-51.009 Z-0.962
X45.811 Y-50.912 Z-1.126
X45.939 Y-50.832 Z-1.267
X45.96 Y-50.922 Z-1.213
X45.983 Y-50.972 Z-1.173
X46.031 Y-51.084 Z-1.088
X46.034 Y-51.088 Z-1.084
X46.215 Y-51.248 Z-0.857
X46.338 Y-51.371 Z-0.696
X46.443 Y-51.486 Z-0.553
X46.516 Y-51.58 Z-0.446
X46.575 Y-51.668 Z-0.353
X46.611 Y-51.735 Z-0.286
X46.64 Y-51.798 Z-0.228
X46.664 Y-51.883 Z-0.154
X46.67 Y-51.93 Z-0.112
X46.712 Y-52.035 Z-0.001
X46.67 Y-51.93 Z-0.112
X46.66 Y-52.044 Z-0.001
X46.67 Y-51.93 Z-0.112
X46.664 Y-51.883 Z-0.154
X46.64 Y-51.798 Z-0.228
X46.611 Y-51.735 Z-0.286
X46.575 Y-51.668 Z-0.353
X46.516 Y-51.58 Z-0.446
X46.443 Y-51.486 Z-0.553
X46.338 Y-51.371 Z-0.696
X46.215 Y-51.248 Z-0.857
X46.034 Y-51.088 Z-1.084
X46.041 Y-51.119 Z-1.054
X46.1 Y-51.311 Z-0.86
X46.159 Y-51.483 Z-0.687
X46.215 Y-51.614 Z-0.551
X46.269 Y-51.729 Z-0.431
X46.321 Y-51.828 Z-0.328
X46.358 Y-51.885 Z-0.265
X46.394 Y-51.934 Z-0.211
X46.43 Y-51.974 Z-0.164
X46.463 Y-52.007 Z-0.125
X46.51 Y-52.039 Z-0.079
X46.517 Y-52.042 Z-0.074
X46.553 Y-52.058 Z-0.042
X46.596 Y-52.068 Z-0.001
X46.553 Y-52.058 Z-0.042
X46.517 Y-52.042 Z-0.074
X46.51 Y-52.039 Z-0.079
X46.463 Y-52.007 Z-0.125
X46.43 Y-51.974 Z-0.164
X46.394 Y-51.934 Z-0.211
X46.358 Y-51.885 Z-0.265
X46.321 Y-51.828 Z-0.328
X46.269 Y-51.729 Z-0.431
X46.215 Y-51.614 Z-0.551
X46.159 Y-51.483 Z-0.687
X46.1 Y-51.311 Z-0.86
X46.041 Y-51.119 Z-1.054
X46.034 Y-51.088 Z-1.084
X46.031 Y-51.084 Z-1.088
X45.983 Y-50.972 Z-1.173
X45.96 Y-50.922 Z-1.213
X45.759 Y-51.262 Z-0.832
X45.68 Y-51.396 Z-0.686
X45.607 Y-51.521 Z-0.555
X45.572 Y-51.659 Z-0.416
X45.539 Y-51.86 Z-0.22
X45.521 Y-52.083 Z-0.001
X45.539 Y-51.86 Z-0.22
X45.572 Y-51.659 Z-0.416
X45.607 Y-51.521 Z-0.555
X45.54 Y-51.59 Z-0.463
X45.454 Y-51.668 Z-0.351
X45.377 Y-51.732 Z-0.256
X45.305 Y-51.781 Z-0.175
X45.244 Y-51.815 Z-0.111
X45.174 Y-51.837 Z-0.047
X45.126 Y-51.836 Z-0.001
X45.174 Y-51.837 Z-0.047
X45.133 Y-51.862 Z-0.001
X45.174 Y-51.837 Z-0.047
X45.244 Y-51.815 Z-0.111
X45.305 Y-51.781 Z-0.175
X45.377 Y-51.732 Z-0.256
X45.454 Y-51.668 Z-0.351
X45.54 Y-51.59 Z-0.463
X45.607 Y-51.521 Z-0.555
X45.68 Y-51.396 Z-0.686
X45.759 Y-51.262 Z-0.832
X45.96 Y-50.922 Z-1.213
X45.939 Y-50.832 Z-1.267
X45.96 Y-50.609 Z-1.333
X45.975 Y-50.493 Z-1.369
X46.009 Y-50.254 Z-1.45
X46.139 Y-50.194 Z-1.367
X46.262 Y-50.132 Z-1.293
X46.375 Y-50.071 Z-1.229
X46.449 Y-50.026 Z-1.189
X46.521 Y-49.982 Z-1.154
X46.645 Y-49.898 Z-1.096
X46.718 Y-49.843 Z-1.066
X46.782 Y-49.792 Z-1.041
X46.87 Y-49.716 Z-1.011
X46.921 Y-49.669 Z-0.995
X47.001 Y-49.59 Z-0.973
X47.063 Y-49.526 Z-0.958
X47.148 Y-49.434 Z-0.94
X47.272 Y-49.291 Z-0.919
X47.491 Y-49.021 Z-0.893
X47.613 Y-48.861 Z-0.885
X47.713 Y-48.722
X47.876 Y-48.505 Z-0.881
X48.026 Y-48.292 Z-0.889
X48.051 Y-48.254 Z-0.891
X48.144 Y-48.108 Z-0.907
X48.194 Y-48.039 Z-0.911
X48.32 Y-47.877 Z-0.916
X48.444 Y-47.731 Z-0.917
X48.52 Y-47.646 Z-0.916
X48.665 Y-47.729 Z-0.753
X48.798 Y-47.801 Z-0.606
X48.918 Y-47.862 Z-0.477
X49.018 Y-47.907 Z-0.371
X49.108 Y-47.943 Z-0.28
X49.186 Y-47.969 Z-0.204
X49.274 Y-47.985 Z-0.123
X49.305 Y-47.988 Z-0.095
X49.405 Y-47.985 Z-0.001
X49.305 Y-47.988 Z-0.095
X49.274 Y-47.985 Z-0.123
X49.186 Y-47.969 Z-0.204
X49.108 Y-47.943 Z-0.28
X49.018 Y-47.907 Z-0.371
X48.918 Y-47.862 Z-0.477
X48.798 Y-47.801 Z-0.606
X48.665 Y-47.729 Z-0.753
X48.52 Y-47.646 Z-0.916
X48.544 Y-47.605 Z-0.908
X48.576 Y-47.559 Z-0.897
X48.635 Y-47.498 Z-0.873
X48.686 Y-47.444 Z-0.859
X48.733 Y-47.396 Z-0.852
X48.777 Y-47.351 Z-0.849
X48.82 Y-47.306 Z-0.851
X48.866 Y-47.258 Z-0.859
X48.916 Y-47.206 Z-0.873
X48.975 Y-47.145 Z-0.896
X49.022 Y-47.097 Z-0.919
X48.53 Y-46.812 Z-0.361
X48.419 Y-46.748 Z-0.243
X48.361 Y-46.712 Z-0.184
X48.31 Y-46.658 Z-0.117
X48.28 Y-46.606 Z-0.064
X48.268 Y-46.58 Z-0.04
X48.256 Y-46.54 Z-0.001
X48.268 Y-46.58 Z-0.04
X48.28 Y-46.606 Z-0.064
X48.31 Y-46.658 Z-0.117
X48.361 Y-46.712 Z-0.184
X48.419 Y-46.748 Z-0.243
X48.53 Y-46.812 Z-0.361
X49.022 Y-47.097 Z-0.919
X49.09 Y-47.044 Z-0.944
X49.161 Y-46.988 Z-0.979
X49.24 Y-46.926 Z-1.025
X49.33 Y-46.856 Z-1.086
X49.167 Y-46.772 Z-0.907
X48.986 Y-46.687 Z-0.712
X48.825 Y-46.618 Z-0.541
X48.695 Y-46.572 Z-0.407
X48.582 Y-46.537 Z-0.293
X48.389 Y-46.499 Z-0.102
X48.288 Y-46.488 Z-0.001
X48.389 Y-46.499 Z-0.102
X48.582 Y-46.537 Z-0.293
X48.695 Y-46.572 Z-0.407
X48.825 Y-46.618 Z-0.541
X48.986 Y-46.687 Z-0.712
X49.167 Y-46.772 Z-0.907
X49.33 Y-46.856 Z-1.086
X49.374 Y-46.833 Z-1.107
X49.468 Y-46.789 Z-1.154
X49.581 Y-46.741 Z-1.215
X49.678 Y-46.702 Z-1.271
X49.78 Y-46.663 Z-1.334
X49.857 Y-46.639 Z-1.379
X50.013 Y-46.6 Z-1.472
X50.035 Y-46.595 Z-1.486
X50.13 Y-46.273 Z-1.345
X50.179 Y-46.105 Z-1.272
X50.223 Y-46.076 Z-1.224
X50.376 Y-45.963 Z-1.051
X50.476 Y-45.876 Z-0.929
X50.512 Y-45.839 Z-0.881
X50.619 Y-45.707 Z-0.719
X50.712 Y-45.585 Z-0.575
X50.781 Y-45.472 Z-0.45
X50.848 Y-45.336 Z-0.308
X50.886 Y-45.222 Z-0.197
X50.902 Y-45.137 Z-0.116
X50.912 Y-45.018 Z-0.001
X50.902 Y-45.137 Z-0.116
X50.886 Y-45.222 Z-0.197
X50.848 Y-45.336 Z-0.308
X50.781 Y-45.472 Z-0.45
X50.712 Y-45.585 Z-0.575
X50.619 Y-45.707 Z-0.719
X50.512 Y-45.839 Z-0.881
X50.476 Y-45.876 Z-0.929
X50.376 Y-45.963 Z-1.051
X50.223 Y-46.076 Z-1.224
X50.179 Y-46.105 Z-1.272
X50.162 Y-45.976 Z-1.174
X50.16 Y-45.907 Z-1.121
X50.161 Y-45.813 Z-1.048
X50.141 Y-45.747 Z-0.982
X50.037 Y-45.424 Z-0.655
X50.141 Y-45.747 Z-0.982
X50.161 Y-45.813 Z-1.048
X50.234 Y-45.637 Z-0.87
X50.286 Y-45.535 Z-0.762
X50.344 Y-45.443 Z-0.658
X50.425 Y-45.334 Z-0.528
X50.502 Y-45.24 Z-0.412
X50.589 Y-45.15 Z-0.293
X50.648 Y-45.099 Z-0.218
X50.702 Y-45.058 Z-0.156
X50.749 Y-45.028 Z-0.106
X50.799 Y-45.01 Z-0.059
X50.816 Y-45.005 Z-0.044
X50.855 Y-44.982 Z-0.001
X50.816 Y-45.005 Z-0.044
X50.861 Y-45.006 Z-0.001
X50.816 Y-45.005 Z-0.044
X50.799 Y-45.01 Z-0.059
X50.749 Y-45.028 Z-0.106
X50.702 Y-45.058 Z-0.156
X50.648 Y-45.099 Z-0.218
X50.589 Y-45.15 Z-0.293
X50.502 Y-45.24 Z-0.412
X50.425 Y-45.334 Z-0.528
X50.344 Y-45.443 Z-0.658
X50.286 Y-45.535 Z-0.762
X50.234 Y-45.637 Z-0.87
X50.161 Y-45.813 Z-1.048
X50.16 Y-45.907 Z-1.121
X50.162 Y-45.976 Z-1.174
X50.179 Y-46.105 Z-1.272
X50.13 Y-46.273 Z-1.345
X50.035 Y-46.595 Z-1.486
X50.116 Y-46.701 Z-1.423
X50.229 Y-46.861 Z-1.338
X50.289 Y-46.952 Z-1.294
X50.362 Y-47.072 Z-1.245
X50.425 Y-47.182 Z-1.204
X50.464 Y-47.256 Z-1.179
X50.508 Y-47.353 Z-1.151
X50.573 Y-47.52 Z-1.11
X50.605 Y-47.613 Z-1.09
X50.641 Y-47.745 Z-1.067
X50.674 Y-47.886 Z-1.048
X50.707 Y-48.053 Z-1.033
X50.744 Y-48.275 Z-1.018
X50.784 Y-48.563 Z-1.003
X50.832 Y-48.911 Z-0.989
X50.836 Y-48.938 Z-0.988
X50.891 Y-49.296 Z-0.98
X50.925 Y-49.497 Z-0.977
X50.976 Y-49.752
X51.033 Y-50 Z-0.979
X51.098 Y-50.239 Z-0.98
X51.167 Y-50.46 Z-0.979
X51.193 Y-50.533
X51.262 Y-50.709 Z-0.971
X51.326 Y-50.863 Z-0.968
X51.388 Y-50.993 Z-0.967
X51.423 Y-51.061 Z-0.966
X51.467 Y-51.142 Z-0.968
X51.551 Y-51.28 Z-0.974
X51.578 Y-51.322 Z-0.977
X51.669 Y-51.444 Z-0.99
X51.706 Y-51.487 Z-0.992
X51.74 Y-51.525 Z-0.997
X51.775 Y-51.558 Z-0.999
X51.796 Y-51.574
X51.831 Y-51.597 Z-0.996
X51.915 Y-51.643 Z-0.984
X51.945 Y-51.656 Z-0.978
X52.02 Y-51.68 Z-0.961
X52.118 Y-51.708 Z-0.943
X52.215 Y-51.726 Z-0.921
X52.258 Y-51.84 Z-0.803
X52.29 Y-51.939 Z-0.699
X52.258 Y-51.84 Z-0.803
X52.215 Y-51.726 Z-0.921
X52.244 Y-51.72 Z-0.906
X52.275 Y-51.712 Z-0.887
X52.406 Y-51.653 Z-0.796
X52.483 Y-51.604 Z-0.73
X52.527 Y-51.568 Z-0.686
X52.559 Y-51.54 Z-0.653
X52.598 Y-51.501 Z-0.608
X52.652 Y-51.44 Z-0.538
X52.739 Y-51.332 Z-0.414
X52.814 Y-51.238 Z-0.3
X52.826 Y-51.221 Z-0.28
Z5
X56.354 Y-45.806
Z-0.713 F333.3
X56.394 Y-45.898 Z-0.812 F2000
X56.496 Y-46.14 Z-1.059
X56.535 Y-46.23 Z-1.15
X56.551 Y-46.258 Z-1.179
X56.57 Y-46.285 Z-1.206
X56.612 Y-46.274 Z-1.195
X56.739 Y-46.242 Z-1.167
X56.896 Y-46.202 Z-1.143
X57.007 Y-46.175 Z-1.133
X57.061 Y-46.162 Z-1.13
X57.184 Y-46.287 Z-0.977
X57.459 Y-46.575 Z-0.636
X57.554 Y-46.675 Z-0.508
X57.559 Y-46.681 Z-0.5
X57.554 Y-46.675 Z-0.508
X57.459 Y-46.575 Z-0.636
X57.184 Y-46.287 Z-0.977
X57.061 Y-46.162 Z-1.13
X57.133 Y-46.094 Z-1.083
X57.147 Y-46.08 Z-1.074
X57.223 Y-46.01 Z-1.029
X57.288 Y-45.949 Z-0.993
X57.389 Y-45.853 Z-0.948
X57.469 Y-45.78 Z-0.921
X57.527 Y-45.73 Z-0.905
X57.586 Y-45.683 Z-0.892
X57.636 Y-45.647 Z-0.883
X57.687 Y-45.613 Z-0.877
X57.733 Y-45.587 Z-0.871
X57.815 Y-45.542 Z-0.865
X57.862 Y-45.519 Z-0.862
X57.931 Y-45.491 Z-0.858
X57.974 Y-45.476 Z-0.856
X58.094 Y-45.45 Z-0.849
X58.142 Y-45.444 Z-0.844
X58.219 Z-0.833
X58.305 Y-45.455 Z-0.818
X58.348 Y-45.463 Z-0.811
X58.421 Y-45.48 Z-0.797
X58.503 Y-45.504 Z-0.786
X58.563 Y-45.526 Z-0.776
X58.639 Y-45.561 Z-0.763
X58.721 Y-45.608 Z-0.75
X58.811 Y-45.668 Z-0.733
X58.86 Y-45.706 Z-0.723
X58.911 Y-45.748 Z-0.715
X59.01 Y-45.84 Z-0.699
X59.044 Y-45.876 Z-0.691
X59.117 Y-45.956 Z-0.683
X59.201 Y-46.057 Z-0.669
X59.229 Y-46.093 Z-0.668
X59.357 Y-46.275 Z-0.657
X59.457 Y-46.44 Z-0.654
X59.489 Y-46.5
X59.531 Y-46.586 Z-0.657
X59.588 Y-46.714 Z-0.658
X59.64 Y-46.864 Z-0.66
X59.661 Y-46.936 Z-0.661
X59.683 Y-47.046 Z-0.664
X59.695 Y-47.122 Z-0.663
X59.702 Y-47.18 Z-0.664
X59.713 Y-47.3 Z-0.669
X59.727 Y-47.518 Z-0.684
X59.743 Y-47.744 Z-0.708
X59.75 Y-47.835 Z-0.719
X59.752 Y-47.889 Z-0.724
X59.75 Y-48.048 Z-0.734
X59.737 Y-48.195 Z-0.735
X59.709 Y-48.407 Z-0.739
X59.672 Y-48.614 Z-0.747
X59.626 Y-48.815 Z-0.762
X59.573 Y-49.013 Z-0.782
X59.511 Y-49.209 Z-0.805
X59.471 Y-49.323 Z-0.818
X59.402 Y-49.48 Z-0.827
X59.313 Y-49.657 Z-0.832
X59.267 Y-49.74 Z-0.833
X59.201 Y-49.852 Z-0.836
X59.092 Y-50.026 Z-0.837
X59.071 Y-50.057 Z-0.838
X58.908 Y-50.285 Z-0.839
X58.766 Y-50.464 Z-0.842
X58.657 Y-50.595 Z-0.84
X58.464 Y-50.491 Z-0.624
X58.248 Y-50.392 Z-0.391
X58.163 Y-50.356 Z-0.301
X58.089 Y-50.328 Z-0.224
X57.98 Y-50.298 Z-0.116
X57.911 Y-50.29 Z-0.051
X57.881 Y-50.294 Z-0.024
X57.858 Y-50.303 Z-0.001
X57.881 Y-50.294 Z-0.024
X57.857 Y-50.291 Z-0.001
X57.881 Y-50.294 Z-0.024
X57.911 Y-50.29 Z-0.051
X57.98 Y-50.298 Z-0.116
X58.089 Y-50.328 Z-0.224
X58.163 Y-50.356 Z-0.301
X58.248 Y-50.392 Z-0.391
X58.464 Y-50.491 Z-0.624
X58.657 Y-50.595 Z-0.84
X58.613 Y-50.666 Z-0.826
X58.564 Y-50.734 Z-0.814
X58.512 Y-50.798 Z-0.807
X58.457 Y-50.86 Z-0.804
X58.415 Y-50.902 Z-0.803
X58.352 Y-50.958 Z-0.805
X58.32 Y-50.983 Z-0.806
X58.222 Y-51.055 Z-0.819
X58.167 Y-51.088 Z-0.828
X58.112 Y-51.119 Z-0.839
X57.97 Y-50.844 Z-0.537
X57.916 Y-50.73 Z-0.416
X57.874 Y-50.629 Z-0.311
X57.851 Y-50.565 Z-0.247
X57.834 Y-50.507 Z-0.192
X57.822 Y-50.428 Z-0.118
Y-50.384 Z-0.077
X57.812 Y-50.307 Z-0.001
X57.822 Y-50.384 Z-0.077
Y-50.428 Z-0.118
X57.834 Y-50.507 Z-0.192
X57.851 Y-50.565 Z-0.247
X57.874 Y-50.629 Z-0.311
X57.916 Y-50.73 Z-0.416
X57.97 Y-50.844 Z-0.537
X58.112 Y-51.119 Z-0.839
X57.977 Y-51.225 Z-0.841
X57.808 Y-51.349 Z-0.846
X57.72 Y-51.41 Z-0.848
X57.631 Y-51.466 Z-0.85
X57.506 Y-51.532 Z-0.843
X57.361 Y-51.602 Z-0.837
X57.227 Y-51.662 Z-0.838
X57.112 Y-51.708 Z-0.843
X56.966 Y-51.761 Z-0.851
X56.858 Y-51.796 Z-0.858
X56.789 Y-51.815 Z-0.863
X56.78 Y-51.817
X56.667 Y-51.836 Z-0.868
X56.6 Y-51.849 Z-0.876
X56.539 Y-51.861 Z-0.887
X56.464 Y-51.877 Z-0.906
X56.432 Z-0.91
X56.287 Y-51.876 Z-0.931
X56.23 Y-51.871 Z-0.94
X56.171 Y-51.86 Z-0.947
X56.054 Y-51.825 Z-0.957
X55.989 Y-51.799 Z-0.961
X55.922 Y-51.763 Z-0.964
X55.871 Y-51.731
X55.789 Y-51.671 Z-0.963
X55.702 Y-51.592 Z-0.96
X55.66 Y-51.546 Z-0.956
X55.622 Y-51.504
X55.55 Y-51.407 Z-0.951
X55.525 Y-51.37 Z-0.947
X55.473 Y-51.287 Z-0.942
X55.437 Y-51.219 Z-0.939
X55.419 Y-51.179 Z-0.938
X55.387 Y-51.094 Z-0.933
X55.385 Y-51.087 Z-0.932
X55.355 Y-50.958 Z-0.911
X55.343 Y-50.876 Z-0.901
X55.331 Y-50.761 Z-0.887
X55.322 Y-50.638 Z-0.877
X55.318 Y-50.489 Z-0.87
X55.323 Y-50.321 Z-0.863
X55.333 Y-50.163 Z-0.861
X55.338 Y-50.107
X55.359 Y-49.91 Z-0.86
X55.389 Y-49.695
X55.426 Y-49.464 Z-0.859
X55.467 Y-49.236
X55.512 Y-49.005 Z-0.857
X55.583 Y-48.662 Z-0.855
X55.654 Y-48.352 Z-0.854
X55.714 Y-48.115 Z-0.856
X55.767 Y-47.921 Z-0.86
X55.823 Y-47.735 Z-0.869
X55.883 Y-47.555 Z-0.882
X55.949 Y-47.377 Z-0.9
X56.022 Y-47.199 Z-0.924
X56.105 Y-47.019 Z-0.958
X56.127 Y-46.975 Z-0.966
X56.17 Y-46.891 Z-0.988
X56.23 Y-46.784 Z-1.015
X56.314 Y-46.643 Z-1.06
X56.349 Y-46.589 Z-1.078
X56.42 Y-46.483 Z-1.12
X56.504 Y-46.366 Z-1.168
X56.53 Y-46.334 Z-1.183
X56.57 Y-46.285 Z-1.206
Z5
X61.767 Y-46.7
Z-0.001 F333.3
X61.787 Y-46.678 Z-0.029 F2000
X61.783 Y-46.708 Z-0.001
X61.787 Y-46.678 Z-0.029
X61.792 Y-46.668 Z-0.039
X61.817 Y-46.625 Z-0.082
X61.863 Y-46.576 Z-0.138
X61.915 Y-46.533 Z-0.198
X61.979 Y-46.487 Z-0.271
X62.057 Y-46.438 Z-0.358
X62.154 Y-46.392 Z-0.459
X62.265 Y-46.345 Z-0.573
X62.46 Y-46.289 Z-0.764
X62.55 Y-46.271 Z-0.85
X62.644 Y-46.256 Z-0.939
X62.442 Y-46.115 Z-0.711
X62.289 Y-46.016 Z-0.537
X62.138 Y-45.936 Z-0.368
X62.289 Y-46.016 Z-0.537
X62.442 Y-46.115 Z-0.711
X62.644 Y-46.256 Z-0.939
X62.72 Y-46.277 Z-0.998
X62.806 Y-46.306 Z-1.064
X62.725 Y-46.372 Z-0.965
X62.535 Y-46.509 Z-0.742
X62.431 Y-46.573 Z-0.625
X62.334 Y-46.629 Z-0.52
X62.24 Y-46.674 Z-0.422
X62.155 Y-46.71 Z-0.335
X62.019 Y-46.75 Z-0.203
X61.961 Y-46.76 Z-0.146
X61.816 Y-46.793 Z-0.001
X61.961 Y-46.76 Z-0.146
X62.019 Y-46.75 Z-0.203
X62.155 Y-46.71 Z-0.335
X62.24 Y-46.674 Z-0.422
X62.334 Y-46.629 Z-0.52
X62.431 Y-46.573 Z-0.625
X62.535 Y-46.509 Z-0.742
X62.725 Y-46.372 Z-0.965
X62.806 Y-46.306 Z-1.064
X62.839 Z-1.081
X63.107 Y-46.302 Z-1.21
X63.266 Y-46.306 Z-1.286
X63.362 Y-46.311 Z-1.333
X63.477 Y-46.329 Z-1.382
X63.591 Y-46.345 Z-1.436
X63.621 Y-46.446 Z-1.373
X63.67 Y-46.616 Z-1.276
X63.707 Y-46.75 Z-1.207
X63.74 Y-46.873 Z-1.151
X63.759 Y-46.949 Z-1.12
X63.771 Y-46.993 Z-1.103
X63.804 Y-47.137 Z-1.051
X63.836 Y-47.305 Z-1.005
X63.846 Y-47.372 Z-0.989
X63.858 Y-47.473 Z-0.969
X63.865 Y-47.574 Z-0.955
X63.868 Y-47.696 Z-0.944
X63.867 Y-47.779 Z-0.938
X63.86 Y-47.9 Z-0.937
X63.844 Y-48.094 Z-0.939
X63.833 Y-48.315 Z-0.936
X63.82 Y-48.702 Z-0.926
X63.814 Y-49.092 Z-0.917
X63.817 Y-49.406 Z-0.913
X63.823 Y-49.598 Z-0.914
X63.837 Y-49.83 Z-0.918
X63.852 Y-49.986 Z-0.923
X63.867 Y-50.106 Z-0.924
X63.883 Y-50.206 Z-0.926
X63.923 Y-50.413 Z-0.928
X63.971 Y-50.623 Z-0.93
X64.027 Y-50.828 Z-0.937
X64.07 Y-50.963 Z-0.942
X64.107 Y-51.065 Z-0.948
X64.152 Y-51.177 Z-0.954
X64.185 Y-51.246 Z-0.958
X64.24 Y-51.348 Z-0.96
X64.286 Y-51.42 Z-0.961
X64.382 Y-51.554 Z-0.962
X64.419 Y-51.602 Z-0.965
X64.499 Y-51.693 Z-0.966
X64.55 Y-51.743
X64.56 Y-51.753
X64.667 Y-51.827 Z-0.953
X64.719 Y-51.857 Z-0.944
X64.782 Y-51.893 Z-0.938
X64.936 Y-51.965 Z-0.919
X65.09 Y-52.019 Z-0.903
X65.132 Y-52.033 Z-0.9
X65.213 Y-52.053 Z-0.893
X65.366 Y-52.086 Z-0.884
X65.533 Y-52.102 Z-0.874
X65.575 Y-52.105 Z-0.872
X65.64 Z-0.867
X65.765 Y-52.1 Z-0.86
X65.842 Y-52.09 Z-0.853
X65.959 Y-52.071 Z-0.844
X66.061 Y-52.046 Z-0.833
X66.156 Y-52.007 Z-0.813
X66.29 Y-51.945 Z-0.784
X66.451 Y-51.861 Z-0.748
X66.633 Y-51.764 Z-0.701
X66.721 Y-51.718 Z-0.677
X66.776 Y-51.687 Z-0.663
X66.838 Y-51.647 Z-0.648
X66.906 Y-51.601 Z-0.633
X67.011 Y-51.519 Z-0.611
X67.118 Y-51.429 Z-0.585
X67.204 Y-51.35 Z-0.561
X67.24 Y-51.314 Z-0.547
X67.261 Y-51.286 Z-0.533
X67.292 Y-51.237 Z-0.502
X67.313 Y-51.204 Z-0.481
X67.354 Y-51.14 Z-0.436
X67.391 Y-51.087 Z-0.395
X67.449 Y-51.013 Z-0.329
X67.49 Y-50.97 Z-0.282
X67.561 Y-50.896 Z-0.192
X67.569 Y-50.89 Z-0.182
X67.561 Y-50.896 Z-0.192
X67.49 Y-50.97 Z-0.282
X67.449 Y-51.013 Z-0.329
X67.391 Y-51.087 Z-0.395
X67.354 Y-51.14 Z-0.436
X67.313 Y-51.204 Z-0.481
X67.292 Y-51.237 Z-0.502
X67.261 Y-51.286 Z-0.533
X67.24 Y-51.314 Z-0.547
X67.204 Y-51.35 Z-0.561
X67.118 Y-51.429 Z-0.585
X67.011 Y-51.519 Z-0.611
X66.906 Y-51.601 Z-0.633
X66.838 Y-51.647 Z-0.648
X66.776 Y-51.687 Z-0.663
X66.721 Y-51.718 Z-0.677
X66.633 Y-51.764 Z-0.701
X66.451 Y-51.861 Z-0.748
X66.29 Y-51.945 Z-0.784
X66.156 Y-52.007 Z-0.813
X66.061 Y-52.046 Z-0.833
X65.959 Y-52.071 Z-0.844
X65.842 Y-52.09 Z-0.853
X65.765 Y-52.1 Z-0.86
X65.64 Y-52.105 Z-0.867
X65.575 Z-0.872
X65.533 Y-52.102 Z-0.874
X65.366 Y-52.086 Z-0.884
X65.213 Y-52.053 Z-0.893
X65.132 Y-52.033 Z-0.9
X65.09 Y-52.019 Z-0.903
X64.936 Y-51.965 Z-0.919
X64.782 Y-51.893 Z-0.938
X64.719 Y-51.857 Z-0.944
X64.667 Y-51.827 Z-0.953
X64.56 Y-51.753 Z-0.966
X64.55 Y-51.743
X64.499 Y-51.693
X64.419 Y-51.602 Z-0.965
X64.382 Y-51.554 Z-0.962
X64.286 Y-51.42 Z-0.961
X64.24 Y-51.348 Z-0.96
X64.185 Y-51.246 Z-0.958
X64.152 Y-51.177 Z-0.954
X64.107 Y-51.065 Z-0.948
X64.07 Y-50.963 Z-0.942
X64.027 Y-50.828 Z-0.937
X63.971 Y-50.623 Z-0.93
X63.923 Y-50.413 Z-0.928
X63.883 Y-50.206 Z-0.926
X63.867 Y-50.106 Z-0.924
X63.852 Y-49.986 Z-0.923
X63.837 Y-49.83 Z-0.918
X63.823 Y-49.598 Z-0.914
X63.817 Y-49.406 Z-0.913
X63.814 Y-49.092 Z-0.917
X63.82 Y-48.702 Z-0.926
X63.833 Y-48.315 Z-0.936
X63.844 Y-48.094 Z-0.939
X63.86 Y-47.9 Z-0.937
X63.867 Y-47.779 Z-0.938
X63.868 Y-47.696 Z-0.944
X63.865 Y-47.574 Z-0.955
X63.858 Y-47.473 Z-0.969
X63.846 Y-47.372 Z-0.989
X63.836 Y-47.305 Z-1.005
X63.804 Y-47.137 Z-1.051
X63.771 Y-46.993 Z-1.103
X63.759 Y-46.949 Z-1.12
X63.74 Y-46.873 Z-1.151
X63.707 Y-46.75 Z-1.207
X63.67 Y-46.616 Z-1.276
X63.621 Y-46.446 Z-1.373
X63.591 Y-46.345 Z-1.436
X63.641 Y-46.295 Z-1.411
X63.743 Y-46.188 Z-1.365
X63.79 Y-46.139 Z-1.348
X63.84 Y-46.086 Z-1.333
X63.896 Y-46.027 Z-1.322
X63.976 Y-45.939 Z-1.312
X64.016 Y-45.894 Z-1.311
X64.065 Y-45.84 Z-1.313
X64.121 Y-45.777 Z-1.32
X64.617 Y-46.251 Z-0.639
X64.753 Y-46.374 Z-0.458
X64.96 Y-46.554 Z-0.194
X65.011 Y-46.595 Z-0.136
X65.063 Y-46.628 Z-0.086
X65.093 Y-46.642 Z-0.06
X65.113 Y-46.649 Z-0.041
X65.155 Y-46.654 Z-0.001
X65.113 Y-46.649 Z-0.041
X65.146 Y-46.674 Z-0.001
X65.113 Y-46.649 Z-0.041
X65.093 Y-46.642 Z-0.06
X65.063 Y-46.628 Z-0.086
X65.011 Y-46.595 Z-0.136
X64.96 Y-46.554 Z-0.194
X64.753 Y-46.374 Z-0.458
X64.617 Y-46.251 Z-0.639
X64.121 Y-45.777 Z-1.32
X64.162 Y-45.723 Z-1.324
X63.344 Y-45.148 Z-0.329
X63.25 Y-45.088 Z-0.22
X63.147 Y-45.027 Z-0.105
X63.113 Y-45.009 Z-0.068
X63.085 Y-44.997 Z-0.04
X63.044 Y-44.991 Z-0.001
X63.085 Y-44.997 Z-0.04
X63.113 Y-45.009 Z-0.068
X63.147 Y-45.027 Z-0.105
X63.25 Y-45.088 Z-0.22
X63.344 Y-45.148 Z-0.329
X64.162 Y-45.723 Z-1.324
X64.218 Y-45.657 Z-1.33
X64.282 Y-45.581 Z-1.343
X64.376 Y-45.584 Z-1.282
X64.468 Y-45.59 Z-1.224
X64.642 Y-45.606 Z-1.122
X64.749 Y-45.619 Z-1.066
X64.839 Y-45.63 Z-1.026
X64.926 Y-45.642 Z-0.992
X64.984 Y-45.651 Z-0.971
X65.033 Y-45.659 Z-0.957
X65.138 Y-45.657 Z-0.916
X65.306 Y-45.647 Z-0.853
X65.364 Y-45.642 Z-0.835
X65.496 Y-45.628 Z-0.796
X65.651 Y-45.609 Z-0.757
X65.758 Y-45.594 Z-0.734
X65.996 Y-45.563 Z-0.69
X66.134 Y-45.547 Z-0.67
X66.432 Y-45.515 Z-0.631
X66.462 Y-45.508 Z-0.623
X66.527 Y-45.49 Z-0.605
X66.565 Y-45.478 Z-0.592
X66.674 Y-45.438 Z-0.55
X66.848 Y-45.379 Z-0.488
X66.895 Y-45.366 Z-0.473
X67.064 Y-45.324 Z-0.425
X67.099 Y-45.317 Z-0.418
X67.281 Y-45.289 Z-0.381
X67.419 Y-45.276 Z-0.358
X67.491 Y-45.27 Z-0.345
X67.515 Y-45.265 Z-0.337
X67.635 Y-45.234 Z-0.287
X67.682 Y-45.22 Z-0.263
X67.746 Y-45.198 Z-0.22
X67.773 Y-45.202 Z-0.194
X67.968 Y-45.207 Z-0.001
X67.773 Y-45.202 Z-0.194
X67.746 Y-45.198 Z-0.22
X67.76 Y-45.189 Z-0.205
X67.789 Y-45.16 Z-0.165
X67.919 Y-45.054 Z-0.001
X67.789 Y-45.16 Z-0.165
X67.76 Y-45.189 Z-0.205
X67.746 Y-45.198 Z-0.22
X67.682 Y-45.22 Z-0.263
X67.635 Y-45.234 Z-0.287
X67.515 Y-45.265 Z-0.337
X67.491 Y-45.27 Z-0.345
X67.419 Y-45.276 Z-0.358
X67.281 Y-45.289 Z-0.381
X67.099 Y-45.317 Z-0.418
X67.064 Y-45.324 Z-0.425
X66.895 Y-45.366 Z-0.473
X66.848 Y-45.379 Z-0.488
X66.674 Y-45.438 Z-0.55
X66.565 Y-45.478 Z-0.592
X66.527 Y-45.49 Z-0.605
X66.462 Y-45.508 Z-0.623
X66.432 Y-45.515 Z-0.631
X66.134 Y-45.547 Z-0.67
X65.996 Y-45.563 Z-0.69
X65.758 Y-45.594 Z-0.734
X65.651 Y-45.609 Z-0.757
X65.496 Y-45.628 Z-0.796
X65.364 Y-45.642 Z-0.835
X65.306 Y-45.647 Z-0.853
X65.138 Y-45.657 Z-0.916
X65.033 Y-45.659 Z-0.957
X64.984 Y-45.651 Z-0.971
X64.926 Y-45.642 Z-0.992
X64.839 Y-45.63 Z-1.026
X64.749 Y-45.619 Z-1.066
X64.642 Y-45.606 Z-1.122
X64.468 Y-45.59 Z-1.224
X64.376 Y-45.584 Z-1.282
X64.282 Y-45.581 Z-1.343
X64.262 Y-45.459 Z-1.269
X64.243 Y-45.331 Z-1.198
X64.233 Y-45.26 Z-1.163
X64.223 Y-45.194 Z-1.133
X64.214 Y-45.132 Z-1.108
X64.198 Y-45.002 Z-1.064
X64.191 Y-44.946 Z-1.049
X64.183 Y-44.857 Z-1.029
X64.175 Y-44.739 Z-1.01
X64.172 Y-44.654 Z-1.002
X64.173 Y-44.567 Z-0.999
X64.209 Y-43.94 Z-1.017
X64.217 Y-43.782 Z-1.02
X64.221 Y-43.623 Z-1.021
X64.223 Y-43.534 Z-1.019
X64.294 Y-43.47 Z-0.945
X64.318 Y-43.451 Z-0.92
X64.445 Y-43.362 Z-0.783
X64.52 Y-43.308 Z-0.698
X64.64 Y-43.249 Z-0.565
X64.52 Y-43.308 Z-0.698
X64.445 Y-43.362 Z-0.783
X64.318 Y-43.451 Z-0.92
X64.294 Y-43.47 Z-0.945
X64.223 Y-43.534 Z-1.019
X64.143 Y-43.446 Z-0.936
X64.07 Y-43.365 Z-0.859
X64.002 Y-43.103 Z-0.598
X63.96 Y-42.898 Z-0.391
X64.002 Y-43.103 Z-0.598
X64.07 Y-43.365 Z-0.859
X63.825 Y-43.214 Z-0.6
X63.724 Y-43.151 Z-0.489
X63.691 Y-43.124 Z-0.447
X63.313 Y-42.877 Z-0.001
Z5
X69.674 Y-51.633
Z-0.516 F333.3
X69.831 Y-51.572 Z-0.682 F2000
X69.936 Y-51.528 Z-0.791
X70.073 Y-51.456 Z-0.933
X70.238 Y-51.356 Z-1.102
X70.324 Y-51.298 Z-1.189
X70.378 Y-51.419 Z-1.099
X70.426 Y-51.519 Z-1.017
X70.448 Y-51.559 Z-0.983
X70.458 Y-51.576 Z-0.967
X70.566 Y-51.734 Z-0.798
X70.614 Y-51.805 Z-0.715
X70.616 Y-51.807 Z-0.713
X70.614 Y-51.805 Z-0.715
X70.566 Y-51.734 Z-0.798
X70.458 Y-51.576 Z-0.967
X70.448 Y-51.559 Z-0.983
X70.426 Y-51.519 Z-1.017
X70.378 Y-51.419 Z-1.099
X70.324 Y-51.298 Z-1.189
X70.36 Y-51.052 Z-1.228
X70.423 Y-50.7 Z-1.291
X70.446 Y-50.585 Z-1.315
X70.479 Y-50.454 Z-1.347
X70.551 Y-50.192 Z-1.418
X70.657 Y-49.833 Z-1.521
X70.581 Y-49.721 Z-1.444
X70.523 Y-49.628 Z-1.386
X70.469 Y-49.535 Z-1.331
X70.406 Y-49.416 Z-1.268
X70.351 Y-49.298 Z-1.211
X70.325 Y-49.235 Z-1.183
X70.299 Y-49.172 Z-1.158
X70.278 Y-49.11 Z-1.134
X70.256 Y-49.047 Z-1.114
X70.238 Y-48.985 Z-1.094
X70.22 Y-48.922 Z-1.077
X70.206 Y-48.859 Z-1.06
X70.192 Y-48.797 Z-1.048
X70.182 Y-48.735 Z-1.035
X70.172 Y-48.673 Z-1.026
X70.166 Y-48.612 Z-1.018
X70.16 Y-48.55 Z-1.012
X70.158 Y-48.488 Z-1.007
X70.155 Y-48.401 Z-1.006
X70.162 Y-47.579 Z-0.997
X70.164 Y-47.488 Z-0.995
X70.17 Y-47.346 Z-0.988
X70.176 Y-47.099 Z-0.981
X70.184 Y-46.635 Z-0.972
X70.197 Y-45.706 Z-0.957
X70.205 Y-44.819 Z-0.947
X70.206 Y-44.329 Z-0.944
X70.202 Y-43.941 Z-0.947
X70.196 Y-43.677 Z-0.952
X70.183 Y-43.34 Z-0.964
X70.164 Y-42.884 Z-0.981
X70.158 Y-42.622 Z-0.985
Y-42.456 Z-0.983
X70.161 Y-42.347 Z-0.979
X70.249 Y-42.254 Z-0.89
X70.251 Y-42.252 Z-0.888
X70.368 Y-42.177 Z-0.768
X70.473 Y-42.11 Z-0.65
X70.368 Y-42.177 Z-0.768
X70.251 Y-42.252 Z-0.888
X70.249 Y-42.254 Z-0.89
X70.161 Y-42.347 Z-0.979
X70.089 Y-42.271 Z-0.899
X70.017 Y-42.19 Z-0.811
X69.957 Y-42.112 Z-0.729
X69.895 Y-42.028 Z-0.637
X69.83 Y-41.934 Z-0.532
X69.764 Y-41.837 Z-0.421
X69.83 Y-41.934 Z-0.532
X69.895 Y-42.028 Z-0.637
X69.957 Y-42.112 Z-0.729
X70.017 Y-42.19 Z-0.811
X70.089 Y-42.271 Z-0.899
X70.161 Y-42.347 Z-0.979
X70.158 Y-42.456 Z-0.983
Y-42.622 Z-0.985
X70.164 Y-42.884 Z-0.981
X70.183 Y-43.34 Z-0.964
X70.196 Y-43.677 Z-0.952
X70.202 Y-43.941 Z-0.947
X70.206 Y-44.329 Z-0.944
X70.205 Y-44.819 Z-0.947
X70.197 Y-45.706 Z-0.957
X70.184 Y-46.635 Z-0.972
X70.176 Y-47.099 Z-0.981
X70.17 Y-47.346 Z-0.988
X70.164 Y-47.488 Z-0.995
X70.162 Y-47.579 Z-0.997
X70.155 Y-48.401 Z-1.006
X70.158 Y-48.488 Z-1.007
X70.16 Y-48.55 Z-1.012
X70.166 Y-48.612 Z-1.018
X70.172 Y-48.673 Z-1.026
X70.182 Y-48.735 Z-1.035
X70.192 Y-48.797 Z-1.048
X70.206 Y-48.859 Z-1.06
X70.22 Y-48.922 Z-1.077
X70.238 Y-48.985 Z-1.094
X70.256 Y-49.047 Z-1.114
X70.278 Y-49.11 Z-1.134
X70.299 Y-49.172 Z-1.158
X70.325 Y-49.235 Z-1.183
X70.351 Y-49.298 Z-1.211
X70.406 Y-49.416 Z-1.268
X70.469 Y-49.535 Z-1.331
X70.523 Y-49.628 Z-1.386
X70.581 Y-49.721 Z-1.444
X70.657 Y-49.833 Z-1.521
X70.782 Y-49.788 Z-1.441
X70.891 Y-49.744 Z-1.373
X70.996 Y-49.698 Z-1.311
X71.197 Y-49.6 Z-1.198
X71.314 Y-49.538 Z-1.134
X71.418 Y-49.479 Z-1.083
X71.517 Y-49.417 Z-1.035
X71.599 Y-49.361 Z-0.999
X71.678 Y-49.302 Z-0.968
X71.752 Y-49.24 Z-0.941
X71.823 Y-49.175 Z-0.92
X71.868 Y-49.13 Z-0.908
X71.906 Y-49.09 Z-0.901
X71.942 Y-49.049 Z-0.893
X71.986 Y-48.998 Z-0.889
X72.024 Y-48.949 Z-0.885
X72.069 Y-48.886 Z-0.884
X72.102 Y-48.846 Z-0.881
X72.291 Y-48.623 Z-0.857
X72.386 Y-48.505 Z-0.847
X72.41 Y-48.473 Z-0.844
X72.451 Y-48.401 Z-0.826
X72.495 Y-48.331 Z-0.812
X72.526 Y-48.283 Z-0.807
X72.56 Y-48.238 Z-0.802
X72.594 Y-48.192 Z-0.801
X72.645 Y-48.132
X72.68 Y-48.092 Z-0.806
X72.717 Y-48.054 Z-0.81
X72.755 Y-48.016 Z-0.817
X72.814 Y-47.961 Z-0.831
X72.881 Y-47.881 Z-0.836
X73.101 Y-47.635 Z-0.847
X73.158 Y-47.576 Z-0.854
X73.365 Y-47.38 Z-0.87
X73.406 Y-47.342 Z-0.877
X73.625 Y-47.17 Z-0.903
X73.746 Y-47.089 Z-0.918
X73.812 Y-47.048 Z-0.929
X73.941 Y-46.977 Z-0.945
X73.957 Y-46.969 Z-0.948
X74.05 Y-46.928 Z-0.958
X74.124 Y-46.906 Z-0.962
X74.173 Y-46.897 Z-0.961
X74.241 Y-46.888 Z-0.957
X74.325 Y-46.882 Z-0.956
X74.428 Y-46.883 Z-0.95
X74.493 Y-46.885
X74.63 Y-46.904 Z-0.949
X74.68 Y-46.913 Z-0.95
X74.716 Y-46.922 Z-0.949
X74.788 Y-46.942 Z-0.951
X74.867 Y-46.968 Z-0.955
X74.968 Y-47.011 Z-0.96
X75.027 Y-47.039 Z-0.965
X75.077 Y-47.067 Z-0.969
X75.16 Y-47.125 Z-0.974
X75.176 Y-47.138
X75.215 Y-47.18 Z-0.968
X75.25 Y-47.223 Z-0.963
X75.302 Y-47.296 Z-0.954
X75.356 Y-47.377 Z-0.947
X75.404 Y-47.463 Z-0.941
X75.449 Y-47.55 Z-0.939
X75.485 Y-47.629 Z-0.938
X75.561 Y-47.812 Z-0.939
X75.658 Y-48.076
X75.692 Y-48.179 Z-0.937
X75.75 Y-48.36
X75.841 Y-48.666 Z-0.93
X75.934 Y-49.007 Z-0.925
X75.993 Y-49.23
X76.039 Y-49.398 Z-0.926
X76.124 Y-49.7 Z-0.93
X76.201 Y-49.962 Z-0.936
X76.279 Y-50.203 Z-0.943
X76.367 Y-50.45 Z-0.954
X76.394 Y-50.517 Z-0.958
X76.466 Y-50.685 Z-0.965
X76.509 Y-50.77 Z-0.968
X76.519 Y-50.786
X76.562 Y-50.851 Z-0.962
X76.633 Y-50.935 Z-0.948
X76.751 Y-51.061 Z-0.923
X76.874 Y-51.172 Z-0.901
X76.936 Y-51.226 Z-0.892
X77.067 Y-51.319 Z-0.874
X77.094 Y-51.337 Z-0.87
X77.137 Y-51.361 Z-0.863
X77.232 Y-51.413 Z-0.852
X77.349 Y-51.462 Z-0.833
X77.45 Y-51.49 Z-0.815
X77.545 Y-51.507 Z-0.791
X77.64 Y-51.511 Z-0.764
X77.646 Z-0.762
X77.77 Y-51.503 Z-0.721
X77.856 Y-51.487 Z-0.688
X77.92 Y-51.474 Z-0.666
X77.98 Y-51.455 Z-0.638
X78.048 Y-51.427 Z-0.604
X78.125 Y-51.388 Z-0.562
X78.22 Y-51.335 Z-0.502
X78.326 Y-51.266 Z-0.425
X78.399 Y-51.223 Z-0.364
X78.427 Y-51.204 Z-0.337
X78.476 Y-51.174 Z-0.289
X78.526 Y-51.142 Z-0.234
X78.567 Y-51.121 Z-0.19
X78.746 Y-51.054 Z-0.001
Z5
X19.903 Y-33.947
Z-0.001 F333.3
X20.199 Y-33.773 Z-0.297 F2000
X20.263 Y-33.738 Z-0.359
X20.227 Y-33.715 Z-0.321
X20.18 Y-33.687 Z-0.269
X20.155 Y-33.668 Z-0.239
X20.18 Y-33.687 Z-0.269
X20.227 Y-33.715 Z-0.321
X20.263 Y-33.738 Z-0.359
X20.43 Y-33.736 Z-0.441
X20.541 Y-33.739 Z-0.492
X20.836 Y-33.753 Z-0.618
X20.955 Y-33.762 Z-0.667
X21.049 Y-33.769 Z-0.701
X21.149 Y-33.781 Z-0.734
X21.288 Y-33.805 Z-0.774
X21.467 Y-33.838 Z-0.818
X21.674 Y-33.88 Z-0.864
X21.903 Y-33.927 Z-0.907
X22.133 Y-33.977 Z-0.945
X22.528 Y-34.066 Z-0.995
X22.939 Y-34.154 Z-1.037
X23.279 Y-34.216 Z-1.071
X23.599 Y-34.265 Z-1.105
X23.832 Y-34.296 Z-1.133
X23.92 Y-34.306 Z-1.143
X24.245 Y-34.337 Z-1.185
X24.574 Y-34.359 Z-1.23
X24.842 Y-34.371 Z-1.271
X25.255 Y-34.379 Z-1.336
X25.487 Y-34.38 Z-1.374
X25.987 Y-34.384 Z-1.45
X26.396 Y-34.389 Z-1.503
X26.616 Y-34.395 Z-1.528
X26.941 Y-34.405 Z-1.562
X27.278 Y-34.416 Z-1.592
X27.626 Y-34.43 Z-1.62
X28.266 Y-34.457 Z-1.663
X28.742 Y-34.479 Z-1.691
X29.086 Y-34.497 Z-1.712
X29.617 Y-34.533 Z-1.745
X30.364 Y-34.593 Z-1.789
X30.956 Y-34.649 Z-1.82
X31.559 Y-34.713 Z-1.848
X31.994 Y-34.764 Z-1.864
X32.577 Y-34.837 Z-1.883
X33.18 Y-34.916 Z-1.898
X33.899 Y-35.016 Z-1.91
X34.671 Y-35.129 Z-1.917
X35.506 Y-35.255 Z-1.92
X36.413 Y-35.398 Z-1.918
X37.398 Y-35.556 Z-1.912
X38.47 Y-35.732 Z-1.902
X39.638 Y-35.927 Z-1.888
X41.587 Y-36.257 Z-1.858
X43.331 Y-36.552 Z-1.83
X44.791 Y-36.795 Z-1.81
X45.748 Y-36.953 Z-1.8
X46.502 Y-37.078 Z-1.797
X46.825 Y-37.133 Z-1.798
X47.32 Y-37.221 Z-1.805
X47.561 Y-37.264 Z-1.81
X48.029 Y-37.352 Z-1.826
X48.672 Y-37.477 Z-1.856
X49.496 Y-37.634 Z-1.902
X50.282 Y-37.778 Z-1.949
X50.655 Y-37.842 Z-1.972
X50.89 Y-37.879 Z-1.99
X51.075 Y-37.902 Z-2.009
X51.143 Y-37.909 Z-2.017
X51.354 Y-37.924 Z-2.048
X51.46 Y-37.928 Z-2.066
X51.568 Z-2.087
X51.73 Y-37.92 Z-2.118
X51.82 Y-37.915 Z-2.139
X52.021 Y-37.899 Z-2.195
X52.133 Y-37.885 Z-2.229
X52.278 Y-37.862 Z-2.276
X52.352 Y-37.847 Z-2.301
X52.494 Y-37.817 Z-2.352
X52.667 Y-37.772 Z-2.415
X52.831 Y-37.721 Z-2.479
X52.956 Y-37.674 Z-2.529
X53.082 Y-37.625 Z-2.582
X53.249 Y-37.553 Z-2.659
X53.251 Y-37.552 Z-2.66
X53.449 Y-37.788 Z-2.42
X53.561 Y-37.924 Z-2.279
X53.675 Y-38.062 Z-2.13
X53.724 Y-38.114 Z-2.068
X53.774 Y-38.161 Z-2.005
X53.884 Y-38.269 Z-1.865
X54.053 Y-38.447 Z-1.635
X54.112 Y-38.51 Z-1.553
X54.053 Y-38.447 Z-1.635
X53.884 Y-38.269 Z-1.865
X53.774 Y-38.161 Z-2.005
X53.724 Y-38.114 Z-2.068
X53.675 Y-38.062 Z-2.13
X53.561 Y-37.924 Z-2.279
X53.449 Y-37.788 Z-2.42
X53.251 Y-37.552 Z-2.66
X53.319 Y-37.401 Z-2.618
X53.348 Y-37.333 Z-2.6
X53.381 Y-37.245 Z-2.577
X53.415 Y-37.157 Z-2.557
X53.449 Y-37.059 Z-2.535
X53.48 Y-36.96 Z-2.515
X53.514 Y-36.84 Z-2.492
X53.548 Y-36.709 Z-2.471
X53.577 Y-36.584 Z-2.456
X53.594 Y-36.507 Z-2.448
X53.656 Y-36.273 Z-2.416
X53.713 Y-36.038 Z-2.391
X53.772 Y-35.774 Z-2.368
X53.792 Y-35.681 Z-2.361
X53.844 Y-35.431 Z-2.345
X53.925 Y-35.006 Z-2.325
X53.99 Y-34.637 Z-2.315
X54.064 Y-34.192 Z-2.308
X54.143 Y-33.671
X54.247 Y-32.947 Z-2.314
X54.292 Y-32.665 Z-2.312
X54.373 Y-32.186 Z-2.304
X54.492 Y-31.502 Z-2.288
X54.743 Y-30.093 Z-2.25
X55.482 Y-25.982 Z-2.135
X55.613 Y-25.272 Z-2.118
X55.733 Y-24.655 Z-2.104
X55.812 Y-24.272 Z-2.096
X55.926 Y-23.748 Z-2.085
X56.031 Y-23.302 Z-2.074
X56.162 Y-22.77 Z-2.058
X56.25 Y-22.425 Z-2.046
X56.412 Y-21.817 Z-2.028
X56.615 Y-21.069 Z-2.008
X56.881 Y-20.112 Z-1.984
X56.925 Y-19.96 Z-1.98
X56.961 Y-19.843 Z-1.975
X56.994 Y-19.726 Z-1.973
X57.027 Y-19.589 Z-1.975
X57.085 Y-19.376 Z-1.972
X57.29 Y-18.652 Z-1.961
X57.526 Y-17.835 Z-1.949
X57.709 Y-17.208 Z-1.945
X57.857 Y-16.701
X57.941 Y-16.408 Z-1.947
X57.989 Y-16.218 Z-1.95
X58.01 Y-16.133 Z-1.956
X58.035 Y-16.017 Z-1.965
X58.057 Y-15.893 Z-1.978
X58.075 Y-15.768 Z-1.996
X58.089 Y-15.642 Z-2.017
X58.097 Y-15.549 Z-2.034
X58.103 Y-15.46 Z-2.055
X58.106 Y-15.37 Z-2.075
X58.11 Y-15.28 Z-2.099
X58.109 Y-15.19 Z-2.123
Y-15.105 Z-2.15
X58.105 Y-15.019 Z-2.176
X58.101 Y-14.933 Z-2.205
X58.088 Y-14.765 Z-2.266
X58.069 Y-14.601 Z-2.331
X58.045 Y-14.437 Z-2.401
X58.018 Y-14.281 Z-2.472
X57.986 Y-14.122 Z-2.549
X57.951 Y-13.972 Z-2.626
X57.911 Y-13.816 Z-2.711
X57.87 Y-13.672 Z-2.793
X57.823 Y-13.518 Z-2.884
X57.771 Y-13.362 Z-2.98
X58.027 Y-12.926 Z-2.872
X58.274 Y-12.513 Z-2.772
X58.853 Y-11.568 Z-2.551
X59.079 Y-11.205 Z-2.464
X59.114 Y-11.154 Z-2.449
X59.197 Y-11.065 Z-2.401
X59.304 Y-10.944 Z-2.34
X59.364 Y-10.866 Z-2.301
X59.42 Y-10.794 Z-2.269
X59.473 Y-10.725 Z-2.241
X59.525 Y-10.658 Z-2.217
X59.583 Y-10.581 Z-2.192
X59.633 Y-10.501 Z-2.164
X59.43 Y-10.187 Z-1.795
X59.241 Y-9.905 Z-1.461
X59.066 Y-9.666 Z-1.17
X58.905 Y-9.457 Z-0.912
X58.759 Y-9.278 Z-0.687
X58.667 Y-9.178 Z-0.556
X58.583 Y-9.091 Z-0.439
X58.506 Y-9.017 Z-0.337
X58.435 Y-8.957 Z-0.25
X58.378 Y-8.917 Z-0.185
X58.327 Y-8.886 Z-0.131
X58.282 Y-8.865 Z-0.088
X58.224 Y-8.852 Z-0.036
X58.189 Y-8.838 Z-0.001
X58.224 Y-8.852 Z-0.036
X58.282 Y-8.865 Z-0.088
X58.327 Y-8.886 Z-0.131
X58.378 Y-8.917 Z-0.185
X58.435 Y-8.957 Z-0.25
X58.506 Y-9.017 Z-0.337
X58.583 Y-9.091 Z-0.439
X58.667 Y-9.178 Z-0.556
X58.759 Y-9.278 Z-0.687
X58.905 Y-9.457 Z-0.912
X59.066 Y-9.666 Z-1.17
X59.241 Y-9.905 Z-1.461
X59.43 Y-10.187 Z-1.795
X59.633 Y-10.501 Z-2.164
X59.678 Y-10.451 Z-2.134
X59.712 Y-10.412 Z-2.109
X59.819 Y-10.297 Z-2.031
X59.899 Y-10.213 Z-1.968
X59.995 Y-10.12 Z-1.889
X60.079 Y-10.047 Z-1.817
X60.151 Y-9.989 Z-1.75
X60.249 Y-9.919 Z-1.656
X60.326 Y-9.869 Z-1.582
X60.429 Y-9.801 Z-1.475
X60.563 Y-9.712 Z-1.33
X60.622 Y-9.673 Z-1.263
X60.648 Y-9.656 Z-1.232
X60.622 Y-9.673 Z-1.263
X60.563 Y-9.712 Z-1.33
X60.429 Y-9.801 Z-1.475
X60.326 Y-9.869 Z-1.582
X60.249 Y-9.919 Z-1.656
X60.151 Y-9.989 Z-1.75
X60.079 Y-10.047 Z-1.817
X59.995 Y-10.12 Z-1.889
X59.899 Y-10.213 Z-1.968
X59.819 Y-10.297 Z-2.031
X59.712 Y-10.412 Z-2.109
X59.678 Y-10.451 Z-2.134
X59.633 Y-10.501 Z-2.164
X59.583 Y-10.581 Z-2.192
X59.525 Y-10.658 Z-2.217
X59.473 Y-10.725 Z-2.241
X59.42 Y-10.794 Z-2.269
X59.364 Y-10.866 Z-2.301
X59.304 Y-10.944 Z-2.34
X59.197 Y-11.065 Z-2.401
X59.114 Y-11.154 Z-2.449
X59.079 Y-11.205 Z-2.464
X58.853 Y-11.568 Z-2.551
X58.274 Y-12.513 Z-2.772
X58.027 Y-12.926 Z-2.872
X57.771 Y-13.362 Z-2.98
X57.593 Y-13.384 Z-2.864
X57.461 Y-13.403 Z-2.78
X57.228 Y-13.444 Z-2.635
X57.028 Y-13.485 Z-2.516
X56.874 Y-13.522 Z-2.427
X56.732 Y-13.56 Z-2.348
X56.66 Y-13.58 Z-2.309
X56.481 Y-13.635 Z-2.215
X56.343 Y-13.682 Z-2.147
X56.287 Y-13.702 Z-2.12
X56.11 Y-13.773 Z-2.038
X55.993 Y-13.825 Z-1.987
X55.861 Y-13.889 Z-1.932
X55.733 Y-13.957 Z-1.883
X55.603 Y-14.032 Z-1.837
X55.54 Y-14.072 Z-1.816
X55.477 Y-14.112 Z-1.797
X55.344 Y-14.201 Z-1.76
X55.249 Y-14.269 Z-1.737
X55.179 Y-14.321 Z-1.723
X55.025 Y-14.439 Z-1.697
X54.894 Y-14.544 Z-1.678
X54.627 Y-14.756 Z-1.652
X54.427 Y-14.92 Z-1.636
X54.2 Y-15.1 Z-1.625
X53.916 Y-15.325 Z-1.618
X53.712 Y-15.493 Z-1.613
X53.558 Y-15.625 Z-1.605
X53.467 Y-15.7
X53.363 Y-15.779 Z-1.61
X53.31 Y-15.818 Z-1.615
X53.212 Y-15.897 Z-1.617
X53.128 Y-15.965 Z-1.618
X53.299 Y-16.24 Z-1.297
X53.446 Y-16.495 Z-1.005
X53.57 Y-16.721 Z-0.75
X53.671 Y-16.916 Z-0.534
X53.733 Y-17.053 Z-0.386
X53.78 Y-17.17 Z-0.263
X53.814 Y-17.266 Z-0.165
X53.826 Y-17.318 Z-0.114
X53.833 Y-17.361 Z-0.073
X53.835 Y-17.396 Z-0.042
X53.827 Y-17.439 Z-0.001
X53.835 Y-17.396 Z-0.042
X53.833 Y-17.361 Z-0.073
X53.826 Y-17.318 Z-0.114
X53.814 Y-17.266 Z-0.165
X53.78 Y-17.17 Z-0.263
X53.733 Y-17.053 Z-0.386
X53.671 Y-16.916 Z-0.534
X53.57 Y-16.721 Z-0.75
X53.446 Y-16.495 Z-1.005
X53.299 Y-16.24 Z-1.297
X53.128 Y-15.965 Z-1.618
X53.032 Y-16.027 Z-1.606
X52.966 Y-16.073 Z-1.6
X52.881 Y-16.137 Z-1.594
X52.798 Y-16.203 Z-1.593
X52.743 Y-16.251
X52.688 Y-16.298 Z-1.596
X52.602 Y-16.38 Z-1.603
X52.518 Y-16.465 Z-1.615
X52.438 Y-16.554 Z-1.631
X52.403 Y-16.594 Z-1.639
X52.59 Y-16.741 Z-1.403
X52.799 Y-16.896 Z-1.146
X52.989 Y-17.032 Z-0.914
X53.17 Y-17.154 Z-0.699
X53.329 Y-17.256 Z-0.514
X53.459 Y-17.33 Z-0.368
X53.569 Y-17.387 Z-0.247
X53.647 Y-17.42 Z-0.165
X53.712 Y-17.443 Z-0.101
X53.776 Y-17.454 Z-0.041
X53.817 Z-0.001
X53.776 Z-0.041
X53.712 Y-17.443 Z-0.101
X53.647 Y-17.42 Z-0.165
X53.569 Y-17.387 Z-0.247
X53.459 Y-17.33 Z-0.368
X53.329 Y-17.256 Z-0.514
X53.17 Y-17.154 Z-0.699
X52.989 Y-17.032 Z-0.914
X52.799 Y-16.896 Z-1.146
X52.59 Y-16.741 Z-1.403
X52.403 Y-16.594 Z-1.639
X52.203 Y-16.776 Z-1.646
X52.167 Y-16.815 Z-1.642
X52.115 Y-16.869 Z-1.638
X52.05 Y-16.935
X51.991 Y-16.992 Z-1.639
X51.919 Y-17.058 Z-1.644
X51.852 Y-17.116 Z-1.651
X51.77 Y-17.184 Z-1.663
X51.704 Y-17.235 Z-1.675
X51.636 Y-17.285 Z-1.689
X51.514 Y-17.399 Z-1.698
X51.21 Y-17.69 Z-1.72
X50.97 Y-17.929 Z-1.738
X50.565 Y-18.336 Z-1.766
X50.264 Y-18.647 Z-1.788
X49.99 Y-18.937 Z-1.81
X49.833 Y-19.105 Z-1.821
X50.117 Y-19.418 Z-1.402
X50.326 Y-19.662 Z-1.083
X50.504 Y-19.878 Z-0.806
X50.651 Y-20.066 Z-0.571
X50.742 Y-20.195 Z-0.415
X50.815 Y-20.306 Z-0.285
X50.87 Y-20.399 Z-0.181
X50.898 Y-20.459 Z-0.117
X50.922 Y-20.528 Z-0.05
X50.93 Y-20.579 Z-0.001
X50.922 Y-20.528 Z-0.05
X50.898 Y-20.459 Z-0.117
X50.87 Y-20.399 Z-0.181
X50.815 Y-20.306 Z-0.285
X50.742 Y-20.195 Z-0.415
X50.651 Y-20.066 Z-0.571
X50.504 Y-19.878 Z-0.806
X50.326 Y-19.662 Z-1.083
X50.117 Y-19.418 Z-1.402
X49.833 Y-19.105 Z-1.821
X49.71 Y-19.211 Z-1.812
X49.656 Y-19.262 Z-1.809
X49.585 Y-19.331
X49.466 Y-19.457 Z-1.812
X49.384 Y-19.552 Z-1.82
X49.324 Y-19.646 Z-1.816
X49.284 Y-19.711 Z-1.818
X49.216 Y-19.819 Z-1.827
X49.148 Y-19.928 Z-1.846
X49.38 Y-20.06 Z-1.582
X49.595 Y-20.179 Z-1.339
X49.81 Y-20.293 Z-1.099
X50.006 Y-20.392 Z-0.883
X50.172 Y-20.471 Z-0.703
X50.394 Y-20.568 Z-0.468
X50.539 Y-20.625 Z-0.318
X50.618 Y-20.651 Z-0.24
X50.686 Y-20.669 Z-0.174
X50.745 Y-20.68 Z-0.12
X50.793 Y-20.684 Z-0.079
X50.824 Y-20.681 Z-0.055
X50.858 Y-20.67 Z-0.033
X50.879 Y-20.655 Z-0.025
X50.911 Y-20.626 Z-0.012
X50.914 Y-20.621 Z-0.009
X50.912 Y-20.613 Z-0.001
X50.914 Y-20.621 Z-0.009
X50.925 Y-20.613 Z-0.001
X50.914 Y-20.621 Z-0.009
X50.911 Y-20.626 Z-0.012
X50.879 Y-20.655 Z-0.025
X50.858 Y-20.67 Z-0.033
X50.824 Y-20.681 Z-0.055
X50.793 Y-20.684 Z-0.079
X50.745 Y-20.68 Z-0.12
X50.686 Y-20.669 Z-0.174
X50.618 Y-20.651 Z-0.24
X50.539 Y-20.625 Z-0.318
X50.394 Y-20.568 Z-0.468
X50.172 Y-20.471 Z-0.703
X50.006 Y-20.392 Z-0.883
X49.81 Y-20.293 Z-1.099
X49.595 Y-20.179 Z-1.339
X49.38 Y-20.06 Z-1.582
X49.148 Y-19.928 Z-1.846
X49.128 Y-19.952 Z-1.847
X49.041 Y-20.05 Z-1.856
X48.95 Y-20.146 Z-1.87
X48.856 Y-20.239 Z-1.888
X48.716 Y-20.088 Z-1.685
X48.504 Y-19.848 Z-1.369
X48.318 Y-19.63 Z-1.086
X48.158 Y-19.434 Z-0.838
X48.006 Y-19.232 Z-0.59
X47.931 Y-19.12 Z-0.46
X47.875 Y-19.023 Z-0.35
X47.83 Y-18.937 Z-0.256
X47.795 Y-18.862 Z-0.178
X47.77 Y-18.771 Z-0.088
X47.768 Y-18.762 Z-0.078
X47.74 Y-18.688 Z-0.001
X47.768 Y-18.762 Z-0.078
X47.77 Y-18.771 Z-0.088
X47.795 Y-18.862 Z-0.178
X47.83 Y-18.937 Z-0.256
X47.875 Y-19.023 Z-0.35
X47.931 Y-19.12 Z-0.46
X48.006 Y-19.232 Z-0.59
X48.158 Y-19.434 Z-0.838
X48.318 Y-19.63 Z-1.086
X48.504 Y-19.848 Z-1.369
X48.716 Y-20.088 Z-1.685
X48.856 Y-20.239 Z-1.888
X48.768 Y-20.351 Z-1.89
X48.533 Y-20.664 Z-1.894
X48.322 Y-20.952 Z-1.892
X48.275 Y-21.021 Z-1.891
X48.19 Y-21.145 Z-1.89
X48.116 Y-21.248 Z-1.891
X48.063 Y-21.318 Z-1.894
X47.949 Y-21.46 Z-1.906
X47.866 Y-21.556 Z-1.919
X47.779 Y-21.65 Z-1.936
X47.671 Y-21.76 Z-1.962
X47.571 Y-21.855 Z-1.99
X47.478 Y-21.939 Z-2.02
X47.365 Y-22.035 Z-2.06
X47.248 Y-22.128 Z-2.107
X47.127 Y-22.218 Z-2.158
X47.002 Y-22.306 Z-2.215
X46.858 Y-22.398 Z-2.284
X46.734 Y-22.474 Z-2.347
X46.605 Y-22.547 Z-2.414
X46.412 Y-22.648 Z-2.519
X46.317 Y-22.695 Z-2.573
X46.223 Y-22.742 Z-2.63
X46.025 Y-22.83 Z-2.75
X45.821 Y-22.915 Z-2.879
X45.609 Y-22.995 Z-3.016
X45.542 Y-23.102
X45.531 Y-23.119
X45.328 Y-23.449
X45.142 Y-23.743
X44.969 Y-24.013
X44.808 Y-24.258
X44.659 Y-24.479
X44.521 Y-24.676
X44.509 Y-24.692
X44.418 Y-24.967 Z-2.927
X44.382 Y-25.08 Z-2.888
X44.305 Y-25.31 Z-2.803
X44.232 Y-25.533 Z-2.713
X44.193 Y-25.647 Z-2.663
X44.14 Y-25.798 Z-2.59
X44.113 Y-25.867 Z-2.554
X44.081 Y-25.956 Z-2.505
X44.006 Y-26.083 Z-2.408
X43.952 Y-26.191 Z-2.326
X43.93 Y-26.284 Z-2.249
X43.928 Y-26.288 Z-2.245
X43.868 Y-26.422 Z-2.114
X43.841 Y-26.469 Z-2.064
X43.801 Y-26.527 Z-1.997
X43.694 Y-26.668 Z-1.828
X43.543 Y-26.846 Z-1.602
X43.391 Y-27.002 Z-1.39
X43.247 Y-27.144 Z-1.194
X43.062 Y-27.301 Z-0.957
X42.893 Y-27.436 Z-0.747
X42.741 Y-27.55 Z-0.565
X42.634 Y-27.617 Z-0.444
X42.538 Y-27.672 Z-0.339
X42.452 Y-27.712 Z-0.248
X42.373 Y-27.742 Z-0.17
X42.29 Y-27.763 Z-0.09
X42.206 Y-27.798 Z-0.001
X42.29 Y-27.763 Z-0.09
X42.373 Y-27.742 Z-0.17
X42.452 Y-27.712 Z-0.248
X42.538 Y-27.672 Z-0.339
X42.634 Y-27.617 Z-0.444
X42.741 Y-27.55 Z-0.565
X42.893 Y-27.436 Z-0.747
X43.062 Y-27.301 Z-0.957
X43.247 Y-27.144 Z-1.194
X43.391 Y-27.002 Z-1.39
X43.543 Y-26.846 Z-1.602
X43.694 Y-26.668 Z-1.828
X43.801 Y-26.527 Z-1.997
X43.841 Y-26.469 Z-2.064
X43.868 Y-26.422 Z-2.114
X43.928 Y-26.288 Z-2.245
X43.93 Y-26.284 Z-2.249
X43.952 Y-26.191 Z-2.326
X43.712 Y-26.323 Z-2.059
X43.419 Y-26.508 Z-1.721
X43.157 Y-26.681 Z-1.414
X42.968 Y-26.827 Z-1.179
X42.799 Y-26.963 Z-0.967
X42.649 Y-27.089 Z-0.777
X42.519 Y-27.205 Z-0.609
X42.403 Y-27.325 Z-0.448
X42.335 Y-27.406 Z-0.346
X42.279 Y-27.479 Z-0.258
X42.24 Y-27.543 Z-0.186
X42.206 Y-27.608 Z-0.117
X42.19 Y-27.652 Z-0.073
X42.158 Y-27.719 Z-0.001
X42.19 Y-27.652 Z-0.073
X42.206 Y-27.608 Z-0.117
X42.24 Y-27.543 Z-0.186
X42.279 Y-27.479 Z-0.258
X42.335 Y-27.406 Z-0.346
X42.403 Y-27.325 Z-0.448
X42.519 Y-27.205 Z-0.609
X42.649 Y-27.089 Z-0.777
X42.799 Y-26.963 Z-0.967
X42.968 Y-26.827 Z-1.179
X43.157 Y-26.681 Z-1.414
X43.419 Y-26.508 Z-1.721
X43.712 Y-26.323 Z-2.059
X43.952 Y-26.191 Z-2.326
X44.006 Y-26.083 Z-2.408
X44.081 Y-25.956 Z-2.505
X44.113 Y-25.867 Z-2.554
X44.14 Y-25.798 Z-2.59
X44.193 Y-25.647 Z-2.663
X44.232 Y-25.533 Z-2.713
X44.305 Y-25.31 Z-2.803
X44.382 Y-25.08 Z-2.888
X44.418 Y-24.967 Z-2.927
X44.509 Y-24.692 Z-3.016
X44.51 Y-24.579
X44.53 Y-24.142
X44.566 Y-23.656
X44.622 Y-23.122
X44.697 Y-22.541
X44.702 Y-22.507
G3 X45.609 Y-22.995 I1.861 J2.374
G2 X44.702 Y-22.507 I0.954 J2.861
G1 X44.645 Y-22.357 Z-2.937
X44.586 Y-22.193 Z-2.854
X44.508 Y-21.946 Z-2.739
X44.484 Y-21.865 Z-2.704
X44.438 Y-21.681 Z-2.627
X44.398 Y-21.499 Z-2.557
X44.381 Y-21.409 Z-2.523
X44.365 Y-21.318 Z-2.493
X44.351 Y-21.228 Z-2.463
X44.338 Y-21.138 Z-2.436
X44.329 Y-21.052 Z-2.41
X44.32 Y-20.966 Z-2.386
X44.315 Y-20.88 Z-2.363
X44.308 Y-20.772 Z-2.337
X44.303 Y-20.639 Z-2.307
X44.302 Y-20.507 Z-2.281
X44.304 Y-20.376 Z-2.259
X44.311 Y-20.261 Z-2.241
X44.319 Y-20.148 Z-2.226
X44.335 Y-19.989 Z-2.209
X44.358 Y-19.812 Z-2.195
X44.394 Y-19.585 Z-2.183
X44.429 Y-19.387 Z-2.174
X44.482 Y-19.105 Z-2.163
X44.55 Y-18.757 Z-2.152
X44.665 Y-18.212 Z-2.135
X44.746 Y-17.845 Z-2.127
X44.923 Y-17.081 Z-2.108
X45.024 Y-16.663 Z-2.099
X45.152 Y-16.143 Z-2.087
X45.387 Y-15.224 Z-2.065
X45.687 Y-14.08 Z-2.039
X46.004 Y-12.898 Z-2.014
X46.407 Y-11.405 Z-1.986
X46.751 Y-10.126 Z-1.966
X46.804 Y-9.919
X46.825 Y-9.819 Z-1.968
X46.843 Y-9.737 Z-1.973
X46.857 Y-9.654 Z-1.977
X46.871 Y-9.57 Z-1.986
X46.882 Y-9.486 Z-1.995
X46.892 Y-9.403 Z-2.007
X46.899 Y-9.318 Z-2.019
X46.906 Y-9.233 Z-2.035
X46.913 Y-9.085 Z-2.064
X46.914 Y-8.936 Z-2.1
X46.911 Y-8.786 Z-2.14
X46.902 Y-8.634 Z-2.186
X46.888 Y-8.481 Z-2.237
X46.875 Y-8.386 Z-2.27
X46.863 Y-8.291 Z-2.307
X46.847 Y-8.195 Z-2.345
X46.831 Y-8.099 Z-2.386
X46.811 Y-8.002 Z-2.427
X46.791 Y-7.905 Z-2.472
X46.767 Y-7.807 Z-2.518
X46.743 Y-7.709 Z-2.567
X46.689 Y-7.517 Z-2.666
X46.628 Y-7.323 Z-2.773
X46.559 Y-7.128 Z-2.887
X47.325 Y-5.86 Z-2.454
X47.544 Y-5.514 Z-2.326
X47.801 Y-5.13 Z-2.17
X47.961 Y-4.901 Z-2.07
X47.99 Y-4.864 Z-2.05
X48.155 Y-4.664 Z-1.938
X48.386 Y-4.4 Z-1.776
X48.399 Y-4.387 Z-1.767
X48.454 Y-4.333 Z-1.726
X48.578 Y-4.223 Z-1.631
X48.658 Y-4.155 Z-1.569
X48.851 Y-4.002 Z-1.416
X48.965 Y-3.915 Z-1.325
X49.139 Y-3.789 Z-1.183
X49.344 Y-3.65 Z-1.014
X49.557 Y-3.514 Z-0.834
X49.895 Y-3.305 Z-0.541
X49.918 Y-3.291 Z-0.521
X50.058 Y-3.206 Z-0.394
X50.196 Y-3.129 Z-0.264
X50.254 Y-3.097 Z-0.203
X50.196 Y-3.129 Z-0.264
X50.058 Y-3.206 Z-0.394
X49.918 Y-3.291 Z-0.521
X49.895 Y-3.305 Z-0.541
X49.557 Y-3.514 Z-0.834
X49.344 Y-3.65 Z-1.014
X49.139 Y-3.789 Z-1.183
X48.965 Y-3.915 Z-1.325
X48.851 Y-4.002 Z-1.416
X48.658 Y-4.155 Z-1.569
X48.578 Y-4.223 Z-1.631
X48.454 Y-4.333 Z-1.726
X48.399 Y-4.387 Z-1.767
X48.386 Y-4.4 Z-1.776
X48.155 Y-4.664 Z-1.938
X47.99 Y-4.864 Z-2.05
X47.961 Y-4.901 Z-2.07
X47.801 Y-5.13 Z-2.17
X47.544 Y-5.514 Z-2.326
X47.325 Y-5.86 Z-2.454
X46.559 Y-7.128 Z-2.887
X46.45 Y-7.136 Z-2.819
X46.345 Y-7.144 Z-2.756
X46.142 Y-7.164 Z-2.635
X45.983 Y-7.185 Z-2.544
X45.824 Y-7.211 Z-2.456
X45.641 Y-7.248 Z-2.358
X45.463 Y-7.289 Z-2.267
X45.368 Y-7.316 Z-2.218
X45.272 Y-7.343 Z-2.174
X45.18 Y-7.372 Z-2.13
X45.088 Y-7.402 Z-2.089
X44.96 Y-7.449 Z-2.034
X44.835 Y-7.499 Z-1.983
X44.653 Y-7.582 Z-1.914
X44.534 Y-7.642 Z-1.873
X44.419 Y-7.705 Z-1.837
X44.306 Y-7.772 Z-1.805
X44.241 Y-7.813 Z-1.789
X44.124 Y-7.892 Z-1.763
X44.011 Y-7.974 Z-1.742
X43.954 Y-8.019 Z-1.732
X43.898 Y-8.065 Z-1.725
X43.844 Y-8.112 Z-1.718
X43.758 Y-8.188 Z-1.712
X43.618 Y-8.321 Z-1.706
X43.426 Y-8.511 Z-1.703
X43.109 Y-8.833 Z-1.699
X42.709 Y-9.249 Z-1.694
X42.454 Y-9.521 Z-1.689
X42.379 Y-9.603 Z-1.687
X42.345 Y-9.649 Z-1.68
X42.294 Y-9.716 Z-1.672
X42.236 Y-9.787 Z-1.665
X42.439 Y-10.044 Z-1.341
X42.608 Y-10.267 Z-1.065
X42.754 Y-10.468 Z-0.822
X42.838 Y-10.594 Z-0.673
X42.911 Y-10.709 Z-0.54
X42.974 Y-10.814 Z-0.422
X43.021 Y-10.908 Z-0.32
X43.058 Y-10.992 Z-0.233
X43.086 Y-11.063 Z-0.16
X43.097 Y-11.111 Z-0.114
X43.105 Y-11.168 Z-0.062
X43.1 Y-11.23 Z-0.001
X43.105 Y-11.168 Z-0.062
X43.097 Y-11.111 Z-0.114
X43.086 Y-11.063 Z-0.16
X43.058 Y-10.992 Z-0.233
X43.021 Y-10.908 Z-0.32
X42.974 Y-10.814 Z-0.422
X42.911 Y-10.709 Z-0.54
X42.838 Y-10.594 Z-0.673
X42.754 Y-10.468 Z-0.822
X42.608 Y-10.267 Z-1.065
X42.439 Y-10.044 Z-1.341
X42.236 Y-9.787 Z-1.665
X42.167 Y-9.849 Z-1.649
X42.104 Y-9.905 Z-1.639
X42.045 Y-9.958 Z-1.633
X41.988 Y-10.01 Z-1.631
X41.911 Y-10.079 Z-1.634
X41.824 Y-10.157 Z-1.646
X41.612 Y-9.899 Z-1.313
X41.426 Y-9.667 Z-1.019
X41.268 Y-9.462 Z-0.762
X41.144 Y-9.292 Z-0.553
X41.044 Y-9.145 Z-0.378
X40.967 Y-9.023 Z-0.237
X40.928 Y-8.949 Z-0.155
X40.901 Y-8.888 Z-0.092
X40.885 Y-8.84 Z-0.045
X40.88 Y-8.811 Z-0.018
Y-8.793 Z-0.001
Y-8.811 Z-0.018
X40.885 Y-8.84 Z-0.045
X40.901 Y-8.888 Z-0.092
X40.928 Y-8.949 Z-0.155
X40.967 Y-9.023 Z-0.237
X41.044 Y-9.145 Z-0.378
X41.144 Y-9.292 Z-0.553
X41.268 Y-9.462 Z-0.762
X41.426 Y-9.667 Z-1.019
X41.612 Y-9.899 Z-1.313
X41.824 Y-10.157 Z-1.646
X41.771 Y-10.218 Z-1.649
X41.725 Y-10.271 Z-1.654
X41.647 Y-10.371 Z-1.666
X41.858 Y-10.585 Z-1.377
X41.891 Y-10.629 Z-1.322
X42.02 Y-10.816 Z-1.098
X42.135 Y-10.988 Z-0.894
X42.235 Y-11.144 Z-0.712
X42.327 Y-11.303 Z-0.531
X42.401 Y-11.442 Z-0.378
X42.456 Y-11.56 Z-0.252
X42.481 Y-11.625 Z-0.186
X42.498 Y-11.681 Z-0.13
X42.507 Y-11.723 Z-0.091
X42.511 Y-11.767 Z-0.052
X42.509 Y-11.792 Z-0.03
X42.514 Y-11.821 Z-0.001
X42.509 Y-11.792 Z-0.03
X42.5 Y-11.82 Z-0.001
X42.509 Y-11.792 Z-0.03
X42.511 Y-11.767 Z-0.052
X42.507 Y-11.723 Z-0.091
X42.498 Y-11.681 Z-0.13
X42.481 Y-11.625 Z-0.186
X42.456 Y-11.56 Z-0.252
X42.401 Y-11.442 Z-0.378
X42.327 Y-11.303 Z-0.531
X42.235 Y-11.144 Z-0.712
X42.135 Y-10.988 Z-0.894
X42.02 Y-10.816 Z-1.098
X41.891 Y-10.629 Z-1.322
X41.858 Y-10.585 Z-1.377
X41.647 Y-10.371 Z-1.666
X41.575 Y-10.43 Z-1.653
X41.484 Y-10.51 Z-1.641
X41.396 Y-10.593 Z-1.633
X41.277 Y-10.716 Z-1.629
X41.194 Y-10.811 Z-1.632
X41.115 Y-10.91 Z-1.639
X41.068 Y-10.974 Z-1.645
X41.021 Y-11.039 Z-1.655
X41.232 Y-11.183 Z-1.401
X41.481 Y-11.347 Z-1.105
X41.704 Y-11.487 Z-0.845
X41.899 Y-11.604 Z-0.62
X42.044 Y-11.683 Z-0.458
X42.169 Y-11.746 Z-0.321
X42.275 Y-11.793 Z-0.21
X42.353 Y-11.819 Z-0.131
X42.439 Y-11.837 Z-0.051
X42.469 Y-11.84 Z-0.023
X42.492 Y-11.838 Z-0.001
X42.469 Y-11.84 Z-0.023
X42.439 Y-11.837 Z-0.051
X42.353 Y-11.819 Z-0.131
X42.275 Y-11.793 Z-0.21
X42.169 Y-11.746 Z-0.321
X42.044 Y-11.683 Z-0.458
X41.899 Y-11.604 Z-0.62
X41.704 Y-11.487 Z-0.845
X41.481 Y-11.347 Z-1.105
X41.232 Y-11.183 Z-1.401
X41.021 Y-11.039 Z-1.655
X40.874 Y-11.205 Z-1.653
X40.847 Y-11.24 Z-1.648
X40.8 Y-11.299 Z-1.641
X40.752 Y-11.358 Z-1.638
X40.702 Y-11.415 Z-1.634
X40.61 Y-11.516 Z-1.635
X40.591 Y-11.535
X39.861 Y-10.83 Z-0.623
X39.651 Y-10.628 Z-0.333
X39.563 Y-10.543 Z-0.213
X39.479 Y-10.461 Z-0.106
X39.438 Y-10.417 Z-0.057
X39.388 Y-10.372 Z-0.001
X39.438 Y-10.417 Z-0.057
X39.479 Y-10.461 Z-0.106
X39.563 Y-10.543 Z-0.213
X39.651 Y-10.628 Z-0.333
X39.861 Y-10.83 Z-0.623
X40.591 Y-11.535 Z-1.635
X40.505 Y-11.623
X40.455 Y-11.673 Z-1.638
X40.402 Y-11.722 Z-1.641
X40.349 Y-11.77 Z-1.648
X40.291 Y-11.819 Z-1.655
X40.233 Y-11.88 Z-1.653
X40.116 Y-12.002 Z-1.649
X40.063 Y-12.047 Z-1.642
X39.969 Y-12.132 Z-1.632
X39.879 Y-12.221 Z-1.627
X39.793 Y-12.313 Z-1.626
X39.746 Y-12.364 Z-1.629
X39.701 Y-12.417 Z-1.632
X39.657 Y-12.47 Z-1.638
X39.599 Y-12.544 Z-1.648
X39.348 Y-12.811 Z-1.652
X39.226 Y-12.937
X39.096 Y-13.071 Z-1.651
X39.028 Y-13.128 Z-1.642
X38.961 Y-13.188 Z-1.635
X38.849 Y-13.297 Z-1.627
X38.759 Y-13.391 Z-1.628
X38.708 Y-13.45 Z-1.629
X38.657 Y-13.509 Z-1.634
X38.609 Y-13.57 Z-1.639
X38.56 Y-13.631 Z-1.648
X38.427 Y-13.778 Z-1.651
X38.054 Y-14.178 Z-1.653
X37.331 Y-14.954 Z-1.655
X36.677 Y-15.659 Z-1.661
X36.295 Y-16.073 Z-1.667
X36.045 Y-16.349 Z-1.673
X35.732 Y-16.704 Z-1.689
X35.298 Y-17.203 Z-1.716
X35.029 Y-17.513 Z-1.736
X34.898 Y-17.659 Z-1.749
X34.774 Y-17.793 Z-1.764
X34.692 Y-17.875 Z-1.777
X34.64 Y-17.927 Z-1.787
X34.574 Y-17.989 Z-1.801
X34.464 Y-18.087 Z-1.828
X34.399 Y-18.143 Z-1.847
X34.287 Y-18.232 Z-1.883
X34.177 Y-18.314 Z-1.922
X34.096 Y-18.371 Z-1.953
X33.974 Y-18.451 Z-2.003
X33.877 Y-18.511 Z-2.045
X33.79 Y-18.562 Z-2.084
X33.629 Y-18.649 Z-2.161
X33.546 Y-18.69 Z-2.201
X33.367 Y-18.772 Z-2.292
X33.252 Y-18.824 Z-2.357
X33.034 Y-18.921 Z-2.491
X32.854 Y-19 Z-2.612
X32.704 Y-19.053 Z-2.708
X32.442 Y-19.14 Z-2.882
X32.249 Y-19.199 Z-3.016
X32.218 Y-19.252
X32.165 Y-19.551 Z-2.91
X32.126 Y-19.8 Z-2.823
X32.084 Y-20.101 Z-2.715
X32.051 Y-20.411 Z-2.6
X32.034 Y-20.606 Z-2.527
X32.023 Y-20.808 Z-2.447
X32.018 Y-20.973 Z-2.379
X32.019 Y-21.078 Z-2.333
X32.05 Y-21.146 Z-2.276
X32.173 Y-21.382 Z-2.064
X32.259 Y-21.53 Z-1.924
X32.339 Y-21.664 Z-1.797
X32.56 Y-21.999 Z-1.46
X32.661 Y-22.14 Z-1.311
X32.768 Y-22.276 Z-1.161
X32.891 Y-22.423 Z-0.993
X33.113 Y-22.669 Z-0.695
X33.294 Y-22.858 Z-0.455
X33.383 Y-22.948 Z-0.335
X33.294 Y-22.858 Z-0.455
X33.113 Y-22.669 Z-0.695
X32.891 Y-22.423 Z-0.993
X32.768 Y-22.276 Z-1.161
X32.661 Y-22.14 Z-1.311
X32.56 Y-21.999 Z-1.46
X32.339 Y-21.664 Z-1.797
X32.259 Y-21.53 Z-1.924
X32.173 Y-21.382 Z-2.064
X32.05 Y-21.146 Z-2.276
X32.019 Y-21.078 Z-2.333
X31.988 Y-21.115 Z-2.289
X31.785 Y-21.381 Z-1.977
X31.734 Y-21.444 Z-1.899
X31.594 Y-21.631 Z-1.67
X31.562 Y-21.681 Z-1.611
X31.594 Y-21.631 Z-1.67
X31.734 Y-21.444 Z-1.899
X31.785 Y-21.381 Z-1.977
X31.988 Y-21.115 Z-2.289
X32.019 Y-21.078 Z-2.333
X32.018 Y-20.973 Z-2.379
X32.023 Y-20.808 Z-2.447
X32.034 Y-20.606 Z-2.527
X32.051 Y-20.411 Z-2.6
X32.084 Y-20.101 Z-2.715
X32.126 Y-19.8 Z-2.823
X32.165 Y-19.551 Z-2.91
X32.218 Y-19.252 Z-3.016
X32.205 Y-19.177
X32.249 Y-19.199
X32.205 Y-19.177
X32.163 Y-19.119 Z-2.984
X32.103 Y-19.031 Z-2.937
X32.044 Y-18.944 Z-2.892
X31.988 Y-18.856 Z-2.849
X31.932 Y-18.768 Z-2.808
X31.857 Y-18.638 Z-2.75
X31.786 Y-18.507 Z-2.696
X31.719 Y-18.376 Z-2.646
X31.651 Y-18.232 Z-2.594
X31.588 Y-18.086 Z-2.548
X31.531 Y-17.941 Z-2.506
X31.501 Y-17.858 Z-2.483
X31.472 Y-17.775 Z-2.463
X31.446 Y-17.692 Z-2.443
X31.42 Y-17.609 Z-2.427
X31.397 Y-17.526 Z-2.41
X31.374 Y-17.443 Z-2.397
X31.346 Y-17.323 Z-2.378
X31.318 Y-17.186 Z-2.36
X31.297 Y-17.075 Z-2.349
X31.273 Y-16.912 Z-2.336
X31.244 Y-16.674 Z-2.322
X31.215 Y-16.414 Z-2.309
X31.15 Y-15.746 Z-2.272
X31.115 Y-15.345 Z-2.247
X31.071 Y-14.802 Z-2.212
X31.016 Y-14.078 Z-2.162
X30.948 Y-13.131 Z-2.096
X30.876 Y-12.069 Z-2.025
X30.851 Y-11.651 Z-2.001
X30.839 Y-11.367 Z-1.99
X30.82 Y-10.848 Z-1.976
X30.811 Y-10.711
X30.805 Y-10.638 Z-1.977
X30.798 Y-10.564 Z-1.981
X30.788 Y-10.491 Z-1.985
X30.778 Y-10.414 Z-1.992
X30.764 Y-10.333 Z-1.999
X30.75 Y-10.251 Z-2.01
X30.733 Y-10.17 Z-2.021
X30.714 Y-10.084 Z-2.037
X30.693 Y-10 Z-2.052
X30.671 Y-9.915 Z-2.071
X30.646 Y-9.832 Z-2.089
X30.621 Y-9.748 Z-2.112
X30.592 Y-9.664 Z-2.134
X30.563 Y-9.58 Z-2.16
X30.53 Y-9.497 Z-2.187
X30.496 Y-9.41 Z-2.218
X30.46 Y-9.327 Z-2.248
X30.424 Y-9.244 Z-2.281
X30.385 Y-9.161 Z-2.315
X30.345 Y-9.079 Z-2.352
X30.262 Y-8.921 Z-2.426
X30.173 Y-8.763 Z-2.507
X30.08 Y-8.612 Z-2.591
X29.981 Y-8.461 Z-2.681
X29.881 Y-8.317 Z-2.773
X29.775 Y-8.173 Z-2.87
X29.697 Y-8.073 Z-2.942
X29.616 Y-7.973 Z-3.016
G3 X29.158 Y-7.888 I-0.773 J-2.916
G1 X29.27 Y-7.546
X29.28 Y-7.515
X29.399 Y-7.132
X29.415 Y-7.08
X29.528 Y-6.694
X29.559 Y-7.103
X29.594 Y-7.622
X29.611 Y-7.895
X29.616 Y-7.973
X29.611 Y-7.895
X29.594 Y-7.622
X29.559 Y-7.103
X29.528 Y-6.694
X29.568 Y-6.306 Z-2.945
X29.609 Y-5.852 Z-2.864
X29.644 Y-5.408 Z-2.785
X29.667 Y-5.056 Z-2.721
X29.673 Y-4.952 Z-2.702
X29.697 Y-4.478 Z-2.612
X29.708 Y-4.166 Z-2.551
X29.713 Y-3.98 Z-2.513
X29.717 Y-3.665 Z-2.446
Y-3.217 Z-2.344
Y-3.04 Z-2.3
X29.694 Y-3.015 Z-2.272
X29.485 Y-2.804 Z-2.014
X29.299 Y-2.61 Z-1.777
X29.159 Y-2.468 Z-1.597
X29.039 Y-2.346 Z-1.439
X28.883 Y-2.185 Z-1.225
X28.88 Y-2.181 Z-1.22
X28.844 Y-2.144 Z-1.17
X28.88 Y-2.181 Z-1.22
X28.883 Y-2.185 Z-1.225
X29.039 Y-2.346 Z-1.439
X29.159 Y-2.468 Z-1.597
X29.299 Y-2.61 Z-1.777
X29.485 Y-2.804 Z-2.014
X29.694 Y-3.015 Z-2.272
X29.717 Y-3.04 Z-2.3
X29.89 Y-2.768 Z-2.06
X30.076 Y-2.492 Z-1.8
X30.169 Y-2.365 Z-1.673
X30.322 Y-2.148 Z-1.453
X30.477 Y-1.95 Z-1.238
X30.639 Y-1.73 Z-1.002
X30.902 Y-1.41 Z-0.633
X31.094 Y-1.167 Z-0.355
X31.13 Y-1.12 Z-0.3
Z5
X17.819 Y-31.238
Z-0.001 F333.3
X18.062 Y-30.999 Z-0.339 F2000
X18.101 Y-30.969 Z-0.387
X18.206 Y-30.886 Z-0.51
X18.316 Y-30.79 Z-0.637
X18.437 Y-30.68 Z-0.772
X18.567 Y-30.557 Z-0.915
X18.705 Y-30.422 Z-1.061
X18.86 Y-30.265 Z-1.222
X18.875 Y-30.249 Z-1.238
X19.047 Y-30.497 Z-0.988
X19.077 Y-30.538 Z-0.945
X19.081 Y-30.542 Z-0.941
X19.089 Y-30.55 Z-0.93
X19.357 Y-30.779 Z-0.594
X19.592 Y-30.951 Z-0.309
X19.357 Y-30.779 Z-0.594
X19.089 Y-30.55 Z-0.93
X19.081 Y-30.542 Z-0.941
X19.077 Y-30.538 Z-0.945
X19.047 Y-30.497 Z-0.988
X18.875 Y-30.249 Z-1.238
X18.902 Y-30.092 Z-1.267
X18.971 Y-29.711 Z-1.331
X19.057 Y-29.269 Z-1.397
X19.16 Y-28.777 Z-1.467
X19.282 Y-28.236 Z-1.54
X19.418 Y-27.666 Z-1.614
X19.491 Y-27.372 Z-1.651
X19.581 Y-27.039 Z-1.688
X19.711 Y-26.608 Z-1.725
X19.783 Y-26.39 Z-1.739
X19.952 Y-25.9 Z-1.766
X20.018 Y-25.72 Z-1.773
X20.093 Y-25.526 Z-1.776
X20.192 Y-25.286
X20.341 Y-24.937 Z-1.772
X20.683 Y-24.157 Z-1.76
X21.208 Y-22.987 Z-1.743
X21.636 Y-22.05 Z-1.735
X22.044 Y-21.168 Z-1.731
X22.506 Y-20.186 Z-1.734
X23.428 Y-18.231 Z-1.741
X23.521 Y-18.035 Z-1.742
X23.556 Y-17.928 Z-1.728
X23.595 Y-17.823 Z-1.719
X23.617 Y-17.767 Z-1.714
X23.665 Y-17.656 Z-1.71
X23.724 Y-17.531
X23.758 Y-17.462 Z-1.714
X23.796 Y-17.394 Z-1.717
X23.833 Y-17.326 Z-1.724
X23.876 Y-17.258 Z-1.731
X23.918 Y-17.189 Z-1.742
X24.25 Y-17.374 Z-1.372
X24.562 Y-17.6 Z-0.992
X24.704 Y-17.713 Z-0.814
X24.83 Y-17.816 Z-0.653
X24.94 Y-17.911 Z-0.511
X25.035 Y-18.002 Z-0.382
X25.114 Y-18.084 Z-0.273
X25.176 Y-18.154 Z-0.183
X25.21 Y-18.203 Z-0.126
X25.235 Y-18.245 Z-0.081
X25.253 Y-18.288 Z-0.041
X25.259 Y-18.31 Z-0.021
X25.258 Y-18.331 Z-0.001
X25.259 Y-18.31 Z-0.021
X25.268 Y-18.329 Z-0.001
X25.259 Y-18.31 Z-0.021
X25.253 Y-18.288 Z-0.041
X25.235 Y-18.245 Z-0.081
X25.21 Y-18.203 Z-0.126
X25.176 Y-18.154 Z-0.183
X25.114 Y-18.084 Z-0.273
X25.035 Y-18.002 Z-0.382
X24.94 Y-17.911 Z-0.511
X24.83 Y-17.816 Z-0.653
X24.704 Y-17.713 Z-0.814
X24.562 Y-17.6 Z-0.992
X24.25 Y-17.374 Z-1.372
X23.918 Y-17.189 Z-1.742
X23.942 Y-17.128 Z-1.738
X23.992 Y-17.012 Z-1.733
X24.066 Y-16.855 Z-1.735
X24.127 Y-16.741 Z-1.741
X24.192 Y-16.629 Z-1.753
X24.821 Y-15.302 Z-1.758
X24.923 Y-15.09 Z-1.757
X24.664 Y-14.918 Z-1.448
X24.432 Y-14.759 Z-1.169
X24.198 Y-14.588 Z-0.882
X24 Y-14.437 Z-0.636
X23.839 Y-14.306 Z-0.432
X23.739 Y-14.215 Z-0.3
X23.662 Y-14.137 Z-0.193
X23.605 Y-14.072 Z-0.112
X23.584 Y-14.039 Z-0.075
X23.569 Y-14.01 Z-0.046
X23.561 Y-13.987 Z-0.026
X23.56 Y-13.983 Z-0.023
Y-13.956 Z-0.001
Y-13.983 Z-0.023
X23.561 Y-13.987 Z-0.026
X23.569 Y-14.01 Z-0.046
X23.584 Y-14.039 Z-0.075
X23.605 Y-14.072 Z-0.112
X23.662 Y-14.137 Z-0.193
X23.739 Y-14.215 Z-0.3
X23.839 Y-14.306 Z-0.432
X24 Y-14.437 Z-0.636
X24.198 Y-14.588 Z-0.882
X24.432 Y-14.759 Z-1.169
X24.664 Y-14.918 Z-1.448
X24.923 Y-15.09 Z-1.757
X24.961 Y-15.029 Z-1.748
X24.999 Y-14.967 Z-1.742
X25.034 Y-14.904 Z-1.736
X25.069 Y-14.841 Z-1.733
X25.102 Y-14.777 Z-1.73
X25.134 Y-14.713
X25.163 Y-14.65
X25.191 Y-14.588 Z-1.733
X25.243 Y-14.461 Z-1.741
X25.29 Y-14.332 Z-1.754
X25.404 Y-14.082 Z-1.76
X25.594 Y-13.674 Z-1.765
X26.067 Y-12.667 Z-1.771
X26.301 Y-12.156 Z-1.777
X26.372 Y-11.993 Z-1.781
X26.445 Y-11.815 Z-1.79
X26.675 Y-11.257 Z-1.816
X27.174 Y-10.054 Z-1.866
X27.239 Y-9.913 Z-1.877
X27.271 Y-9.848 Z-1.886
X27.305 Y-9.783 Z-1.894
X27.341 Y-9.715 Z-1.906
X27.412 Y-9.593 Z-1.931
X27.491 Y-9.468 Z-1.962
X27.541 Y-9.393 Z-1.982
X27.592 Y-9.319 Z-2.007
X27.647 Y-9.246 Z-2.032
X27.702 Y-9.173 Z-2.06
X27.76 Y-9.101 Z-2.089
X27.828 Y-9.02 Z-2.127
X27.886 Y-8.954 Z-2.158
X27.944 Y-8.889 Z-2.193
X28.006 Y-8.824 Z-2.228
X28.067 Y-8.76 Z-2.266
X28.197 Y-8.633 Z-2.346
X28.276 Y-8.561 Z-2.395
X28.34 Y-8.503 Z-2.438
X28.474 Y-8.388 Z-2.527
X28.636 Y-8.258 Z-2.638
X28.775 Y-8.153 Z-2.736
X28.919 Y-8.049 Z-2.84
X29.157 Y-7.889 Z-3.015
Z15
G28 G91 Z0
G90
G28 G91 X0 Y0
G90
M5
M30
