(mission ridge roughing 1.0)
(T6  D=6.35 CR=0 - ZMIN=-33 - flat end mill)
G90 G94
G17
G21
(When using Fusion 360 for Personal Use, the feedrate of)
(rapid moves is reduced to match the feedrate of cutting)
(moves, which can increase machining time. Unrestricted rapid)
(moves are available with a Fusion 360 Subscription.)
G28 G91 Z0
G90

(Pocket2)
T6
S15000 M3
G54
G0 X135.339 Y-56.042
Z15
G1 Z5 F2000
Z4.825 F333.3
X135.356 Y-56.04 Z4.679
X135.406 Y-56.034 Z4.54
X135.487 Y-56.021 Z4.417
X135.592 Y-56.002 Z4.316
X135.717 Y-55.974 Z4.242
X135.853 Y-55.936 Z4.2
G3 X134.128 Y-50.156 Z2.529 I-0.862 J2.89
X135.853 Y-55.936 Z0.858 I0.862 J-2.89
X134.128 Y-50.156 Z-0.813 I-0.862 J2.89
X135.853 Y-55.936 Z-2.483 I0.862 J-2.89
X134.99 Y-50.03 Z-4 I-0.862 J2.89
G1 X132.588 F2000
G3 X132.489 Y-50.806 I0 J-0.394
G2 X134.789 Y-51.457 I-12.92 J-50.017
G3 X135.064 Y-51.482 I0.196 J0.638
G2 X138.709 Y-51.129 I9.956 J-83.851
X142.368 Y-50.955 I5.009 J-66.845
G3 X143.452 Y-50.894 I-0.307 J15.223
X144.529 Y-50.767 I-1.887 J20.583
X144.476 Y-50.03 I-0.053 J0.367
G1 X134.99
G2 X132.721 Y-48.517 I0 J2.458
G3 X130.452 Y-47.005 I-2.269 J-0.945
G1 X113.287
G3 X112.316 Y-48.162 I0 J-0.986
G1 X112.397 Y-48.635
G3 X113.405 Y-49.627 I1.185 J0.196
G2 X119.211 Y-50.734 I-10.697 J-71.927
X124.961 Y-52.097 I-170.487 J-731.668
G3 X129.532 Y-53.179 I126.316 J523.44
G2 X134.067 Y-54.4 I-15.242 J-65.668
G3 X135.259 Y-54.505 I0.843 J2.748
G2 X140.483 Y-54.02 I11.025 J-90.282
G3 X145.702 Y-53.483 I-4.322 J67.623
X152.313 Y-51.569 I-3.461 J24.336
G2 X158.651 Y-48.885 I65.565 J-145.957
X159.942 Y-48.435 I5.782 J-14.511
G3 X161.24 Y-48.003 I-6.645 J22.138
G2 X161.514 Y-47.91 I2.11 J-5.767
G3 X161.789 Y-47.816 I-1.68 J5.401
X161.644 Y-47.005 I-0.145 J0.393
G1 X130.452
G2 X128.052 Y-45.404 I0 J2.601
G3 X125.651 Y-43.804 I-2.401 J-1
G1 X109.204
G3 X108.331 Y-44.939 I0 J-0.903
G2 X109.031 Y-48.014 I-42.735 J-11.341
X109.538 Y-51.126 I-57.862 J-11.012
G3 X110.992 Y-52.546 I1.636 J0.221
G2 X115.312 Y-53.153 I-8.284 J-74.701
X119.597 Y-53.975 I-17.298 J-101.69
X123.945 Y-54.979 I-29.144 J-136.206
G3 X128.28 Y-56.035 I136.814 J552.304
G2 X130.638 Y-56.687 I-8.168 J-34.116
G3 X132.973 Y-57.412 I105.363 J334.995
X135.788 Y-57.665 I2.006 J6.538
G2 X140.973 Y-57.188 I11.562 J-97.198
G3 X146.153 Y-56.651 I-4.46 J68.313
X153.126 Y-54.63 I-3.64 J25.591
G2 X159.81 Y-51.795 I67.897 J-150.789
X170.357 Y-48.591 I24.229 J-60.806
X181.313 Y-47.38 I11.484 J-53.728
X182.025 Y-47.396 I0.108 J-11.228
G3 X182.737 Y-47.418 I0.832 J15.442
X183.937 Y-46.226 I0.009 J1.192
G1 Y-45.021
G3 X182.721 Y-43.804 I-1.217 J0
G1 X125.651
G2 X123.08 Y-42.089 I0 J2.786
G3 X120.508 Y-40.375 I-2.572 J-1.072
G1 X104.502
G3 X103.715 Y-41.484 I0 J-0.834
G2 X105.507 Y-47.866 I-50.412 J-17.604
X106.426 Y-54.432 I-44.624 J-9.592
G3 X107.726 Y-55.711 I1.369 J0.091
G2 X118.253 Y-57.222 I-2.888 J-57.542
G1 X129.371 Y-59.884
G2 X130.792 Y-60.3 I-3.428 J-14.321
G3 X132.199 Y-60.762 I12.889 J36.953
X135.997 Y-61.094 I2.677 J8.723
G2 X141.319 Y-60.594 I11.14 J-90.039
G3 X146.636 Y-60.046 I-4.447 J69.199
X150.421 Y-59.335 I-6.101 J42.895
X154.05 Y-58.041 I-3.925 J16.747
G2 X161.079 Y-54.926 I45.062 J-92.194
X168.377 Y-52.509 I23.841 J-59.745
X174.804 Y-51.199 I14.286 J-53.681
X181.345 Y-50.702 I7.017 J-49.105
X183.768 Y-50.792 I0.25 J-26.047
G3 X186.184 Y-50.984 I25.356 J303.003
X187.366 Y-49.888 I0.083 J1.096
G1 Y-41.592
G3 X186.15 Y-40.375 I-1.217 J0
G1 X120.508
G2 X117.936 Y-38.66 I0 J2.786
G3 X115.364 Y-36.946 I-2.572 J-1.072
G1 X99.187
G3 X98.528 Y-38.014 I0 J-0.737
G2 X102.808 Y-51.311 I-40.61 J-20.41
X103.075 Y-54.588 I-22.591 J-3.486
X103.089 Y-57.876 I-352.358 J-3.226
G3 X104.288 Y-59.072 I1.196 J0
G2 X109.841 Y-59.275 I0.126 J-72.68
X115.345 Y-60.046 I-3.228 J-43.102
G1 X128.576 Y-63.202
G2 X130.25 Y-63.704 I-3.602 J-15.047
G3 X131.906 Y-64.259 I11.869 J32.722
X135.841 Y-64.573 I2.677 J8.723
G2 X144.822 Y-63.687 I15.595 J-112.114
G3 X153.69 Y-62.012 I-2.063 J35.241
X156.582 Y-60.727 I-4.752 J14.594
G2 X159.424 Y-59.335 I12.004 J-20.899
X166.456 Y-56.7 I45.426 J-110.52
X173.73 Y-54.833 I15.913 J-46.9
X178.944 Y-54.219 I7.873 J-44.441
X184.194 Y-54.144 I3.464 J-58.701
X186.87 Y-54.408 I-0.602 J-19.832
G3 X189.524 Y-54.846 I85.4 J509.605
X190.796 Y-53.764 I0.175 J1.082
G1 X190.795 Y-38.163
G3 X189.578 Y-36.946 I-1.217 J0
G1 X115.364
G2 X112.793 Y-35.231 I0 J2.786
G3 X110.221 Y-33.517 I-2.572 J-1.072
G1 X92.963
G3 X92.434 Y-34.537 I0 J-0.647
G2 X99.419 Y-51.834 I-33.327 J-23.518
X99.768 Y-56.753 I-29.616 J-4.571
X99.514 Y-61.678 I-61.933 J0.721
G3 X100.56 Y-62.707 I0.944 J-0.086
G2 X111.298 Y-62.79 I5.012 J-46.097
X121.752 Y-65.246 I-6.21 J-49.907
G3 X122.813 Y-65.467 I1.36 J3.873
G2 X123.888 Y-65.602 I-0.759 J-10.389
X126.921 Y-66.274 I-6.672 J-37.299
X129.907 Y-67.128 I-20.533 J-77.495
X131.413 Y-67.625 I-10.88 J-35.454
G3 X132.949 Y-68.022 I3.017 J8.516
X135.806 Y-68.043 I1.496 J9.001
G2 X139.986 Y-67.563 I8.887 J-58.938
X144.186 Y-67.328 I7.228 J-91.241
G3 X149.007 Y-66.701 I-0.836 J25.277
G2 X153.757 Y-65.668 I47.023 J-204.905
G3 X155.949 Y-64.918 I-1.835 J8.939
G2 X160.966 Y-62.551 I75.589 J-153.685
X166.089 Y-60.425 I36.394 J-80.476
X177.542 Y-57.769 I15.573 J-41.137
X189.293 Y-58.163 I4.337 J-46.094
G3 X191.149 Y-58.271 I1.455 J8.966
X193.003 Y-58.142 I-1.607 J36.368
X194.225 Y-56.798 I-0.128 J1.344
G1 X194.224 Y-34.734
G3 X193.007 Y-33.517 I-1.217 J0
G1 X110.221
G2 X107.649 Y-31.802 I0 J2.786
G3 X105.077 Y-30.088 I-2.572 J-1.072
G1 X86.58
G3 X86.02 Y-31.12 I0 J-0.668
X88.472 Y-34.637 I54.153 J35.143
G2 X90.925 Y-38.155 I-43.068 J-32.641
X95.12 Y-47.927 I-27.5 J-17.594
X96.403 Y-58.484 I-42.747 J-10.549
X96.092 Y-62.219 I-22.634 J0.004
X95.417 Y-65.907 I-123.737 J20.727
G3 X96.348 Y-66.839 I0.778 J-0.154
G2 X101.306 Y-66.041 I14.119 J-71.898
X106.322 Y-65.781 I4.267 J-33.861
X113.575 Y-66.566 I-0.933 J-42.546
X120.616 Y-68.482 I-9.746 J-49.716
G3 X122.842 Y-68.976 I3.176 J9.045
G2 X125.091 Y-69.355 I-1.666 J-16.733
X127.008 Y-69.838 I-20.055 J-83.77
X128.909 Y-70.38 I-12.664 J-48.003
X130.835 Y-70.986 I-42.471 J-138.396
G3 X132.794 Y-71.475 I4.628 J14.363
X135.774 Y-71.516 I1.614 J8.981
G2 X140.995 Y-71.015 I7.191 J-47.501
G3 X146.217 Y-70.514 I-1.256 J40.57
X150.502 Y-69.772 I-30.648 J189.574
X154.776 Y-68.962 I-88.676 J479.338
X156.904 Y-68.268 I-1.74 J8.958
X160.553 Y-66.475 I-45.274 J96.728
G2 X164.253 Y-64.789 I19.276 J-37.404
X171.62 Y-62.361 I23.668 J-59.399
X179.267 Y-61.064 I11.016 J-41.783
X184.023 Y-60.996 I2.915 J-37.279
X188.753 Y-61.494 I-2.099 J-42.59
G3 X192.368 Y-61.621 I2.307 J14.217
G2 X195.979 Y-61.399 I5.521 J-60.493
G1 X196.213 Y-61.396
X196.448 Y-61.393
G3 X197.654 Y-60.142 I-0.046 J1.251
G1 X197.653 Y-31.305
G3 X196.436 Y-30.088 I-1.217 J0
G1 X105.077
G2 X102.506 Y-28.373 I0 J2.786
G3 X99.934 Y-26.659 I-2.572 J-1.072
G1 X79.459
G3 X79.043 Y-27.629 I0 J-0.574
G2 X81.135 Y-29.977 I-34.682 J-32.996
X83.023 Y-32.493 I-23.631 J-19.694
X84.001 Y-34.189 I-11.786 J-7.934
G3 X84.98 Y-35.884 I13.048 J6.402
X86.519 Y-37.935 I20.166 J13.53
G2 X88.036 Y-40.003 I-15.447 J-12.921
X92.676 Y-53.437 I-25.533 J-16.336
X91.519 Y-67.603 I-40.103 J-3.856
G3 X91.702 Y-69.169 I2.079 J-0.55
G2 X92.134 Y-70.009 I-24.897 J-13.337
G3 X93.891 Y-70.827 I1.388 J0.685
G2 X101.259 Y-69.447 I16.056 J-65.377
X108.755 Y-69.376 I4.043 J-31.066
X114.265 Y-70.265 I-6.214 J-56.037
X119.638 Y-71.773 I-9.054 J-42.589
G3 X121.949 Y-72.307 I3.562 J10.142
G2 X124.285 Y-72.722 I-2.332 J-19.911
X126.428 Y-73.322 I-6.793 J-28.374
G3 X128.552 Y-73.99 I50.375 J156.564
X137.461 Y-74.734 I6.165 J20.091
G2 X142.697 Y-74.225 I10.11 J-76.769
G3 X147.933 Y-73.716 I-3.126 J59.3
X151.846 Y-73.03 I-8.703 J61.19
G2 X155.745 Y-72.268 I32.36 J-155.196
G3 X158.068 Y-71.512 I-1.638 J8.977
X162.895 Y-69.165 I-337.502 J700.267
G2 X167.842 Y-67.086 I20.32 J-41.428
X175.738 Y-65.01 I16.482 J-46.647
X183.881 Y-64.423 I6.93 J-39.328
X187.579 Y-64.841 I-0.686 J-22.591
G3 X191.289 Y-65.122 I3.022 J15.284
X193.686 Y-64.915 I-1.264 J28.566
G2 X196.084 Y-64.723 I3.178 J-24.621
X197.998 Y-64.755 I0.625 J-19.88
X199.908 Y-64.895 I-7.478 J-115.109
G3 X201.083 Y-63.812 I0.088 J1.083
G1 X201.082 Y-27.876
G3 X199.865 Y-26.659 I-1.217 J0
G1 X99.934
G2 X97.362 Y-24.944 I0 J2.786
G3 X94.79 Y-23.23 I-2.572 J-1.072
G1 X69.079
G3 X68.87 Y-24.085 I0 J-0.453
G2 X76.18 Y-29.551 I-13.064 J-25.091
X81.497 Y-36.97 I-22.768 J-21.931
G3 X82.654 Y-38.695 I8.107 J4.189
G2 X88.507 Y-50.026 I-21.468 J-18.266
X89.155 Y-62.763 I-31.466 J-7.986
X88.683 Y-65.019 I-19.276 J2.851
X88.063 Y-67.238 I-148.162 J40.239
G3 X88.424 Y-70.322 I3.862 J-1.111
G2 X89.683 Y-72.892 I-21.618 J-12.184
G3 X91.84 Y-74.611 I2.65 J1.113
G1 X91.904 Y-74.622
G3 X93.111 Y-74.574 I0.492 J2.832
G2 X97.197 Y-73.553 I83.562 J-325.613
X101.34 Y-72.799 I8.461 J-34.772
X109.966 Y-72.897 I3.947 J-32.479
X118.343 Y-74.952 I-6.36 J-44.022
G3 X121.851 Y-75.807 I6.07 J17.285
G2 X125.397 Y-76.481 I-5.338 J-37.786
X128.314 Y-77.377 I-5.639 J-23.555
G3 X131.261 Y-78.169 I5.499 J14.562
X137.341 Y-78.215 I3.185 J19.16
G2 X142.328 Y-77.763 I6.305 J-41.815
G3 X147.311 Y-77.285 I-1.21 J38.792
X152.003 Y-76.434 I-19.89 J123.029
G2 X156.694 Y-75.583 I36.186 J-186.167
G3 X159.252 Y-74.75 I-1.515 J8.998
G2 X167.143 Y-71.016 I93.59 J-187.587
X175.488 Y-68.451 I14.556 J-32.495
X181.831 Y-67.884 I6.45 J-36.406
X188.173 Y-68.456 I0.099 J-34.371
G3 X189.294 Y-68.592 I1.67 J9.041
G2 X190.421 Y-68.665 I-7.924 J-132.442
G3 X192.468 Y-68.574 I0.622 J9.104
G2 X197.919 Y-68.222 I4.629 J-29.297
X203.354 Y-68.778 I-1.021 J-36.8
G3 X204.512 Y-67.808 I0.173 J0.97
G1 X204.511 Y-24.447
G3 X203.294 Y-23.23 I-1.217 J0
G1 X94.79
G2 X92.222 Y-21.518 I0 J2.782
G3 X89.654 Y-19.805 I-2.568 J-1.07
G1 X20.997
G3 X19.805 Y-20.998 I0 J-1.192
G1 X19.804 Y-21.949
G3 X20.887 Y-22.687 I0.793 J0
G2 X30.766 Y-20.793 I10.009 J-25.49
G3 X36.952 Y-20.552 I0 J79.473
G2 X43.14 Y-20.357 I5.195 J-66.542
X52.186 Y-21.195 I-0.872 J-58.649
X60.914 Y-23.72 I-6.893 J-40.174
X67.407 Y-26.954 I-20.218 J-48.73
X73.23 Y-31.28 I-17.021 J-28.992
X76.248 Y-34.799 I-13.749 J-14.846
X78.587 Y-38.802 I-29.391 J-19.853
G3 X79.855 Y-40.693 I8 J3.996
G2 X85.194 Y-50.827 I-18.614 J-16.28
X85.791 Y-62.265 I-28.058 J-7.2
X85.166 Y-65.118 I-21.013 J3.108
X84.243 Y-67.889 I-37.657 J11.01
G3 X84.557 Y-70.571 I2.762 J-1.036
G2 X87.19 Y-76.023 I-17.752 J-11.935
G3 X88.938 Y-77.545 I2.125 J0.676
G2 X90.243 Y-77.787 I-8.207 J-47.86
G3 X91.547 Y-78.036 I15.821 J79.203
X93.748 Y-77.947 I0.903 J4.94
G2 X101.112 Y-76.41 I17.44 J-65.149
X108.634 Y-76.261 I4.328 J-28.647
X113.566 Y-77.253 I-3.153 J-28.435
G3 X118.402 Y-78.636 I89.146 J302.588
X120.546 Y-79.017 I3.066 J11.055
G2 X122.696 Y-79.359 I-1.134 J-14.061
X127.103 Y-80.57 I-15.951 J-66.628
G3 X131.531 Y-81.702 I13.217 J42.469
X136.801 Y-81.767 I2.805 J13.917
G2 X142.077 Y-81.262 I5.827 J-33.05
G3 X147.354 Y-80.756 I-0.206 J29.962
G2 X150.999 Y-80.147 I18.469 J-99.224
G3 X154.628 Y-79.452 I-6.499 J43.765
G2 X156.127 Y-79.145 I5.995 J-25.496
X157.638 Y-78.9 I11.219 J-64.388
G3 X160.426 Y-77.995 I-1.328 J8.843
G2 X170.588 Y-73.382 I49.204 J-94.87
X181.543 Y-71.254 I11.251 J-28.668
X184.562 Y-71.384 I0.277 J-28.808
X187.555 Y-71.802 I-3.296 J-34.468
G3 X189.011 Y-71.989 I2.428 J13.142
G2 X190.474 Y-72.103 I-11.945 J-163.831
G3 X192.718 Y-72.003 I0.73 J8.913
G2 X204.541 Y-72.447 I4.858 J-28.273
X205.703 Y-72.806 I-2.929 J-11.543
G1 X206.862 Y-73.23
G3 X207.936 Y-72.479 I0.275 J0.751
G1 X207.935 Y-20.998
G3 X206.743 Y-19.805 I-1.192 J0
G1 X89.654
G2 X87.677 Y-18.488 I0 J2.141
G3 X85.7 Y-17.17 I-1.977 J-0.824
G1 X18.386
G3 X17.169 Y-18.387 I0 J-1.217
G1 Y-26.224
G3 X18.211 Y-26.826 I0.695 J0
G2 X24.642 Y-24.184 I13.006 J-22.511
X31.556 Y-23.441 I5.934 J-22.702
G1 X44.369 Y-23.007
G2 X51.085 Y-23.661 I-0.611 J-41.072
X57.625 Y-25.318 I-8.766 J-48.362
X61.019 Y-26.715 I-7.747 J-23.637
G1 X64.618 Y-28.517
G2 X71.432 Y-33.378 I-12.127 J-24.209
X76.323 Y-40.17 I-17.101 J-17.47
G3 X77.731 Y-42.269 I8.209 J3.985
G2 X83.385 Y-54.79 I-17.005 J-15.216
X81.19 Y-68.351 I-24.783 J-2.948
G3 X81.424 Y-70.675 I2.057 J-0.967
G2 X83.433 Y-73.814 I-21.198 J-15.779
X84.853 Y-77.26 I-15.193 J-8.275
X85.006 Y-77.865 I-8.667 J-2.519
G3 X85.146 Y-78.472 I23.755 J5.156
X86.763 Y-79.909 I1.847 J0.451
G2 X90.072 Y-80.417 I-6.564 J-53.761
X90.639 Y-80.535 I-2.804 J-14.88
G3 X91.206 Y-80.653 I3.659 J16.147
X94.296 Y-80.529 I1.278 J6.719
G2 X100.921 Y-79.031 I19.612 J-71.339
X107.709 Y-78.807 I4.17 J-23.387
G1 X120.375 Y-81.58
G2 X124.166 Y-82.458 I-6.795 J-37.989
X127.89 Y-83.587 I-32.456 J-113.777
G3 X129.769 Y-84.049 I4.248 J13.227
G2 X131.668 Y-84.421 I-7.329 J-42.353
G3 X136.65 Y-84.478 I2.627 J11.949
G2 X142.776 Y-83.77 I7.554 J-38.499
G3 X148.913 Y-83.164 I-1.813 J49.781
X153.501 Y-82.225 I-8.982 J55.562
G2 X158.095 Y-81.323 I11.373 J-45.779
G3 X162.068 Y-79.984 I-1.674 J11.529
G2 X165.82 Y-78.116 I23.094 J-41.68
X173.477 Y-75.194 I31.122 J-70.072
X181.568 Y-73.886 I8.353 J-25.983
X184.335 Y-74 I0.262 J-27.262
X187.079 Y-74.379 I-2.81 J-30.446
G3 X188.769 Y-74.601 I2.979 J16.127
G2 X190.467 Y-74.747 I-9.439 J-119.734
G3 X192.959 Y-74.637 I0.846 J9.086
G2 X200.777 Y-74.426 I4.587 J-25.023
X208.277 Y-76.642 I-3.118 J-24.354
X208.901 Y-76.966 I-4.866 J-10.145
G3 X209.518 Y-77.3 I13.638 J24.402
X210.572 Y-76.664 I0.335 J0.636
G1 X210.571 Y-18.387
G3 X209.354 Y-17.17 I-1.217 J0
G1 X85.7
G2 X83.129 Y-15.455 I0 J2.786
G3 X80.557 Y-13.741 I-2.572 J-1.072
G1 X14.957
G3 X13.74 Y-14.958 I0 J-1.217
G1 Y-28.265
G3 X15.132 Y-30.263 I2.129 J0
G2 X15.715 Y-30.493 I-4.839 J-13.126
X16.292 Y-30.738 I-36.733 J-87.367
G3 X18.85 Y-30.478 I1.044 J2.439
G2 X24.836 Y-27.645 I11.498 J-16.554
X31.412 Y-26.867 I5.706 J-20.067
G1 X44.318 Y-26.436
G2 X48.505 Y-26.814 I-0.416 J-27.957
X52.63 Y-27.631 I-11.494 J-68.864
X56.538 Y-28.607 I-23.512 J-102.44
X60.266 Y-30.134 I-4.221 J-15.619
G3 X64.492 Y-32.376 I45.327 J80.356
G2 X68.429 Y-35.094 I-7.494 J-15.06
X71.248 Y-38.318 I-13.876 J-14.983
X73.405 Y-42.019 I-20.376 J-14.351
G3 X74.974 Y-44.335 I8.25 J3.899
G2 X79.528 Y-53.428 I-13.235 J-12.315
X79.375 Y-63.596 I-25.916 J-4.694
X78.383 Y-66.443 I-11.737 J2.494
X76.856 Y-69.042 I-19.33 J9.607
G3 X77.039 Y-70.862 I1.169 J-0.801
G2 X82.214 Y-81.831 I-11.947 J-12.341
G3 X83.492 Y-83.069 I1.34 J0.104
G2 X86.477 Y-83.322 I-1.805 J-39.123
X89.438 Y-83.783 I-5.759 J-46.728
X90.076 Y-83.915 I-3.336 J-17.699
G3 X90.713 Y-84.051 I5.815 J25.711
X94.393 Y-84.031 I1.793 J8.947
X96.658 Y-83.428 I-4.653 J22.008
G2 X98.93 Y-82.847 I5.776 J-17.87
X104.142 Y-82.166 I8.5 J-44.754
X109.388 Y-82.511 I1.381 J-19.084
G1 X112.277 Y-83.106
G2 X115.358 Y-83.961 I-4.812 J-23.329
G3 X119.732 Y-85.007 I7.242 J20.623
G2 X124.127 Y-85.965 I-3.556 J-26.864
G3 X127.898 Y-86.989 I17.674 J57.591
G2 X131.684 Y-87.956 I-26.474 J-111.618
G3 X136.366 Y-88.039 I2.504 J9.158
G2 X142.407 Y-87.305 I6.326 J-26.852
G3 X148.463 Y-86.715 I-0.363 J35.08
G2 X152.239 Y-86.043 I44.868 J-241.057
G3 X155.998 Y-85.282 I-10.275 J60.443
G2 X159.662 Y-84.463 I39.349 J-167.337
G3 X163.196 Y-83.197 I-2.902 J13.674
G2 X172.052 Y-79.173 I43.173 J-83.242
X181.601 Y-77.315 I9.807 J-24.938
X186.46 Y-77.733 I0.246 J-25.596
G3 X188.448 Y-77.998 I3.624 J19.62
G2 X190.443 Y-78.192 I-5.471 J-66.485
G3 X193.224 Y-78.078 I1.021 J9.068
G2 X201.773 Y-78.078 I4.274 J-21.756
X209.713 Y-81.251 I-4.454 J-22.664
X211.448 Y-82.602 I-6.216 J-9.777
X213.039 Y-84.12 I-139.051 J-147.345
G3 X214.001 Y-83.711 I0.394 J0.409
G1 X214 Y-14.958
G3 X212.783 Y-13.741 I-1.217 J0
G1 X80.557
G2 X77.985 Y-12.026 I0 J2.786
G3 X75.413 Y-10.312 I-2.572 J-1.072
G1 X11.528
G3 X10.312 Y-11.529 I0 J-1.217
G1 X10.311 Y-30.529
G3 X11.538 Y-32.427 I2.081 J0
X14.313 Y-33.61 I31.77 J70.655
G2 X17.065 Y-34.848 I-14.481 J-35.878
G3 X19.252 Y-34.538 I0.869 J1.746
G2 X24.385 Y-31.44 I10.231 J-11.146
X30.27 Y-30.293 I6.702 J-18.728
X33.475 Y-30.301 I1.513 J-36.82
G3 X36.68 Y-30.233 I1.097 J23.875
G2 X43.486 Y-29.971 I6.031 J-68.134
X50.259 Y-30.68 I-0.416 J-36.695
G1 X53.747 Y-31.377
G2 X56.96 Y-32.354 I-3.36 J-16.819
X62.837 Y-35.208 I-21.281 J-51.293
X67.858 Y-39.388 I-8.768 J-15.638
X69.338 Y-41.584 I-10.155 J-8.439
X70.525 Y-43.951 I-42.621 J-22.868
G3 X72.263 Y-46.461 I8.265 J3.868
G2 X76.202 Y-54.201 I-10.405 J-10.167
X76.02 Y-62.884 I-22.851 J-3.866
X74.606 Y-66.348 I-10.321 J2.193
X72.289 Y-69.287 I-15.533 J9.867
G3 X72.304 Y-70.901 I0.825 J-0.799
G2 X73.365 Y-72.107 I-8.382 J-8.443
G3 X73.826 Y-72.583 I2.281 J1.748
G2 X77.341 Y-76.878 I-8.881 J-10.853
X78.886 Y-82.209 I-12.082 J-6.391
X78.897 Y-83.523 I-9.43 J-0.734
G3 X78.832 Y-84.836 I52.476 J-3.227
X80.521 Y-86.501 I1.607 J-0.059
G2 X85.454 Y-86.652 I1.54 J-30.253
X90.32 Y-87.473 I-5.045 J-44.757
G3 X93.142 Y-87.66 I2.008 J8.901
X96.372 Y-87.005 I-1.33 J14.843
G2 X99.565 Y-86.192 I8.184 J-25.467
X104.114 Y-85.583 I7.853 J-41.348
X108.696 Y-85.869 I1.282 J-16.282
X111.773 Y-86.585 I-12.574 J-60.964
X114.769 Y-87.589 I-5.764 J-22.185
G3 X116.353 Y-88.081 I3.487 J8.432
X117.538 Y-88.24 I1.633 J7.653
G2 X118.729 Y-88.359 I-0.812 J-14.196
X124.164 Y-89.547 I-5.309 J-37.317
G3 X129.563 Y-90.891 I17.599 J59.18
G2 X131.071 Y-91.3 I-2.332 J-11.567
G3 X132.571 Y-91.742 I5.63 J16.358
X136.278 Y-91.618 I1.634 J6.647
G2 X140.76 Y-90.802 I5.425 J-17.075
G3 X145.306 Y-90.509 I-10.213 J193.701
X151.081 Y-89.787 I-4.594 J60.201
X156.783 Y-88.62 I-17.135 J98.286
G2 X160.365 Y-87.878 I15.666 J-66.621
G3 X163.839 Y-86.732 I-2.294 J12.786
G2 X171.724 Y-82.998 I108.753 J-219.487
X180.175 Y-80.83 I10.424 J-23.068
X185.09 Y-80.954 I1.857 J-23.744
G1 X190.393 Y-81.641
G3 X193.166 Y-81.575 I1.172 J9.049
G2 X195.046 Y-81.254 I22.688 J-127.285
X196.942 Y-81.047 I2.895 J-17.753
X204.242 Y-82.268 I0.936 J-16.836
X210.507 Y-86.211 I-8.033 J-19.711
X212.851 Y-88.819 I-11.573 J-12.764
G3 X215.196 Y-91.427 I14.511 J10.689
G2 X215.837 Y-92.119 I-3.84 J-4.196
G3 X216.464 Y-92.824 I5.853 J4.578
X217.43 Y-92.421 I0.399 J0.403
G1 X217.429 Y-11.529
G3 X216.212 Y-10.312 I-1.217 J0
G1 X75.413
G2 X72.842 Y-8.597 I0 J2.786
G3 X70.27 Y-6.883 I-2.572 J-1.072
G1 X8.1
G3 X6.883 Y-8.1 I0 J-1.217
G1 X6.881 Y-33.126
G3 X8.195 Y-34.882 I1.831 J0
G2 X13.149 Y-36.76 I-9.872 J-33.506
X17.872 Y-39.16 I-35.509 J-75.751
G3 X19.881 Y-38.802 I0.782 J1.426
G2 X22.231 Y-36.46 I17.838 J-15.549
X25.07 Y-34.743 I6.43 J-7.428
X30.987 Y-33.77 I5.231 J-13.321
G3 X36.982 Y-33.649 I2.112 J43.994
G2 X43.299 Y-33.396 I5.78 J-65.296
X49.587 Y-34.044 I-0.274 J-33.498
G3 X52.653 Y-34.634 I43.342 J216.945
G2 X55.646 Y-35.521 I-2.709 J-14.629
X58.35 Y-36.823 I-10.374 J-25.004
G3 X60.999 Y-38.235 I50.556 J91.622
G2 X64.914 Y-41.378 I-5.761 J-11.188
X67.535 Y-45.661 I-13.4 J-11.141
G3 X69.561 Y-48.608 I8.357 J3.577
G2 X72.791 Y-54.537 I-7.918 J-8.158
X72.85 Y-61.288 I-17.657 J-3.531
X70.507 Y-66.222 I-10.314 J1.875
X66.02 Y-69.336 I-8.165 J6.975
G3 X65.936 Y-70.426 I0.206 J-0.564
G2 X68.519 Y-72.091 I-10.768 J-19.552
X70.695 Y-74.261 I-6.455 J-8.649
G3 X71.588 Y-75.183 I4.098 J3.076
G2 X74.988 Y-80.288 I-6.338 J-7.906
X75.215 Y-86.418 I-12.243 J-3.521
G3 X76.087 Y-88.341 I1.749 J-0.366
G2 X77.231 Y-89.006 I-23.847 J-42.344
G3 X78.405 Y-89.617 I5.692 J9.493
X80.11 Y-89.949 I1.567 J3.504
G2 X83.242 Y-89.877 I4.321 J-119.509
X86.37 Y-90.052 I0.237 J-23.85
X88.751 Y-90.579 I-1.534 J-12.568
G3 X91.14 Y-91.064 I3.308 J10.175
X97.279 Y-90.36 I1.335 J15.491
G2 X103.312 Y-89.027 I9.899 J-30.473
X108.574 Y-89.235 I1.988 J-16.359
X113.598 Y-90.816 I-4.994 J-24.632
G3 X115.49 Y-91.404 I3.637 J8.369
X118.546 Y-91.859 I6.606 J33.911
G2 X121.591 Y-92.378 I-2.406 J-23.291
X126.461 Y-93.654 I-27.478 J-114.776
G3 X131.331 Y-94.931 I35.496 J125.512
G2 X132.066 Y-95.14 I-2.212 J-9.155
X132.789 Y-95.387 I-11.149 J-33.847
G3 X136.12 Y-95.323 I1.58 J4.472
G2 X141.456 Y-94.179 I6.064 J-15.271
G3 X146.904 Y-93.872 I-10.173 J229.114
X152.865 Y-93.031 I-2.847 J41.702
X158.728 Y-91.67 I-40.086 J185.967
G2 X161.398 Y-91.16 I5.948 J-23.896
G3 X164.014 Y-90.425 I-1.295 J9.638
X171.001 Y-87.058 I-44.441 J101.166
G2 X178.339 Y-84.547 I11.737 J-22.32
X181.774 Y-84.202 I4.002 J-22.592
X185.214 Y-84.475 I0.413 J-16.665
G3 X189.26 Y-84.97 I6.1 J33.025
X195.065 Y-84.714 I1.707 J27.142
G2 X203.112 Y-85.493 I2.483 J-16.29
X209.468 Y-90.488 I-4.319 J-12.038
G3 X210.203 Y-91.368 I4.277 J2.822
X212.768 Y-93.806 I339.452 J354.65
G2 X215.113 Y-96.456 I-13.5 J-14.309
G3 X215.765 Y-97.097 I2.315 J1.703
G2 X219.985 Y-105.269 I-5.793 J-8.167
X219.957 Y-105.986 I-9.136 J0
G3 X219.91 Y-106.703 I28.049 J-2.21
X219.993 Y-106.956 I0.367 J-0.019
G1 X220.209 Y-107.218
G3 X220.859 Y-106.984 I0.283 J0.233
G1 X220.858 Y-8.1
G3 X219.641 Y-6.883 I-1.217 J0
G1 X70.27
G2 X67.698 Y-5.168 I0 J2.786
G3 X65.126 Y-3.454 I-2.572 J-1.072
G1 X4.646
G3 X3.454 Y-4.646 I0 J-1.192
G1 X3.452 Y-36.281
G3 X4.568 Y-37.501 I1.225 J0
G2 X9.405 Y-38.724 I-1.398 J-15.708
X13.954 Y-40.774 I-58.014 J-134.772
X15.989 Y-41.901 I-7.629 J-16.183
G3 X18.01 Y-43.052 I11.917 J18.568
G2 X18.676 Y-43.485 I-1.6 J-3.189
G3 X19.313 Y-43.957 I5.001 J6.085
X20.827 Y-43.558 I0.58 J0.872
G2 X22.996 Y-40.331 I14.094 J-7.13
X26.125 Y-38.022 I6.728 J-5.843
X31.095 Y-37.151 I4.249 J-9.623
G3 X36.142 Y-37.162 I2.611 J37.967
G1 X39.214 Y-36.969
X42.287 Y-36.785
G2 X48.423 Y-37.299 I1.271 J-21.743
G3 X51.548 Y-37.982 I35.533 J155.073
G2 X54.605 Y-38.925 I-3.469 J-16.672
X55.43 Y-39.363 I-1.885 J-4.544
G3 X56.218 Y-39.862 I13.614 J20.632
X57.435 Y-40.479 I4.64 J7.645
G2 X59.901 Y-41.67 I-9.172 J-22.139
X62.119 Y-43.277 I-5.555 J-9.999
X63.835 Y-45.519 I-5.657 J-6.108
X64.725 Y-48.198 I-7.742 J-4.06
G3 X66.112 Y-50.275 I2.956 J0.473
G2 X69.359 Y-54.622 I-3.858 J-6.268
X69.588 Y-60.042 I-11.893 J-3.217
X68.552 Y-63.067 I-10.539 J1.916
X66.358 Y-65.393 I-5.188 J2.697
X65.41 Y-65.878 I-4.236 J7.108
X64.417 Y-66.261 I-5.139 J11.866
G3 X62.363 Y-67.947 I1.206 J-3.563
G2 X61.741 Y-68.939 I-13.297 J7.653
X60.994 Y-69.84 I-5.189 J3.539
X60.646 Y-70.136 I-2.011 J2.01
G3 X60.282 Y-70.412 I5.508 J-7.637
X60.512 Y-71.454 I0.371 J-0.465
G2 X62.876 Y-72.417 I-2.076 J-8.479
X65.042 Y-73.768 I-27.21 J-46.054
X66.601 Y-74.912 I-10.222 J-15.556
X67.942 Y-76.305 I-5.152 J-6.302
G3 X69.457 Y-77.869 I7.133 J5.393
G2 X71.961 Y-82.025 I-4.454 J-5.516
X71.532 Y-86.859 I-8.566 J-1.675
G3 X72.653 Y-90.259 I2.626 J-1.019
X74.019 Y-91.039 I9.399 J14.881
G2 X75.385 Y-91.819 I-7.014 J-13.874
G3 X76.237 Y-92.343 I15.173 J23.709
X77.125 Y-92.802 I4.493 J7.602
X80.103 Y-93.381 I2.736 J6.118
G2 X83.03 Y-93.305 I5.251 J-145.234
X85.954 Y-93.459 I0.341 J-21.312
X88.954 Y-94.118 I-1.966 J-16.102
G3 X92.001 Y-94.507 I2.564 J7.973
X95.89 Y-93.926 I-1.254 J21.709
G2 X99.74 Y-93.125 I13.776 J-56.593
X103.264 Y-92.569 I20.539 J-118.758
X106.832 Y-92.514 I2.003 J-14.048
X109.658 Y-93.04 I-2.152 J-19.411
X112.361 Y-94.02 I-4.068 J-15.431
G3 X114.694 Y-94.745 I3.794 J8.098
X117.752 Y-95.177 I10.587 J63.923
G2 X120.792 Y-95.717 I-3.03 J-25.896
X123.582 Y-96.55 I-6.145 J-25.666
G3 X126.398 Y-97.289 I5.56 J15.455
G2 X130.026 Y-98.071 I-6.974 J-41.155
X133.506 Y-99.363 I-4.777 J-18.191
G3 X135.912 Y-99.23 I1.084 J2.218
G2 X139.966 Y-97.726 I5.552 J-8.751
X144.277 Y-97.395 I4.576 J-31.325
G3 X153.428 Y-96.354 I-0.368 J43.984
G2 X162.463 Y-94.571 I42.797 J-193.095
G3 X165.962 Y-93.346 I-1.924 J11.107
G2 X169.274 Y-91.682 I24.58 J-44.79
X176.266 Y-88.6 I111.86 J-244.335
X183.852 Y-87.685 I5.379 J-12.69
G3 X187.665 Y-88.119 I6.468 J39.865
G2 X191.477 Y-88.553 I-2.445 J-38.455
G3 X193.904 Y-88.319 I0.772 J4.69
G2 X196.303 Y-87.878 I2.45 J-6.593
X200.794 Y-88.418 I0.13 J-17.877
X204.867 Y-90.384 I-2.731 J-10.857
X207.19 Y-92.735 I-7.299 J-9.538
G3 X209.395 Y-95.198 I14.956 J11.17
G2 X210.99 Y-96.808 I-20.271 J-21.672
X212.411 Y-98.572 I-12.991 J-11.92
G3 X213.696 Y-99.835 I4.105 J2.893
G2 X215.53 Y-101.784 I-3.454 J-5.089
X216.485 Y-104.284 I-6.766 J-4.017
X216.554 Y-105.409 I-4.186 J-0.822
G3 X216.484 Y-106.534 I62.689 J-4.46
X217.346 Y-109.137 I3.757 J-0.2
X220.236 Y-112.058 I18.168 J15.082
G2 X223.33 Y-114.761 I-92.232 J-108.68
G3 X224.289 Y-114.334 I0.384 J0.427
G1 X224.287 Y-4.646
G3 X223.094 Y-3.454 I-1.192 J0
G1 X65.126
G2 X62.537 Y-1.728 I0 J2.804
G3 X59.949 Y-0.002 I-2.589 J-1.079
G1 X0.019
X0.004 Y-0.004
X0.002 Y-0.016
X0 Y-41.202
X0.066 Y-41.196
X0.379 Y-41.124
X0.481 Y-41.104
X0.584 Y-41.091
X1.432 Y-41.009
X1.497 Y-41.004
X2.131 Y-40.97
X2.233 Y-40.967
X2.825 Y-40.973
X3.417 Y-40.947
X3.455 Y-40.945
X4.09 Y-40.933
G2 X4.517 Y-40.982 I0.032 J-1.587
G1 X5.152 Y-41.146
X5.235 Y-41.17
X5.854 Y-41.366
X6.473 Y-41.548
X6.517 Y-41.562
X7.151 Y-41.768
X7.248 Y-41.804
X7.343 Y-41.845
X8.612 Y-42.451
X8.645 Y-42.467
X9.183 Y-42.74
X10.349 Y-43.143
X10.456 Y-43.184
X11.757 Y-43.741
X11.808 Y-43.764
X12.411 Y-44.048
X12.441 Y-44.063
X13.075 Y-44.378
X13.132 Y-44.408
X14.994 Y-45.429
X15.486 Y-45.662
X15.579 Y-45.71
X16.283 Y-46.102
X16.44 Y-46.181
G2 X16.655 Y-46.311 I-0.712 J-1.419
G1 X17.078 Y-46.615
X17.677 Y-47.014
X18.243 Y-47.343
G2 X18.507 Y-47.536 I-0.799 J-1.372
G1 X19.122 Y-48.091
X19.504 Y-48.413
X19.565 Y-48.468
X19.798 Y-48.686
X19.831 Y-48.718
X20.248 Y-49.132
X20.273 Y-49.157
X20.864 Y-49.771
X21.646 Y-50.532
X22.062 Y-50.84
X22.503 Y-51.112
X22.617 Y-51.083
X22.637 Y-51.074
X22.668 Y-50.78
X22.735 Y-48.936
X22.741 Y-48.84
X22.753 Y-48.745
X22.854 Y-48.111
X22.882 Y-47.975
X23.039 Y-47.345
X23.046 Y-47.315
X23.217 Y-46.683
G2 X23.304 Y-46.441 I1.533 J-0.414
G1 X23.878 Y-45.176
X23.919 Y-45.093
X24.286 Y-44.396
X24.336 Y-44.308
X24.391 Y-44.223
X24.79 Y-43.656
X24.84 Y-43.589
X24.892 Y-43.525
X25.444 Y-42.892
X25.539 Y-42.792
X26.196 Y-42.16
X26.304 Y-42.064
X26.601 Y-41.826
G2 X26.953 Y-41.613 I0.992 J-1.239
G1 X27.587 Y-41.333
X27.648 Y-41.308
X28.282 Y-41.059
G2 X28.639 Y-40.965 I0.58 J-1.478
G1 X29.274 Y-40.874
X29.327 Y-40.868
X29.961 Y-40.799
X30.066 Y-40.792
X30.7 Y-40.766
X30.832
X32.096 Y-40.818
X33.347 Y-40.863
X34.516 Y-40.886
X35.063 Y-40.837
X35.133 Y-40.832
X36.374 Y-40.775
X37.604 Y-40.674
X38.863 Y-40.554
X38.893 Y-40.552
X40.796 Y-40.408
X40.825 Y-40.406
X41.459 Y-40.369
X41.499 Y-40.368
X42.768 Y-40.326
X42.843
X44.111 Y-40.345
X44.228 Y-40.351
X45.497 Y-40.463
X45.628 Y-40.48
X47.531 Y-40.81
X47.614 Y-40.827
X48.205 Y-40.962
X49.43 Y-41.171
X49.518 Y-41.189
X50.785 Y-41.48
X51.022 Y-41.533
X51.259 Y-41.562
X51.354 Y-41.577
X51.448 Y-41.597
X52.113 Y-41.762
X52.225 Y-41.795
X52.829 Y-41.993
X52.943 Y-42.035
X53.26 Y-42.166
X53.347 Y-42.206
X53.432 Y-42.25
X54.384 Y-42.787
X54.493 Y-42.854
X55.127 Y-43.283
X55.179 Y-43.32
X55.285 Y-43.398
X55.987 Y-43.621
X56.126 Y-43.672
X56.282 Y-43.738
X56.373 Y-43.781
X56.852 Y-44.021
X56.878 Y-44.034
X57.513 Y-44.367
X57.597 Y-44.414
X57.678 Y-44.467
X58.087 Y-44.659
G2 X58.368 Y-44.83 I-0.677 J-1.436
G1 X58.856 Y-45.199
X58.977 Y-45.3
X59.659 Y-45.932
X59.733 Y-46.005
X59.802 Y-46.082
X59.9 Y-46.2
X59.949 Y-46.263
X59.996 Y-46.328
X60.767 Y-47.475
X60.831 Y-47.577
X60.886 Y-47.683
X61.185 Y-48.315
G2 X61.334 Y-48.891 I-1.435 J-0.678
G1 X61.374 Y-49.524
X61.378 Y-49.626
Y-50.164
X61.442 Y-50.703
X61.447 Y-50.748
X61.496 Y-51.293
X61.607 Y-51.839
X61.624 Y-51.939
X61.634 Y-52.04
X61.635 Y-52.046
X61.656 Y-52.053
X62.202 Y-52.177
G2 X62.594 Y-52.323 I-0.351 J-1.548
G1 X63.186 Y-52.637
X63.776 Y-52.905
X63.865 Y-52.949
X63.952 Y-52.998
X64.495 Y-53.333
G2 X64.785 Y-53.562 I-0.832 J-1.352
G1 X64.876 Y-53.653
G2 X65.091 Y-53.92 I-1.122 J-1.123
G1 X65.437 Y-54.461
G2 X65.622 Y-54.864 I-1.337 J-0.856
G1 X65.81 Y-55.496
X65.82 Y-55.531
X65.992 Y-56.164
X66.013 Y-56.251
X66.03 Y-56.339
X66.127 Y-56.972
X66.141 Y-57.092
X66.146 Y-57.214
Y-58.479
X66.141 Y-58.595
X66.128 Y-58.711
X66.035 Y-59.343
X66.026 Y-59.395
X65.911 Y-60.027
X65.902 Y-60.073
X65.768 Y-60.705
G2 X65.488 Y-61.324 I-1.553 J0.33
G1 X65.017 Y-61.956
G2 X64.557 Y-62.371 I-1.273 J0.948
G1 X63.932 Y-62.744
G2 X63.628 Y-62.884 I-0.813 J1.364
G1 X62.888 Y-63.134
X62.46 Y-63.297
X61.602 Y-63.685
X60.842 Y-64.129
X60.407 Y-64.512
X60.374 Y-64.545
X60.01 Y-65.082
X59.7 Y-65.58
X59.413 Y-66.149
X59.343 Y-66.273
X58.949 Y-66.905
G2 X58.724 Y-67.188 I-1.347 J0.839
G1 X58.533 Y-67.38
X58.468 Y-67.441
X58.4 Y-67.499
X57.848 Y-67.939
G2 X57.534 Y-68.135 I-0.99 J1.241
G1 X57.452 Y-68.173
X57.325 Y-68.227
X56.722 Y-68.449
X55.894 Y-68.795
X55.813 Y-68.826
X55.404 Y-68.972
X55.342 Y-68.992
X54.738 Y-69.179
X54.451 Y-69.281
G2 X54.185 Y-69.35 I-0.53 J1.496
G1 X53.868 Y-69.404
X53.828 Y-69.41
X52.559 Y-69.591
X52.471 Y-69.601
X51.203 Y-69.71
X51.103 Y-69.716
X50.491 Y-69.73
X48.62 Y-69.827
X46.726 Y-69.947
X46.69 Y-69.949
X44.824 Y-70.025
X44.242 Y-70.076
X43.676 Y-70.137
X43.418 Y-70.182
X43.564 Y-70.263
X44.93 Y-70.962
X45.391 Y-71.176
X45.421 Y-71.19
X46.012 Y-71.48
X46.603 Y-71.727
X46.681 Y-71.762
X47.315 Y-72.068
X47.453 Y-72.143
X47.708 Y-72.299
X47.788 Y-72.351
X48.397 Y-72.776
X48.495 Y-72.85
X48.61 Y-72.944
X48.675 Y-73
X48.736 Y-73.059
X48.911 Y-73.237
X49.236 Y-73.454
X49.519 Y-73.53
X50.727 Y-73.759
X50.736 Y-73.761
X51.295 Y-73.87
X51.782 Y-73.917
X52.223 Y-73.92
X52.736 Y-73.844
G2 X53.074 Y-73.83 I0.233 J-1.57
G1 X53.541 Y-73.861
X54.644 Y-73.701
G2 X55.111 Y-73.702 I0.228 J-1.571
G1 X55.746 Y-73.799
G2 X56.006 Y-73.861 I-0.239 J-1.569
G1 X56.641 Y-74.072
X56.718 Y-74.1
X57.353 Y-74.347
X57.461 Y-74.394
X57.805 Y-74.559
X58.119 Y-74.574
X58.21 Y-74.581
X58.845 Y-74.648
X58.979 Y-74.667
X59.613 Y-74.79
G2 X60.079 Y-74.958 I-0.3 J-1.559
G1 X60.714 Y-75.308
G2 X60.958 Y-75.474 I-0.766 J-1.39
G1 X61.473 Y-75.899
X61.755 Y-76.052
X61.807 Y-76.081
X61.933 Y-76.156
X62.469 Y-76.382
G2 X62.722 Y-76.518 I-0.618 J-1.462
G1 X63.081 Y-76.753
X63.17 Y-76.817
X63.962 Y-77.419
X64.635 Y-77.868
G2 X64.831 Y-78.023 I-0.881 J-1.321
G1 X65 Y-78.178
G2 X65.234 Y-78.45 I-1.077 J-1.166
G1 X65.665 Y-79.082
G2 X65.865 Y-79.492 I-1.312 J-0.894
G1 X65.995 Y-79.897
G2 X66.41 Y-80.051 I-0.338 J-1.551
G1 X67.044 Y-80.392
G2 X67.387 Y-80.641 I-0.753 J-1.398
G1 X67.474 Y-80.724
G2 X67.695 Y-80.986 I-1.095 J-1.149
G1 X68.122 Y-81.618
G2 X68.33 Y-82.063 I-1.316 J-0.888
G1 X68.45 Y-82.477
G2 X68.508 Y-82.797 I-1.524 J-0.443
G1 X68.525 Y-83.015
X68.53 Y-83.138
Y-84.403
X68.527 Y-84.499
X68.51 Y-84.78
G2 X68.462 Y-85.084 I-1.585 J0.096
G1 X68.37 Y-85.435
X68.338 Y-85.545
X68.297 Y-85.652
X68.03 Y-86.285
G2 X67.774 Y-86.699 I-1.463 J0.617
G1 X67.497 Y-87.022
X67.476 Y-87.047
X67.518 Y-87.339
X67.529 Y-87.442
X67.534 Y-87.546
X67.539 Y-88.007
X67.63 Y-88.4
X67.813 Y-88.952
X68.02 Y-89.551
X68.252 Y-90.158
X68.283 Y-90.248
X68.427 Y-90.703
X68.445 Y-90.752
X68.697 Y-91.309
X68.862 Y-91.64
X69.323 Y-92.094
X69.814 Y-92.528
X70.328 Y-92.889
X70.776 Y-93.156
X70.835 Y-93.193
X71.75 Y-93.795
X73.414 Y-94.733
X73.491 Y-94.779
X74.351 Y-95.329
X75.196 Y-95.72
X76.292 Y-96.21
X76.356 Y-96.234
X76.444 Y-96.269
X76.529 Y-96.31
X77.137 Y-96.62
X77.683 Y-96.874
X77.779 Y-96.922
X78.287 Y-96.917
X78.88 Y-96.88
X78.922 Y-96.878
X80.813 Y-96.809
X81.436 Y-96.777
X81.537 Y-96.776
X82.806 Y-96.792
X82.902 Y-96.796
X84.171 Y-96.89
X84.247 Y-96.897
X85.515 Y-97.052
X85.639 Y-97.072
X86.886 Y-97.325
X87.974 Y-97.515
X88.116 Y-97.546
X88.275 Y-97.589
X88.341 Y-97.608
X89.41 Y-97.948
X90.3 Y-98.081
X90.442 Y-98.085
X90.534 Y-98.09
X91.101 Y-98.139
X91.643
X92.21 Y-98.121
X92.771 Y-98.074
X93.376 Y-97.999
X93.409 Y-97.995
X94.043 Y-97.931
X94.139 Y-97.924
X94.731 Y-97.899
X95.922 Y-97.786
X96.341 Y-97.728
X96.487 Y-97.671
X96.557 Y-97.646
X96.716 Y-97.593
X96.802 Y-97.567
X96.889 Y-97.546
X97.667 Y-97.382
X98.255 Y-97.245
X98.859 Y-97.08
X98.926 Y-97.063
X99.513 Y-96.928
X100.181 Y-96.733
X100.268 Y-96.71
X100.357 Y-96.692
X101.521 Y-96.49
X102.13 Y-96.364
X102.159 Y-96.359
X103.427 Y-96.121
X103.529 Y-96.105
X104.163 Y-96.028
X104.26 Y-96.019
X104.357 Y-96.016
X104.991 Y-96.017
X105.024
X105.658 Y-96.031
X105.798 Y-96.041
X106.433 Y-96.111
X106.578 Y-96.134
X107.847 Y-96.396
X107.993 Y-96.433
X108.836 Y-96.692
X109.674 Y-96.823
X109.762 Y-96.839
X110.396 Y-96.975
X110.494 Y-96.999
X110.59 Y-97.03
X110.749 Y-97.085
X110.828 Y-97.116
X110.906 Y-97.15
X111.064 Y-97.226
X111.163 Y-97.277
X111.258 Y-97.335
X111.591 Y-97.556
X111.876 Y-97.688
X112.344 Y-97.813
X112.906 Y-97.938
X113.349 Y-98.013
X113.457 Y-98.035
X113.548 Y-98.057
X114.121 Y-98.149
X114.226 Y-98.169
X114.788 Y-98.298
X115.35 Y-98.373
X115.394 Y-98.38
X115.99 Y-98.477
X116.585 Y-98.544
X116.632 Y-98.55
X117.266 Y-98.64
X117.322 Y-98.649
X117.956 Y-98.762
X118.046 Y-98.781
X119.949 Y-99.237
X120.046 Y-99.263
X122.583 Y-100.042
X122.603 Y-100.048
X123.812 Y-100.436
X124.362 Y-100.566
X125.793 Y-100.859
X127.404 Y-101.076
X127.506 Y-101.093
X127.955 Y-101.183
X128.07 Y-101.211
X129.366 Y-101.575
X129.468 Y-101.607
X129.567 Y-101.646
X129.64 Y-101.678
X129.693 Y-101.682
X129.78 Y-101.691
X129.868 Y-101.705
X130.026 Y-101.735
X130.122 Y-101.757
X130.217 Y-101.784
X130.455 Y-101.861
X130.511 Y-101.88
X131.542 Y-102.255
X131.62 Y-102.286
X131.696 Y-102.32
X132.33 Y-102.63
X132.449 Y-102.695
X133.084 Y-103.075
X133.137 Y-103.108
X133.415 Y-103.29
X134.351 Y-103.85
X134.43 Y-103.901
X134.512 Y-103.957
G2 X134.726 Y-104.132 I-0.894 J-1.312
G1 X135.051 Y-104.448
X135.126 Y-104.527
X135.197 Y-104.611
X135.228 Y-104.545
X135.295 Y-104.415
G2 X135.435 Y-104.19 I1.413 J-0.723
G1 X135.808 Y-103.689
G2 X136.028 Y-103.449 I1.274 J-0.948
G1 X136.289 Y-103.217
X136.331 Y-103.181
X136.815 Y-102.781
X136.882 Y-102.729
X136.951 Y-102.68
X137.735 Y-102.161
X137.858 Y-102.087
X138.068 Y-101.974
X138.208 Y-101.908
X138.632 Y-101.73
X138.691 Y-101.706
X139.325 Y-101.47
G2 X139.575 Y-101.399 I0.555 J-1.487
G1 X140.209 Y-101.275
X140.278 Y-101.263
X140.912 Y-101.167
X141.033 Y-101.154
X142.381 Y-101.055
X142.511 Y-101.051
X143.635 Y-101.061
X144.204 Y-101.018
X144.308 Y-101.014
X145.523 Y-101.004
X146.103 Y-100.96
X146.167 Y-100.956
X147.385 Y-100.912
X149.171 Y-100.732
X151.009 Y-100.39
X151.046 Y-100.384
X151.68 Y-100.281
X151.71 Y-100.277
X152.344 Y-100.187
X152.404 Y-100.179
X154.281 Y-99.985
X154.816 Y-99.911
X156.612 Y-99.492
X157.845 Y-99.143
X157.903 Y-99.128
X158.855 Y-98.897
X158.886 Y-98.89
X159.183 Y-98.824
X160.432 Y-98.513
X160.587 Y-98.483
X161.856 Y-98.298
X161.882 Y-98.295
X163.081 Y-98.141
X164.258 Y-97.883
X164.8 Y-97.747
X164.99 Y-97.681
X165.407 Y-97.496
X165.872 Y-97.286
X165.922 Y-97.265
X166.852 Y-96.884
X167.753 Y-96.461
X167.79 Y-96.444
X168.513 Y-96.127
X168.921 Y-95.899
X168.966 Y-95.875
X169.6 Y-95.546
X169.666 Y-95.513
X170.268 Y-95.236
X170.713 Y-95.006
X170.781 Y-94.973
X171.558 Y-94.617
X172.153 Y-94.33
X172.764 Y-94.009
X172.858 Y-93.963
X173.493 Y-93.681
X173.534 Y-93.663
X174.168 Y-93.403
X174.205 Y-93.388
X175.1 Y-93.047
X175.421 Y-92.91
X175.453 Y-92.897
X176.087 Y-92.645
X176.11 Y-92.636
X176.745 Y-92.394
X176.78 Y-92.381
X177.398 Y-92.163
X178.016 Y-91.929
X178.122 Y-91.893
X178.756 Y-91.703
X178.804 Y-91.689
X179.438 Y-91.52
X179.57 Y-91.491
X180.204 Y-91.379
X180.281 Y-91.367
X180.915 Y-91.287
X180.992 Y-91.279
X181.626 Y-91.229
X181.735 Y-91.225
X182.369 Y-91.219
X182.432
X183.067 Y-91.238
X183.17 Y-91.245
X183.273 Y-91.258
X183.907 Y-91.361
X183.941 Y-91.367
X185.174 Y-91.595
X186.367 Y-91.758
X186.908 Y-91.805
X188.118 Y-91.827
X188.747 Y-91.835
X188.839 Y-91.838
X188.932 Y-91.848
X189.566 Y-91.93
X189.594 Y-91.934
X190.862 Y-92.12
X190.889 Y-92.125
X192.064 Y-92.318
X192.514 Y-92.337
X192.953 Y-92.307
X193.407 Y-92.213
X193.946 Y-92.047
X194.557 Y-91.837
X194.639 Y-91.812
X194.821 Y-91.76
X194.902 Y-91.74
X194.985 Y-91.723
X195.419 Y-91.648
X196.035 Y-91.527
G2 X196.329 Y-91.498 I0.306 J-1.558
G1 X196.925 Y-91.493
X197.521 Y-91.46
G2 X197.785 Y-91.468 I0.088 J-1.585
G1 X199.054 Y-91.609
X199.157 Y-91.624
X199.539 Y-91.692
X199.651 Y-91.716
X199.903 Y-91.78
G2 X200.141 Y-91.861 I-0.39 J-1.539
G1 X200.776 Y-92.135
X200.834 Y-92.161
X201.468 Y-92.465
X201.552 Y-92.509
X201.633 Y-92.557
X202.268 Y-92.96
X202.381 Y-93.039
X202.667 Y-93.259
X202.769 Y-93.343
X203.466 Y-93.976
G2 X203.792 Y-94.389 I-1.066 J-1.176
G1 X204.077 Y-94.909
X204.503 Y-95.396
X204.907 Y-95.84
X204.981 Y-95.899
X205.051 Y-95.963
X205.685 Y-96.57
X205.794 Y-96.684
X206.149 Y-97.099
X206.23 Y-97.161
X206.307 Y-97.229
X206.941 Y-97.822
X207.024 Y-97.906
X207.101 Y-97.995
X207.388 Y-98.358
X207.478 Y-98.424
X207.563 Y-98.496
X208.197 Y-99.077
G2 X208.417 Y-99.325 I-1.072 J-1.171
G1 X208.627 Y-99.619
G2 X208.876 Y-99.82 I-0.867 J-1.33
G1 X209.408 Y-100.346
G2 X209.697 Y-100.737 I-1.116 J-1.129
G1 X209.8 Y-100.932
X209.826 Y-100.984
X210.035 Y-101.421
G2 X210.173 Y-101.868 I-1.432 J-0.686
G1 X210.193 Y-101.998
X210.744 Y-102.16
G2 X211.077 Y-102.301 I-0.447 J-1.523
G1 X211.645 Y-102.621
G2 X211.88 Y-102.783 I-0.78 J-1.383
G1 X211.946 Y-102.838
G2 X212.22 Y-103.131 I-1.015 J-1.221
G1 X212.636 Y-103.708
G2 X212.905 Y-104.33 I-1.288 J-0.928
G1 X213.03 Y-104.963
G2 X213.059 Y-105.269 I-1.558 J-0.306
G1 Y-105.901
X213.057 Y-105.985
X213.023 Y-106.617
G2 X212.908 Y-107.132 I-1.585 J0.084
G1 X212.651 Y-107.764
X212.599 Y-107.879
X212.505 Y-108.065
X212.632 Y-108.425
X212.884 Y-108.904
X213.248 Y-109.488
X213.262 Y-109.512
X213.505 Y-109.918
X213.795 Y-110.276
X213.831 Y-110.322
X213.95 Y-110.48
X214.025 Y-110.589
X214.051 Y-110.63
X214.648 Y-111.291
X214.694 Y-111.346
X215.107 Y-111.847
X215.142 Y-111.891
X215.578 Y-112.459
X215.894 Y-112.795
G2 X216.051 Y-112.991 I-1.156 J-1.088
G1 X216.185 Y-113.188
X216.644 Y-113.78
X216.666 Y-113.809
X217.061 Y-114.342
X217.074 Y-114.356
X217.306 Y-114.549
X217.338 Y-114.576
X217.643 Y-114.844
X218.337 Y-115.366
X220.571 Y-116.937
X220.647 Y-116.994
X220.72 Y-117.055
X221.066 Y-117.367
X221.08 Y-117.38
X222.156 Y-118.372
X222.788 Y-118.95
X222.828 Y-118.988
X223.797 Y-119.938
X224.429 Y-120.547
X224.656 Y-120.752
X225.256 Y-121.246
X226.519 Y-122.264
X226.54 Y-122.281
X227.174 Y-122.811
X227.207 Y-122.839
X227.741 Y-123.309
X227.738 Y-0.016
X227.737 Y-0.004
X227.721 Y-0.002
X59.949
X59.878 Y-0.006 Z-3.992
X59.809 Y-0.018 Z-3.984
X59.744 Y-0.036 Z-3.961
X59.682 Y-0.061 Z-3.937
X59.628 Y-0.089 Z-3.899
X59.578 Y-0.122 Z-3.861
X59.501 Y-0.186 Z-3.761
X59.451 Y-0.243 Z-3.641
X59.423 Y-0.281 Z-3.506
X59.414 Y-0.294 Z-3.365
Z5
X143.73 Y-40.095
Z0.825
X143.714 Y-40.093 Z0.679 F333.3
X143.664 Y-40.085 Z0.54
X143.583 Y-40.074 Z0.417
X143.477 Y-40.063 Z0.316
X143.349 Y-40.054 Z0.242
X143.208 Y-40.051 Z0.2
G3 X143.225 Y-46.084 Z-1.471 I0.008 J-3.016
X143.208 Y-40.051 Z-3.142 I-0.008 J3.016
X143.225 Y-46.084 Z-4.813 I0.008 J-3.016
X143.208 Y-40.051 Z-6.483 I-0.008 J3.016
X142.362 Y-45.96 Z-8 I0.008 J-3.016
G1 X142.395 Y-45.97 F2000
X142.47 Y-45.992
G3 X142.926 Y-45.948 I0.167 J0.646
G2 X143.872 Y-45.505 I25.664 J-53.556
G3 X144.818 Y-45.062 I-17.898 J39.441
X144.624 Y-44.215 I-0.194 J0.401
G1 X138.181
G3 X138.106 Y-44.971 I0 J-0.382
G2 X140.219 Y-45.432 I-12.473 J-62.164
X142.32 Y-45.949 I-28.276 J-119.61
G1 X142.362 Y-45.96
G2 X143.92 Y-47.268 I-0.721 J-2.44
G3 X145.839 Y-47.942 I1.306 J0.649
G2 X149.725 Y-46.206 I63.254 J-136.328
X155.404 Y-44.331 I13.552 J-31.517
X166.462 Y-42.887 I12.599 J-53.429
X177.612 Y-42.688 I15.378 J-547.738
X181.749 Y-42.725 I0.951 J-123.3
X185.884 Y-42.845 I-17.261 J-668.021
G3 X186.572 Y-42.178 I0.021 J0.667
G1 Y-41.837
G3 X185.905 Y-41.169 I-0.668 J0
G1 X130.963
G3 X129.948 Y-42.335 I0 J-1.025
G2 X130.238 Y-44.737 I-68.189 J-9.449
G3 X131.683 Y-46.482 I2.02 J0.202
X136.664 Y-47.75 I19.238 J65.175
G2 X141.667 Y-48.931 I-26.426 J-123.156
G3 X144.28 Y-48.677 I0.958 J3.717
G2 X145.839 Y-47.942 I64.813 J-135.593
X148.923 Y-48.434 I1.176 J-2.535
G3 X151.989 Y-49.027 I2.005 J2.148
G2 X158.748 Y-47.116 I13.546 J-34.998
X168.249 Y-46.23 I9.719 J-52.862
G3 X177.789 Y-46.116 I-2.437 J600.083
G2 X183.279 Y-46.174 I1.792 J-89.758
G3 X188.767 Y-46.364 I17.026 J412.98
X190.002 Y-45.163 I0.034 J1.201
G1 X190.001 Y-38.957
G3 X188.785 Y-37.74 I-1.217 J0
G1 X126.995
G3 X126.009 Y-38.899 I0 J-0.998
G2 X127.022 Y-47.508 I-97.675 J-15.856
G3 X128.421 Y-49.162 I1.848 J0.145
G1 X141.562 Y-52.451
G3 X145.099 Y-52.093 I1.299 J4.823
G2 X151.747 Y-49.121 I36.927 J-73.682
X151.989 Y-49.027 I13.787 J-34.904
X155.157 Y-49.801 I1.029 J-2.659
G3 X158.264 Y-50.793 I2.382 J2.1
G2 X167.793 Y-49.69 I9.53 J-40.647
G1 X183.175 Y-49.462
G2 X186.271 Y-49.634 I-0.131 J-30.349
G3 X189.367 Y-49.806 I3.048 J26.944
X191.565 Y-49.11 I-0.007 J3.839
G2 X192.052 Y-48.773 I22.711 J-32.38
G3 X193.431 Y-46.173 I-1.764 J2.6
G1 X193.43 Y-35.528
G3 X192.214 Y-34.311 I-1.217 J0
G1 X122.745
G3 X121.847 Y-35.448 I0 J-0.923
G2 X123.201 Y-42.824 I-69.325 J-16.537
X123.712 Y-50.306 I-61.291 J-7.945
G3 X125.015 Y-51.899 I1.64 J0.012
G2 X131.84 Y-53.434 I-50.546 J-240.605
X138.63 Y-55.115 I-114.827 J-478.501
X140.396 Y-55.628 I-6.935 J-27.19
G3 X142.149 Y-56.182 I31.747 J97.338
X145.325 Y-55.85 I1.197 J3.905
G2 X156.167 Y-51.342 I25.495 J-46.027
X158.264 Y-50.793 I11.626 J-40.097
X161.211 Y-51.945 I0.637 J-2.716
G3 X164.072 Y-53.295 I2.569 J1.738
G2 X167.793 Y-53.119 I3.721 J-39.258
G1 X181.891 Y-52.885
G2 X185.7 Y-53.06 I-0.199 J-46.002
G3 X189.508 Y-53.234 I3.737 J39.929
X193.423 Y-51.995 I-0.012 J6.839
G2 X195.539 Y-50.535 I95.174 J-135.693
G3 X196.86 Y-48.05 I-1.677 J2.485
G1 X196.859 Y-32.099
G3 X195.642 Y-30.882 I-1.217 J0
G1 X118.095
G3 X117.297 Y-31.992 I0 J-0.842
G2 X119.775 Y-42.364 I-56.639 J-19.014
X120.199 Y-53.02 I-50.159 J-7.332
G3 X121.314 Y-54.527 I1.448 J-0.095
G1 X135.798 Y-57.933
G2 X139.127 Y-58.794 I-7.631 J-36.369
X142.392 Y-59.871 I-26.416 J-85.587
G3 X145.851 Y-59.509 I1.347 J3.835
G2 X156.383 Y-54.806 I23.773 J-39.1
X164.072 Y-53.295 I11.41 J-37.747
X166.842 Y-54.844 I0.263 J-2.78
G3 X169.537 Y-56.52 I2.69 J1.321
G2 X170.811 Y-56.526 I0.164 J-92.535
G3 X174.708 Y-56.461 I0.811 J67.632
G2 X180.281 Y-56.343 I5.17 J-113.203
X185.855 Y-56.443 I-0.697 J-195.868
X187.842 Y-56.57 I-1.003 J-31.307
G3 X189.83 Y-56.663 I1.952 J20.36
X195.134 Y-54.983 I-0.016 J9.265
G2 X197.045 Y-53.651 I226.481 J-322.904
X198.997 Y-52.382 I22.612 J-32.648
G3 X200.289 Y-50.083 I-1.4 J2.299
G1 X200.288 Y-28.67
G3 X199.071 Y-27.453 I-1.217 J0
G1 X112.773
G3 X112.113 Y-28.52 I0 J-0.737
G2 X115.483 Y-37.939 I-37.621 J-18.773
X116.906 Y-47.841 I-59.829 J-13.652
X116.864 Y-51.88 I-28.203 J-1.727
X116.439 Y-55.896 I-85.181 J6.992
G3 X117.454 Y-57.268 I1.221 J-0.159
G2 X122.078 Y-58.12 I-27.224 J-160.63
X126.665 Y-59.15 I-19.048 J-95.56
X130.258 Y-60.179 I-13.439 J-53.75
G3 X133.89 Y-61.062 I7.792 J24.119
G2 X138.337 Y-62.147 I-5.055 J-30.382
X142.685 Y-63.574 I-204.587 J-630.808
G3 X146.122 Y-63.341 I1.433 J4.317
G1 X146.324 Y-63.241
X146.422 Y-63.191
X146.517 Y-63.135
G2 X150.719 Y-60.706 I44.025 J-71.319
X155.141 Y-58.708 I16.304 J-30.193
X160.94 Y-57.158 I11.269 J-30.53
X166.913 Y-56.562 I7.277 J-42.684
X169.537 Y-56.52 I2.788 J-92.493
X172.137 Y-58.24 I0.005 J-2.817
G3 X174.767 Y-59.914 I2.528 J1.069
G2 X180.031 Y-59.769 I9.897 J-265.02
X183.503 Y-59.801 I1.137 J-65.084
G3 X186.974 Y-59.916 I23.025 J641.36
G2 X188.864 Y-60.024 I-1.088 J-35.683
G3 X190.757 Y-60.068 I1.31 J15.649
X196.756 Y-58.034 I-0.411 J11.077
G2 X199.513 Y-56.119 I102.695 J-144.873
X202.399 Y-54.404 I15.36 J-22.56
G3 X203.718 Y-52.243 I-1.11 J2.16
G1 X203.717 Y-25.241
G3 X202.5 Y-24.024 I-1.217 J0
G1 X106.394
G3 X105.896 Y-25.029 I0 J-0.626
G2 X109.891 Y-31.631 I-28.63 J-21.833
X112.26 Y-38.973 I-28.109 J-13.123
X113.433 Y-48.992 I-69.992 J-13.275
X112.33 Y-59.019 I-32.569 J-1.49
G3 X113.176 Y-60.212 I0.914 J-0.248
G2 X119.553 Y-61.07 I-3.748 J-51.953
X125.833 Y-62.477 I-25.351 J-127.915
X129.561 Y-63.536 I-14.766 J-59.057
G3 X133.327 Y-64.445 I8.194 J25.697
G2 X138.218 Y-65.627 I-5.718 J-34.365
X142.957 Y-67.32 I-22.79 J-71.282
G3 X145.997 Y-67.217 I1.401 J3.543
X149.393 Y-65.337 I-13.728 J28.823
G2 X152.79 Y-63.458 I15.795 J-24.541
X160.382 Y-60.818 I16.431 J-35.013
X168.378 Y-59.984 I7.274 J-30.988
G3 X174.205 Y-59.935 I2.127 J93.804
G2 X174.767 Y-59.914 I10.46 J-264.998
X177.424 Y-61.548 I0.105 J-2.805
G3 X180.071 Y-63.197 I2.572 J1.18
G2 X185.653 Y-63.338 I1.428 J-53.948
G3 X191.546 Y-63.47 I4.055 J49.364
X198.404 Y-61.074 I-0.457 J12.321
G2 X201.15 Y-59.089 I106.551 J-144.535
X204.052 Y-57.339 I13.291 J-18.76
X204.963 Y-56.91 I7.988 J-15.768
G3 X205.879 Y-56.493 I-13.281 J30.396
X207.147 Y-54.49 I-0.949 J2.003
G1 X207.146 Y-21.812
G3 X205.929 Y-20.595 I-1.217 J0
G1 X97.319
G3 X97.047 Y-21.488 I0 J-0.488
G2 X100.591 Y-24.172 I-21.655 J-32.274
X103.62 Y-27.426 I-12.483 J-14.659
X107.859 Y-36.048 I-21.978 J-16.158
X109.781 Y-45.461 I-58.905 J-16.932
X109.811 Y-54.188 I-36.277 J-4.485
X107.339 Y-62.557 I-25.493 J2.978
G3 X108 Y-63.579 I0.636 J-0.313
G2 X113.935 Y-63.671 I2.068 J-57.655
X119.802 Y-64.567 I-2.357 J-35.088
X125.201 Y-66.011 I-25.822 J-107.356
G3 X130.599 Y-67.455 I26.833 J89.506
X134.028 Y-68.161 I14.088 J59.779
G2 X137.446 Y-68.921 I-6.857 J-38.911
X140.264 Y-69.871 I-6.219 J-23.092
X142.986 Y-71.067 I-21.358 J-52.33
G3 X146.153 Y-70.989 I1.506 J3.197
X153.731 Y-66.879 I-261.246 J490.756
G2 X161.848 Y-63.978 I12.967 J-23.474
X168.934 Y-63.427 I6.181 J-33.623
G3 X173.606 Y-63.404 I1.93 J85.115
G1 X179.761 Y-63.206
G2 X180.071 Y-63.197 I1.738 J-53.939
X182.799 Y-64.938 I0.076 J-2.889
G3 X185.527 Y-66.678 I2.678 J1.189
G1 X185.547
G2 X188.974 Y-66.834 I-4.545 J-137.564
G3 X192.405 Y-66.87 I2.091 J36.046
X200.11 Y-64.082 I-0.498 J13.419
G2 X202.754 Y-62.084 I100.266 J-129.931
X205.574 Y-60.344 I11.736 J-15.86
X207.389 Y-59.526 I9.795 J-19.335
X209.246 Y-58.809 I43.155 J-108.989
G3 X210.576 Y-56.888 I-0.723 J1.922
G1 X210.575 Y-18.383
G3 X209.358 Y-17.166 I-1.217 J0
G1 X92.907
G3 X92.053 Y-18.297 I0 J-0.887
G2 X92.477 Y-19.859 I-59.112 J-16.869
X92.804 Y-21.444 I-16.18 J-4.16
G3 X94.417 Y-23.876 I3.45 J0.538
G2 X97.86 Y-26.307 I-18.236 J-29.477
X100.778 Y-29.35 I-10.126 J-12.632
X105.079 Y-38.75 I-20.465 J-15.046
X106.671 Y-48.965 I-72.608 J-16.55
X106.174 Y-55.83 I-21.86 J-1.867
X103.629 Y-62.225 I-22.607 J5.29
G3 X103.239 Y-63.654 I2.484 J-1.447
G2 X103.207 Y-64.598 I-17.331 J0.108
X103.133 Y-65.539 I-26.3 J1.599
G3 X104.979 Y-67.284 I1.601 J-0.155
G2 X116.431 Y-67.355 I5.503 J-35.605
X121.716 Y-68.491 I-10.868 J-63.443
X126.921 Y-69.946 I-35.845 J-138.271
G3 X131.73 Y-71.123 I13.839 J46.121
G2 X136.554 Y-72.232 I-12.478 J-65.355
X139.609 Y-73.318 I-5.369 J-19.937
X142.565 Y-74.65 I-207.433 J-464.183
G3 X146.972 Y-74.451 I2.008 J4.418
G2 X154.734 Y-70.164 I173.042 J-304.205
X163.103 Y-67.234 I13.561 J-25.311
X167.789 Y-66.958 I3.458 J-18.809
G3 X172.483 Y-66.903 I1.987 J30.889
G1 X185.527 Y-66.678
G2 X188.134 Y-68.377 I0.048 J-2.776
G3 X190.727 Y-70.095 I2.588 J1.089
G1 X194.503 Y-70.088
G3 X196.872 Y-69.558 I-1.887 J13.965
G2 X199.196 Y-68.859 I24.621 J-77.74
G3 X200.367 Y-68.184 I-0.758 J2.667
G2 X201.361 Y-67.269 I18.684 J-19.294
X212.78 Y-61.217 I18.536 J-21.175
G3 X214.005 Y-59.631 I-0.413 J1.585
G1 X214.004 Y-14.954
G3 X212.787 Y-13.737 I-1.217 J0
G1 X87.512
G3 X86.921 Y-14.775 I0 J-0.688
G2 X88.768 Y-19.013 I-16.115 J-9.546
X89.592 Y-23.563 I-20.539 J-6.07
G3 X91.184 Y-25.968 I2.928 J0.208
G2 X96.832 Y-30.17 I-9.619 J-18.825
X100.691 Y-36.058 I-13.907 J-13.322
X102.413 Y-42.074 I-24.62 J-10.301
X103.187 Y-48.284 I-82.879 J-13.482
X102.852 Y-54.702 I-23.129 J-2.011
X100.547 Y-60.701 I-18.033 J3.487
G3 X99.81 Y-63.338 I4.388 J-2.646
G2 X99.742 Y-64.958 I-20.109 J0.037
X99.562 Y-66.57 I-27.894 J2.306
G3 X100.529 Y-68.954 I2.536 J-0.359
G2 X100.867 Y-69.217 I-41.661 J-53.788
X101.199 Y-69.486 I-8.508 J-10.843
G3 X102.148 Y-70.069 I2.462 J2.945
G2 X102.434 Y-70.195 I-6.521 J-15.202
G1 X102.972 Y-70.438
G3 X105.211 Y-70.721 I1.58 J3.499
G2 X110.532 Y-70.271 I5.193 J-29.772
X115.852 Y-70.735 I-0.138 J-32.322
X120.932 Y-71.829 I-10.333 J-60.318
X125.936 Y-73.231 I-35.465 J-136.277
G3 X133.356 Y-75.099 I24.54 J81.787
G2 X140.624 Y-77.489 I-6.634 J-32.419
X141.382 Y-77.863 I-7.219 J-15.591
X142.127 Y-78.261 I-25.42 J-48.495
G3 X145.484 Y-78.642 I2.147 J3.947
X147.967 Y-77.6 I-2.91 J10.416
G2 X150.352 Y-76.349 I17.224 J-29.934
G3 X155.068 Y-73.854 I-26.991 J56.724
G2 X159.891 Y-71.576 I15.363 J-26.276
X164.988 Y-70.37 I7.497 J-20.312
X170.226 Y-70.383 I2.559 J-22.943
G3 X174.029 Y-70.369 I1.842 J15.764
G2 X177.824 Y-70.119 I4.048 J-32.505
G1 X190.727 Y-70.095
G2 X193.351 Y-71.837 I0.005 J-2.84
G3 X196.145 Y-73.291 I2.271 J0.952
X197.589 Y-72.913 I-3.763 J17.285
G2 X200.134 Y-72.159 I35.925 J-116.673
G3 X202.965 Y-70.511 I-1.808 J6.362
G2 X205.506 Y-68.444 I12.159 J-12.355
X210.581 Y-65.615 I20.265 J-30.386
X216.191 Y-64.101 I7.342 J-16.055
G3 X217.434 Y-62.73 I-0.135 J1.372
G1 X217.433 Y-11.525
G3 X216.216 Y-10.308 I-1.217 J0
G1 X79.023
G3 X78.777 Y-11.19 I0 J-0.475
G2 X86.176 Y-25.429 I-7.941 J-13.168
G3 X87.369 Y-27.687 I2.433 J-0.16
X90.5 Y-29.412 I30.291 J51.271
G2 X93.45 Y-31.43 I-6.469 J-12.622
X96.591 Y-35.526 I-9.06 J-10.2
X98.491 Y-40.326 I-26.602 J-13.309
X99.341 Y-44.421 I-23.461 J-7.004
X99.771 Y-48.581 I-128.276 J-15.349
X99.518 Y-53.886 I-19.758 J-1.718
X97.653 Y-58.858 I-14.839 J2.729
G3 X96.381 Y-63.477 I7.809 J-4.635
G2 X96.242 Y-65.688 I-18.096 J0.033
X95.877 Y-67.873 I-26.73 J3.34
G3 X96.864 Y-70.478 I2.531 J-0.53
X99.204 Y-72.176 I71.485 J96.063
X101.703 Y-73.628 I9.373 J13.251
X105.582 Y-74.137 I2.743 J5.869
G2 X116.386 Y-74.364 I4.835 J-27.159
X126.845 Y-77.084 I-32.223 J-145.38
G3 X131.689 Y-78.238 I12.566 J41.999
G2 X136.524 Y-79.426 I-6.864 J-38.359
X139.049 Y-80.49 I-4.404 J-13.991
X141.453 Y-81.806 I-72.53 J-135.32
G3 X145.545 Y-82.204 I2.501 J4.473
X156.183 Y-77.169 I-14.497 J44.385
G2 X167.43 Y-73.699 I11.913 J-18.651
X170.573 Y-73.734 I1.144 J-37.961
G3 X173.717 Y-73.679 I1.181 J22.407
G1 X186.558 Y-73.573
G2 X190.781 Y-73.726 I-11.149 J-365.758
G3 X195 Y-73.501 I0.933 J22.193
X196.145 Y-73.291 I-2.617 J17.496
G2 X198.883 Y-74.366 I0.563 J-2.588
G3 X201.68 Y-75.272 I1.995 J1.39
X204.255 Y-73.85 I-2.894 J8.28
G2 X209.88 Y-69.753 I49.66 J-62.278
X216.435 Y-67.42 I7.97 J-12.013
X218.087 Y-67.331 I1.815 J-18.4
X219.739 Y-67.441 I0.096 J-11.019
G3 X220.863 Y-66.465 I0.139 J0.976
G1 X220.861 Y-8.096
G3 X219.645 Y-6.879 I-1.217 J0
G1 X8.095
G3 X6.878 Y-8.096 I0 J-1.217
G1 Y-8.421
G3 X7.673 Y-9.552 I1.202 J0
G2 X8.448 Y-9.842 I-10.146 J-28.228
X9.212 Y-10.158 I-7.774 J-19.889
G3 X10.074 Y-10.277 I0.643 J1.474
G2 X19.031 Y-9.322 I20.024 J-145.312
X28.039 Y-9.214 I5.352 J-70.739
G3 X32.832 Y-9.088 I1.586 J30.745
G2 X37.626 Y-8.961 I3.129 J-27.652
G1 X52.972 Y-9.243
G3 X56.981 Y-9.091 I0.018 J52.608
G2 X60.992 Y-9.182 I1.546 J-20.32
G3 X64.144 Y-9.552 I42.588 J349.525
X67.308 Y-9.8 I5.234 J46.438
G2 X72.292 Y-11.198 I-0.504 J-11.379
X76.774 Y-13.788 I-58.909 J-107.126
X81.955 Y-20.019 I-6.445 J-10.628
X82.515 Y-28.104 I-13.152 J-4.974
G3 X83.363 Y-29.628 I1.274 J-0.289
G2 X85.045 Y-30.326 I-4.873 J-14.119
X86.607 Y-31.259 I-4.745 J-9.717
G3 X87.744 Y-31.92 I3.989 J5.555
G2 X92.858 Y-36.188 I-5.302 J-11.552
X95.445 Y-42.326 I-13.008 J-9.096
X96.447 Y-49.388 I-75.444 J-14.309
X95.158 Y-56.403 I-13.017 J-1.234
X94.59 Y-57.362 I-6.517 J3.212
G3 X93.978 Y-58.294 I14.895 J-10.446
X92.952 Y-62.086 I5.932 J-3.639
G2 X92.93 Y-64.44 I-37.48 J-0.823
X92.696 Y-66.782 I-20.07 J0.82
X92.41 Y-68.385 I-43.205 J6.888
G3 X92.298 Y-70.01 I6.347 J-1.256
X93.74 Y-72.494 I3.173 J0.181
G2 X97.522 Y-75.003 I-125.842 J-193.763
G3 X101.423 Y-77.324 I21.563 J31.816
X104.926 Y-77.752 I2.327 J4.498
G2 X115.305 Y-77.593 I5.547 J-23.229
X125.351 Y-80.208 I-20.617 J-99.78
G3 X130.74 Y-81.552 I13.644 J43.237
G2 X136.129 Y-82.896 I-8.391 J-45.126
X139.892 Y-84.69 I-4.489 J-14.263
G3 X143.871 Y-85.934 I4.14 J6.255
X145.501 Y-85.655 I0.093 J4.357
G2 X147.072 Y-85.141 I6.638 J-17.62
G3 X157.06 Y-80.513 I-9.213 J32.975
G2 X167.533 Y-77.126 I11.068 J-16.341
X169.787 Y-77.249 I0.402 J-13.354
G3 X172.044 Y-77.298 I1.336 J9.548
G2 X177.545 Y-76.958 I7.753 J-80.815
X183.056 Y-76.894 I4.768 J-171.804
X190.196 Y-77.13 I-0.537 J-124.25
G3 X197.306 Y-76.429 I1.384 J22.362
G2 X200.915 Y-75.501 I71.349 J-269.939
G3 X201.68 Y-75.272 I-2.128 J8.509
G2 X204.414 Y-75.812 I0.907 J-2.596
G3 X207.2 Y-75.897 I1.443 J1.624
G2 X211.162 Y-72.898 I85.337 J-108.666
X216.764 Y-70.764 I6.722 J-9.225
X220.092 Y-70.948 I1.069 J-10.844
X223.224 Y-72.087 I-2.473 J-11.677
G3 X224.292 Y-71.445 I0.341 J0.642
G1 X224.29 Y-4.667
G3 X223.074 Y-3.45 I-1.217 J0
G1 X4.667
G3 X3.45 Y-4.667 I0 J-1.217
G1 X3.449 Y-10.601
G3 X4.731 Y-12.256 I1.708 J0
G2 X6.087 Y-12.623 I-14.148 J-54.85
X7.409 Y-13.098 I-2.87 J-10.085
G1 X7.614 Y-13.194
X7.818 Y-13.291
G3 X10.567 Y-13.671 I2.049 J4.697
G2 X19.19 Y-12.747 I19.599 J-142.226
X27.862 Y-12.639 I5.181 J-67.569
G3 X32.641 Y-12.511 I1.576 J30.558
G2 X37.421 Y-12.384 I3.125 J-27.491
G1 X52.971 Y-12.672
G3 X56.773 Y-12.514 I0.015 J45.464
G2 X60.577 Y-12.586 I1.551 J-18.563
G1 X63.62 Y-12.957
G3 X66.522 Y-13.198 I4.579 J37.578
G2 X69.59 Y-13.839 I-0.431 J-9.719
X72.357 Y-15.312 I-4.661 J-12.093
G1 X72.529 Y-15.44
X72.7 Y-15.569
G3 X73.566 Y-16.08 I3.023 J4.138
G2 X78.88 Y-21.407 I-4.593 J-9.896
X78.677 Y-28.929 I-7.71 J-3.555
X78.182 Y-29.788 I-12.091 J6.389
G3 X77.679 Y-30.644 I15.385 J-9.617
X78.225 Y-31.856 I0.728 J-0.402
X80.846 Y-32.418 I29.101 J129.526
G2 X83.389 Y-33.269 I-2.193 J-10.775
X84.056 Y-33.656 I-2.064 J-4.325
X84.685 Y-34.101 I-24.434 J-35.235
G3 X86.218 Y-34.992 I5.334 J7.404
G2 X91.084 Y-39.77 I-4.182 J-9.127
X92.512 Y-44.734 I-13.689 J-6.624
X92.983 Y-49.878 I-141.657 J-15.561
X92.462 Y-53.732 I-9.415 J-0.69
X90.626 Y-57.16 I-12.271 J4.366
G3 X89.482 Y-60.869 I4.632 J-3.46
G2 X89.588 Y-63.746 I-227.402 J-9.806
X89.304 Y-66.61 I-11.159 J-0.34
G3 X88.962 Y-69.232 I13.074 J-3.035
X88.93 Y-71.875 I71.325 J-2.199
X90.271 Y-74.336 I2.963 J0.018
X92.541 Y-75.733 I26.207 J40.062
G2 X94.723 Y-77.264 I-7.552 J-13.081
G3 X98.07 Y-79.351 I8.932 J10.598
G2 X101.512 Y-81.277 I-8.332 J-18.924
G3 X103.968 Y-81.601 I1.543 J2.227
G2 X112.61 Y-80.67 I6.253 J-17.472
X121.105 Y-82.509 I-6.658 J-51.29
G3 X126.679 Y-83.965 I20.143 J65.735
G2 X132.286 Y-85.287 I-33.72 J-155.508
X139.14 Y-88.117 I-6.482 J-25.414
G3 X146.511 Y-88.923 I4.577 J7.75
X150.284 Y-87.668 I-113.88 J348.668
X153.934 Y-86.091 I-7.85 J23.181
G2 X156.221 Y-85.009 I12.506 J-23.493
G3 X158.517 Y-83.945 I-12.16 J29.242
X159.743 Y-83.188 I-4.165 J8.119
G2 X167.793 Y-80.551 I8.064 J-11.011
X169.493 Y-80.716 I0 J-8.834
G3 X171.198 Y-80.816 I1.217 J6.206
G2 X176.48 Y-80.459 I20.94 J-270.495
X181.772 Y-80.317 I4.923 J-85.167
G1 X195.771 Y-80.325
G3 X198.923 Y-79.673 I-1.865 J16.959
G2 X202.01 Y-78.759 I43.926 J-142.757
G3 X204.313 Y-77.864 I-3.609 J12.696
X206.395 Y-76.533 I-5.311 J10.603
G2 X207.2 Y-75.897 I86.142 J-108.029
X210.465 Y-75.579 I1.881 J-2.396
G3 X213.746 Y-75.583 I1.645 J3.225
G1 X214.655 Y-75.123
X214.733 Y-75.086
X214.813 Y-75.054
X215.726 Y-74.71
X216.015 Y-74.586
G2 X216.396 Y-74.476 I0.626 J-1.459
G1 X217.031 Y-74.377
X217.12 Y-74.366
X218.388 Y-74.241
G2 X218.884 Y-74.27 I0.156 J-1.58
G1 X219.519 Y-74.409
X219.628 Y-74.437
X220.194 Y-74.604
X220.304 Y-74.626
X220.431 Y-74.657
X220.886 Y-74.788
G2 X221.193 Y-74.912 I-0.438 J-1.526
G1 X222.462 Y-75.587
X222.58 Y-75.656
X223.288 Y-76.115
X223.343 Y-76.153
X224.234 Y-76.785
X224.298 Y-76.833
X226.679 Y-78.71
X227.041 Y-78.972
X227.599 Y-79.317
X227.741 Y-79.397
X227.738 Y-0.016
X227.737 Y-0.004
X227.721 Y-0.002
X0.019
X0.004 Y-0.004
X0.002 Y-0.016
X0 Y-14.734
X0.155 Y-14.742
X0.472 Y-14.773
X0.59 Y-14.79
X0.706 Y-14.815
X1.319 Y-14.97
X2.329 Y-15.198
X2.377 Y-15.209
X4.518 Y-15.762
X4.527 Y-15.764
X4.83 Y-15.844
X4.961 Y-15.885
X5.927 Y-16.232
X6.025 Y-16.271
X7.294 Y-16.824
X7.343 Y-16.847
X8.014 Y-17.167
X8.238 Y-17.241
X8.614 Y-17.268
X9.183 Y-17.263
X9.244 Y-17.264
X9.728 Y-17.279
X10.213 Y-17.201
X10.249 Y-17.195
X11.517 Y-17.02
X11.537 Y-17.018
X12.171 Y-16.938
X12.201 Y-16.935
X14.105 Y-16.734
X14.127 Y-16.731
X14.736 Y-16.676
X15.345 Y-16.6
X15.388 Y-16.595
X17.091 Y-16.431
X17.165 Y-16.426
X18.633 Y-16.353
X18.666 Y-16.351
X19.301 Y-16.333
X19.363 Y-16.332
X19.972 Y-16.338
X21.216 Y-16.312
X21.225 Y-16.311
X22.479 Y-16.292
X23.098 Y-16.27
X23.125
X23.744 Y-16.259
X24.364 Y-16.236
X24.396 Y-16.235
X25.651 Y-16.215
X26.272 Y-16.194
X26.421 Y-16.196
X27.032 Y-16.233
X27.642 Y-16.252
X27.676 Y-16.253
X29.563 Y-16.351
X30.098 Y-16.368
X31.904 Y-16.234
X33.16 Y-16.12
X33.19 Y-16.117
X34.459 Y-16.027
X34.551 Y-16.023
X36.454 Y-15.998
X36.466
X37.1 Y-15.994
X37.204 Y-15.997
X38.473 Y-16.073
X38.492 Y-16.074
X39.11 Y-16.118
X40.952 Y-16.213
X41.516 Y-16.21
X42.104 Y-16.188
X43.986 Y-16.067
X44.035 Y-16.065
X44.669 Y-16.044
X44.725 Y-16.043
X45.36 Y-16.044
X45.409 Y-16.045
X46.678 Y-16.087
X46.699 Y-16.088
X47.333 Y-16.117
X47.383 Y-16.12
X49.268 Y-16.267
X49.862 Y-16.3
X51.075 Y-16.332
X52.295 Y-16.314
X52.914 Y-16.292
X52.97 Y-16.291
X53.59 Y-16.292
X54.846 Y-16.271
X54.874 Y-16.27
X56.134 Y-16.272
X56.738 Y-16.265
X57.964 Y-16.22
X58.576 Y-16.18
X58.667 Y-16.177
X59.935 Y-16.167
X60.038 Y-16.17
X60.139 Y-16.179
X61.408 Y-16.334
X61.54 Y-16.355
X63.359 Y-16.734
X63.833 Y-16.78
X65.027 Y-16.784
X65.058
X66.327 Y-16.812
X66.362 Y-16.814
X66.996 Y-16.842
X67.115 Y-16.851
X67.233 Y-16.87
X67.55 Y-16.933
X67.658 Y-16.958
X68.609 Y-17.215
X68.701 Y-17.243
X69.018 Y-17.35
G2 X69.308 Y-17.481 I-0.506 J-1.505
G1 X69.625 Y-17.665
X69.692 Y-17.706
X70.326 Y-18.117
X70.373 Y-18.148
X70.639 Y-18.335
G2 X70.879 Y-18.54 I-0.91 J-1.301
G1 X71.221 Y-18.899
X71.728 Y-19.049
X71.833 Y-19.084
X71.936 Y-19.126
X72.103 Y-19.202
X72.193 Y-19.247
X72.28 Y-19.297
X73.119 Y-19.815
X73.447 Y-20.01
X73.517 Y-20.055
X73.585 Y-20.103
X73.694 Y-20.184
X73.803 Y-20.273
X73.912 Y-20.371
X73.984 Y-20.44
X74.053 Y-20.514
X74.425 Y-20.944
X74.584 Y-21.098
X74.652 Y-21.169
X74.744 Y-21.27
X74.828 Y-21.371
X74.905 Y-21.471
X74.991 Y-21.595
X75.083 Y-21.743
X75.126 Y-21.815
X75.165 Y-21.89
X75.237 Y-22.038
X75.285 Y-22.146
X75.324 Y-22.257
X75.43 Y-22.594
X75.442 Y-22.634
X75.803 Y-23.899
G2 X75.855 Y-24.174 I-1.527 J-0.436
G1 X75.888 Y-24.49
G2 X75.887 Y-24.816 I-1.579 J-0.16
G1 X75.847 Y-25.197
X75.86 Y-25.54
Y-25.631
X75.848 Y-26.263
G2 X75.786 Y-26.671 I-1.587 J0.032
G1 X75.695 Y-26.987
G2 X75.573 Y-27.289 I-1.525 J0.44
G1 X75.308 Y-27.791
X75.297 Y-27.81
X74.663 Y-28.972
X74.598 Y-29.081
X74.239 Y-29.63
X74.199 Y-29.688
X73.923 Y-30.071
X73.877 Y-30.132
X73.679 Y-30.381
X73.635 Y-30.434
X73.199 Y-30.935
X73.142 Y-30.998
X73.081 Y-31.057
X72.447 Y-31.647
G2 X72.245 Y-31.806 I-1.08 J1.163
G1 X71.983 Y-31.98
X71.925 Y-32.016
X71.604 Y-32.21
X71.235 Y-32.474
X71.492 Y-32.614
G2 X71.722 Y-32.767 I-0.76 J-1.394
G1 X72.277 Y-33.21
G2 X72.567 Y-33.511 I-0.99 J-1.241
G1 X72.646 Y-33.618
X72.703 Y-33.701
X72.754 Y-33.787
X73.223 Y-34.632
X73.955 Y-34.655
X74.009 Y-34.658
X74.643 Y-34.7
X74.796 Y-34.718
X76.065 Y-34.927
X76.133 Y-34.939
X77.402 Y-35.206
X77.424 Y-35.21
X78.68 Y-35.493
X79.936 Y-35.753
X80.014 Y-35.771
X80.091 Y-35.793
X80.725 Y-35.993
X80.766 Y-36.007
X81.559 Y-36.28
X81.643 Y-36.312
X81.725 Y-36.348
X81.883 Y-36.424
X82.007 Y-36.49
X82.477 Y-36.768
X82.598 Y-36.846
X82.751 Y-36.957
X82.808 Y-37
X83.607 Y-37.632
X83.691 Y-37.704
X83.771 Y-37.782
X83.788 Y-37.8
X83.891 Y-37.835
X84.411 Y-37.98
G2 X84.649 Y-38.066 I-0.424 J-1.53
G1 X84.874 Y-38.169
X84.962 Y-38.213
X85.048 Y-38.263
X85.524 Y-38.557
X85.575 Y-38.59
X86.139 Y-38.969
X86.225 Y-39.031
X86.307 Y-39.099
X86.492 Y-39.264
X86.563 Y-39.331
X86.63 Y-39.402
X86.724 Y-39.51
X86.811 Y-39.618
X86.89 Y-39.726
X86.962 Y-39.832
X87.294 Y-40.369
X87.451 Y-40.605
X87.508 Y-40.698
X87.559 Y-40.794
X87.826 Y-41.347
X87.862 Y-41.426
X87.982 Y-41.712
X88.023 Y-41.822
X88.056 Y-41.934
X88.144 Y-42.281
X88.156 Y-42.334
X88.248 Y-42.758
X88.357 Y-43.03
X88.404 Y-43.165
X88.452 Y-43.323
X88.473 Y-43.402
X88.49 Y-43.482
X88.52 Y-43.64
X88.536 Y-43.745
X88.546 Y-43.852
X88.565 Y-44.226
X88.719 Y-44.765
G2 X88.777 Y-45.106 I-1.527 J-0.435
G1 X88.796 Y-45.422
X88.798 Y-45.525
X88.794 Y-45.628
X88.784 Y-45.771
X88.941 Y-46.824
X89.155 Y-47.892
X89.174 Y-48.009
X89.271 Y-48.799
X89.277 Y-48.856
X89.332 Y-49.489
X89.335 Y-49.529
X89.373 Y-50.142
X89.398 Y-50.44
X89.404 Y-50.546
X89.402 Y-50.654
X89.386 Y-50.97
X89.376 Y-51.088
X89.217 Y-52.353
X89.204 Y-52.438
X89.176 Y-52.596
X89.159 Y-52.676
X89.139 Y-52.755
X89.093 Y-52.913
X89.068 Y-52.992
X89.039 Y-53.069
X88.974 Y-53.227
X88.928 Y-53.331
X88.85 Y-53.49
X88.779 Y-53.618
X87.945 Y-54.977
X87.884 Y-55.07
X87.816 Y-55.158
X87.182 Y-55.926
X87.087 Y-56.03
X86.476 Y-56.65
X86.194 Y-56.96
X86.096 Y-57.092
X86.025 Y-57.396
Y-57.845
X86.024 Y-57.911
X85.999 Y-58.523
X85.981 Y-59.72
X86.061 Y-61.571
X86.062 Y-61.602
X86.077 Y-62.235
Y-62.275
X86.075 Y-63.54
X86.068 Y-63.69
X86.006 Y-64.322
X85.998 Y-64.391
X85.909 Y-65.024
X85.905 Y-65.051
X85.804 Y-65.684
X85.782 Y-65.793
X85.607 Y-66.546
X85.529 Y-66.953
X85.456 Y-67.505
X85.406 Y-68.078
X85.373 Y-68.633
X85.386 Y-69.791
X85.43 Y-70.373
X85.434 Y-70.51
X85.428 Y-71.066
X85.475 Y-71.622
X85.481 Y-71.747
X85.485 Y-72.331
X85.524 Y-72.916
X85.527 Y-73.021
Y-73.624
X85.547 Y-74.162
X85.676 Y-75.238
X85.705 Y-75.343
X85.747 Y-75.441
X86.278 Y-75.857
X86.863 Y-76.28
X87.42 Y-76.651
X88.001 Y-76.976
X88.095 Y-77.033
X88.73 Y-77.448
X88.754 Y-77.464
X89.37 Y-77.883
X89.538 Y-77.991
X89.935 Y-78.225
X90.016 Y-78.276
X90.65 Y-78.703
X90.721 Y-78.753
X91.99 Y-79.713
X92.005 Y-79.724
X92.343 Y-79.986
X92.394 Y-80.027
X92.69 Y-80.277
X92.728 Y-80.31
X93.12 Y-80.662
X93.81 Y-81.213
X94.332 Y-81.546
X94.424 Y-81.589
X94.55 Y-81.653
X95.554 Y-82.23
X95.704 Y-82.295
X96.012 Y-82.407
X96.057 Y-82.423
X96.691 Y-82.674
X96.76 Y-82.703
X97.319 Y-82.956
X97.381 Y-82.985
X98.091 Y-83.343
X98.106 Y-83.35
X99.375 Y-84.007
G2 X99.669 Y-84.204 I-0.73 J-1.41
G1 X100.303 Y-84.739
G2 X100.521 Y-84.963 I-1.024 J-1.213
G1 X100.784 Y-85.294
X100.882 Y-85.369
X100.93 Y-85.407
X101.238 Y-85.664
X101.444 Y-85.805
G2 X101.73 Y-86.055 I-0.896 J-1.31
G1 X101.931 Y-86.279
X102.62 Y-85.889
X102.705 Y-85.844
X102.792 Y-85.805
X103.084 Y-85.683
X103.694 Y-85.404
X103.782 Y-85.367
X105.051 Y-84.876
X105.088 Y-84.862
X105.249 Y-84.805
X105.35 Y-84.773
X106.458 Y-84.458
X106.536 Y-84.438
X106.614 Y-84.422
X107.565 Y-84.252
X107.658 Y-84.239
X107.975 Y-84.201
X108.078 Y-84.193
X108.713 Y-84.16
X108.744 Y-84.158
X109.378 Y-84.138
X109.42 Y-84.137
X110.055 Y-84.133
X110.107 Y-84.134
X111.376 Y-84.168
X111.49 Y-84.175
X112.124 Y-84.238
X112.166 Y-84.243
X112.8 Y-84.323
X112.87 Y-84.333
X113.504 Y-84.442
X113.539 Y-84.448
X114.174 Y-84.572
X114.242 Y-84.587
X114.946 Y-84.756
X114.981 Y-84.765
X116.152 Y-85.075
X117.381 Y-85.353
X118.637 Y-85.617
X118.696 Y-85.631
X119.965 Y-85.948
X120.045 Y-85.97
X121.939 Y-86.551
X123.199 Y-86.921
X123.23 Y-86.93
X123.841 Y-87.123
X125.673 Y-87.641
X126.239 Y-87.763
X127.471 Y-87.996
X129.356 Y-88.31
X129.422 Y-88.322
X130.056 Y-88.456
X130.122 Y-88.471
X131.391 Y-88.795
X131.412 Y-88.8
X132.046 Y-88.971
X132.143 Y-89
X132.237 Y-89.036
X132.776 Y-89.257
X133.311 Y-89.4
X133.379 Y-89.42
X134.013 Y-89.619
G2 X134.277 Y-89.73 I-0.477 J-1.514
G1 X134.837 Y-90.025
X135.392 Y-90.246
X135.492 Y-90.29
X135.587 Y-90.34
X136.027 Y-90.589
X136.149 Y-90.65
X136.214 Y-90.684
X136.849 Y-91.039
X136.914 Y-91.078
X137.524 Y-91.458
X138.198 Y-91.844
X138.576 Y-92.021
X139.729 Y-92.424
X140.299 Y-92.589
X140.844 Y-92.73
X141.37 Y-92.817
X141.921 Y-92.881
X143.721 Y-92.985
X144.297 Y-92.977
X144.371
X145.313 Y-93.007
X145.436 Y-92.977
X145.508 Y-92.961
X146.481 Y-92.772
X146.97 Y-92.627
X147.534 Y-92.4
X147.634 Y-92.364
X148.903 Y-91.949
X148.969 Y-91.929
X150.238 Y-91.575
X150.246 Y-91.572
X150.854 Y-91.406
X151.784 Y-91.117
X152.621 Y-90.817
X153.262 Y-90.542
X153.764 Y-90.306
X154.412 Y-89.965
X155.589 Y-89.295
X155.628 Y-89.274
X156.263 Y-88.936
X156.327 Y-88.904
X157.576 Y-88.31
X158.192 Y-87.996
X158.268 Y-87.96
X158.346 Y-87.928
X158.874 Y-87.726
X159.378 Y-87.446
X159.983 Y-87.074
X160.082 Y-87.017
X160.185 Y-86.968
X160.892 Y-86.663
X161.277 Y-86.343
X161.352 Y-86.285
X161.779 Y-85.971
G2 X162.124 Y-85.779 I0.94 J-1.28
G1 X162.914 Y-85.46
X162.957 Y-85.443
X163.297 Y-85.317
X163.929 Y-84.938
G2 X164.196 Y-84.81 I0.817 J-1.361
G1 X164.706 Y-84.622
X164.798 Y-84.591
X164.891 Y-84.566
X165.526 Y-84.417
X165.603 Y-84.4
X166.237 Y-84.284
X166.357 Y-84.266
X166.991 Y-84.199
X167.111 Y-84.191
X167.745 Y-84.172
X167.829 Y-84.171
X168.464 Y-84.186
X168.612 Y-84.196
X169.246 Y-84.27
X169.279 Y-84.274
X170.474 Y-84.439
X170.947 Y-84.46
X171.477 Y-84.425
X172.717 Y-84.315
X173.328 Y-84.252
X173.95 Y-84.178
X173.998 Y-84.173
X174.633 Y-84.117
X174.699 Y-84.112
X175.968 Y-84.054
X176.017 Y-84.053
X177.92 Y-84.025
X177.931
X178.546 Y-84.02
X180.43 Y-83.96
X180.453 Y-83.959
X181.722 Y-83.937
X181.757
X183.025 Y-83.942
X183.069 Y-83.943
X184.973 Y-84.004
X186.239 Y-84.046
X188.749 Y-84.116
X190.6 Y-84.113
X193.11 Y-84.019
X193.143
X195.024 Y-83.988
X195.62 Y-83.962
X196.167 Y-83.927
X196.706 Y-83.842
X197.265 Y-83.738
X198.46 Y-83.429
X199.073 Y-83.253
X199.107 Y-83.243
X201.01 Y-82.74
X201.031 Y-82.735
X203 Y-82.243
X204.675 Y-81.708
X204.73 Y-81.686
X205.161 Y-81.483
X205.738 Y-81.192
X206.95 Y-80.498
X207.89 Y-79.92
X208.654 Y-79.366
X210.52 Y-77.733
X210.586 Y-77.678
X210.654 Y-77.627
X211.289 Y-77.182
X211.32 Y-77.161
X211.936 Y-76.75
X212.786 Y-76.15
X212.827 Y-76.122
X213.229 Y-75.857
X213.306 Y-75.809
X213.386 Y-75.766
X213.746 Y-75.583
X213.807 Y-75.548 Z-7.992
X213.864 Y-75.506 Z-7.984
X213.913 Y-75.461 Z-7.961
X213.958 Y-75.41 Z-7.937
X213.993 Y-75.361 Z-7.899
X214.023 Y-75.309 Z-7.861
X214.062 Y-75.217 Z-7.761
X214.081 Y-75.144 Z-7.641
X214.089 Y-75.097 Z-7.506
X214.091 Y-75.082 Z-7.365
Z5
X154.842 Y-34.88
Z-3.175 F333.3
X154.826 Y-34.886 Z-3.321
X154.779 Y-34.904 Z-3.46
X154.704 Y-34.936 Z-3.583
X154.606 Y-34.98 Z-3.684
X154.492 Y-35.037 Z-3.758
X154.369 Y-35.106 Z-3.8
G3 X157.44 Y-40.299 Z-5.471 I1.535 J-2.596
X154.369 Y-35.106 Z-7.142 I-1.535 J2.596
X157.44 Y-40.299 Z-8.813 I1.535 J-2.596
X154.369 Y-35.106 Z-10.483 I-1.535 J2.596
X156.633 Y-40.63 Z-12 I1.535 J-2.596
G2 X180.586 Y-39.153 I15.976 J-64.155 F2000
G1 X180.687 Y-39.157
X180.788 Y-39.146
G2 X183.42 Y-38.668 I30.62 J-161.171
X186.068 Y-38.284 I8.361 J-48.294
G3 X186.026 Y-37.558 I-0.042 J0.362
G1 X155.527 Y-37.557
G3 X154.588 Y-38.705 I0 J-0.958
G2 X154.81 Y-39.893 I-38.367 J-7.76
G3 X156.139 Y-40.755 I1.061 J0.181
G2 X156.633 Y-40.63 I16.47 J-64.03
X159.401 Y-41.626 I0.639 J-2.567
G3 X162.13 Y-42.725 I2.257 J1.665
G2 X166.562 Y-42.16 I8.894 J-52.079
X180.219 Y-42.38 I5.743 J-67.747
G3 X181.383 Y-42.338 I0.447 J3.812
G2 X184.685 Y-41.75 I26.88 J-141.258
X188.016 Y-41.352 I5.993 J-36.053
G1 X188.133 Y-41.347
X188.25 Y-41.34
G3 X189.635 Y-40.82 I-0.285 J2.86
X190.842 Y-39.94 I-42.173 J59.11
G2 X192.068 Y-39.087 I13.628 J-18.293
G1 X192.259 Y-38.972
X192.449 Y-38.857
G3 X193.431 Y-37.052 I-1.169 J1.805
G1 Y-35.527
G3 X192.214 Y-34.311 I-1.217 J0
G1 X151.21 Y-34.31
G3 X150.389 Y-35.427 I0 J-0.86
G2 X151.491 Y-39.811 I-37.737 J-11.81
X152.053 Y-44.297 I-34.579 J-6.611
G3 X153.215 Y-45.064 I0.869 J0.053
G2 X162.13 Y-42.725 I17.809 J-49.74
X164.867 Y-43.991 I0.448 J-2.623
G3 X167.527 Y-45.408 I2.497 J1.481
G2 X179.874 Y-45.792 I3.985 J-70.706
G3 X181.971 Y-45.717 I0.807 J6.791
G2 X185.107 Y-45.156 I23.619 J-123.001
X188.271 Y-44.779 I5.704 J-34.41
G3 X191.875 Y-43.43 I-0.498 J6.821
G2 X193.367 Y-42.361 I25.124 J-33.508
X194.89 Y-41.337 I71.975 J-105.313
X195.17 Y-41.153 I29.872 J-45.087
G3 X195.441 Y-40.956 I-1.896 J2.901
X196.86 Y-38 I-2.369 J2.956
G1 Y-32.099
G3 X195.643 Y-30.882 I-1.217 J0
G1 X146.001 Y-30.881
G3 X145.331 Y-31.952 I0 J-0.745
G2 X148.797 Y-45.749 I-31.212 J-15.175
X148.777 Y-47.499 I-16.593 J-0.687
G3 X148.68 Y-49.246 I100.968 J-6.474
X149.738 Y-50.059 I0.812 J-0.038
X152.241 Y-49.046 I-5.244 J16.549
G2 X154.725 Y-47.986 I10.153 J-20.358
X167.172 Y-45.429 I15.213 J-42.488
X167.527 Y-45.408 I4.34 J-70.685
X170.239 Y-47.022 I0.159 J-2.819
G3 X172.889 Y-48.737 I2.705 J1.276
G2 X179.603 Y-49.213 I-1.199 J-64.486
G3 X182.485 Y-49.11 I1.12 J9.056
G2 X185.486 Y-48.553 I26.991 J-137.115
X188.515 Y-48.18 I5.261 J-30.193
X188.824 Y-48.164 I0.516 J-7.07
G3 X189.133 Y-48.145 I-0.137 J4.675
X193.425 Y-46.54 I-0.842 J8.797
X194.58 Y-45.646 I-10.891 J15.257
G2 X195.754 Y-44.778 I7.627 J-9.093
G3 X197.354 Y-43.715 I-44.439 J68.606
X198.886 Y-42.556 I-10.947 J16.061
X200.289 Y-39.552 I-2.516 J3.004
G1 X200.288 Y-28.67
G3 X199.072 Y-27.453 I-1.217 J0
G1 X139.738 Y-27.452
G3 X139.232 Y-28.462 I0 J-0.632
G2 X144.649 Y-40.544 I-24.34 J-18.17
X144.742 Y-53.785 I-33.505 J-6.854
G3 X145.355 Y-54.808 I0.881 J-0.167
X145.892 Y-54.807 I0.268 J0.856
X151.785 Y-52.686 I-23.195 J73.682
G2 X157.7 Y-50.626 I23.157 J-56.969
X168.58 Y-48.801 I13.139 J-44.983
X172.889 Y-48.737 I3.11 J-64.422
X175.443 Y-50.542 I-0.052 J-2.782
G3 X177.913 Y-52.461 I2.794 J1.048
G2 X179.584 Y-52.669 I-6.141 J-56.123
G3 X182.751 Y-52.556 I1.263 J9.037
G2 X186.585 Y-51.87 I12.202 J-57.199
X190.461 Y-51.482 I6.383 J-44.153
G3 X194.403 Y-50.08 I-0.418 J7.418
G1 X199.175 Y-46.59
G3 X202.35 Y-44.107 I-42.471 J57.581
X203.718 Y-41.196 I-2.413 J2.911
G1 X203.717 Y-25.241
G3 X202.5 Y-24.024 I-1.217 J0
G1 X131.603 Y-24.023
G3 X131.255 Y-24.959 I0 J-0.533
G2 X137.181 Y-31.454 I-24.394 J-28.213
X141.007 Y-39.37 I-20.954 J-15.01
X142.05 Y-47.657 I-26.236 J-7.51
X140.69 Y-55.898 I-30.992 J0.883
G3 X141.483 Y-57.294 I1.054 J-0.325
G2 X144.461 Y-58.121 I-11.127 J-45.816
G3 X146.795 Y-58.118 I1.162 J3.658
G1 X160.368 Y-53.473
G2 X169.938 Y-52.156 I11.077 J-45.04
X177.913 Y-52.461 I1.834 J-56.428
X180.143 Y-54.448 I-0.28 J-2.56
G3 X182.64 Y-56.088 I2.102 J0.479
X182.993 Y-56.015 I-1.67 J8.971
G2 X187.308 Y-55.211 I12.37 J-54.39
X191.683 Y-54.872 I4.693 J-32.158
G3 X195.462 Y-53.56 I-0.061 J6.279
G2 X200.19 Y-50.036 I102.818 J-132.996
G3 X204.857 Y-46.431 I-49.731 J69.215
G2 X205.354 Y-46.045 I6.509 J-7.851
G3 X205.853 Y-45.661 I-7.388 J10.122
X207.147 Y-42.948 I-2.197 J2.712
G1 X207.146 Y-21.812
G3 X205.929 Y-20.595 I-1.217 J0
G1 X115.279 Y-20.594
G3 X115.06 Y-21.256 I0 J-0.367
G1 X115.14 Y-21.316
X115.191 Y-21.348
X115.247 Y-21.371
X115.305 Y-21.385
G2 X123.379 Y-23.756 I-4.72 J-31.004
X130.311 Y-28.527 I-9.451 J-21.152
X136.033 Y-36.258 I-23.041 J-23.039
X138.555 Y-45.539 I-19.125 J-10.179
X138.08 Y-52.249 I-30.081 J-1.246
X135.94 Y-58.626 I-23.483 J4.334
G3 X136.567 Y-59.836 I0.752 J-0.377
G2 X140.175 Y-60.506 I-7.853 J-52.371
X143.712 Y-61.483 I-7.704 J-34.754
G3 X147.553 Y-61.478 I1.913 J5.748
X156.348 Y-58.292 I-62.667 J186.685
G2 X165.438 Y-56.082 I12.81 J-32.892
X172.487 Y-55.64 I8.669 J-81.808
X179.533 Y-56.128 I0.783 J-39.766
G3 X182.64 Y-56.088 I1.437 J9.011
G2 X185.498 Y-57.213 I0.53 J-2.847
G3 X188.319 Y-58.429 I2.455 J1.815
G2 X189.257 Y-58.338 I2.388 J-19.763
X191.19 Y-58.295 I1.398 J-19.138
G3 X193.125 Y-58.321 I1.86 J66.546
X196.432 Y-57.153 I-0.006 J5.282
G2 X201.096 Y-53.646 I54.839 J-68.09
G3 X205.713 Y-50.079 I-36.036 J51.421
G2 X207.469 Y-48.694 I19.952 J-23.485
G3 X209.269 Y-47.368 I-187.362 J256.081
X210.576 Y-44.768 I-1.93 J2.599
G1 X210.575 Y-18.383
G3 X209.358 Y-17.166 I-1.217 J0
G1 X105.572 Y-17.165
G3 X104.979 Y-18.209 I0 J-0.69
G2 X105.745 Y-19.629 I-16.106 J-9.603
G3 X106.501 Y-20.379 I1.447 J0.702
X107.51 Y-20.832 I10.675 J22.441
G1 X108.504 Y-21.251
G2 X110.969 Y-22.569 I-5.967 J-14.13
X113.25 Y-24.186 I-22.283 J-33.857
G3 X114.59 Y-24.746 I1.742 J2.286
G2 X128.648 Y-31.497 I-3.605 J-25.518
X135.128 Y-45.681 I-14.154 J-15.039
X134.173 Y-53.749 I-25.578 J-1.06
X130.392 Y-60.94 I-19.036 J5.418
G3 X130.752 Y-62.208 I0.617 J-0.51
X133.738 Y-62.818 I3.907 J11.515
G2 X136.766 Y-63.16 I-3.165 J-41.646
X140.293 Y-63.968 I-3.515 J-23.44
X143.724 Y-65.122 I-23.608 J-75.867
G3 X147.677 Y-65.075 I1.915 J5.291
G2 X158.425 Y-61.269 I68.11 J-175.221
X169.619 Y-59.109 I14.597 J-45.557
X174.535 Y-59.038 I3.073 J-43.096
X179.42 Y-59.588 I-1.514 J-35.474
G3 X183.088 Y-59.51 I1.645 J8.976
G1 X186.292 Y-58.781
G2 X188.319 Y-58.429 I4.415 J-19.411
X191.129 Y-59.966 I0.33 J-2.734
G3 X193.785 Y-61.756 I2.862 J1.381
G2 X194.288 Y-61.791 I-3.95 J-60.812
G3 X197.563 Y-60.68 I0.324 J4.427
G2 X201.876 Y-57.308 I28.767 J-32.342
G3 X206.264 Y-54.033 I-38.112 J55.661
G2 X209.446 Y-51.514 I108.863 J-134.186
X212.727 Y-49.124 I43.514 J-56.289
G3 X214.005 Y-46.697 I-1.664 J2.427
G1 X214.004 Y-14.954
G3 X212.787 Y-13.737 I-1.217 J0
G1 X97.643 Y-13.736
G3 X97.288 Y-14.68 I0 J-0.539
X99.189 Y-16.325 I170.871 J195.461
G2 X100.926 Y-18.141 I-8.284 J-9.663
X101.866 Y-19.577 I-7.995 J-6.26
X102.65 Y-21.105 I-35.978 J-19.425
G3 X105.056 Y-23.489 I4.607 J2.243
X105.991 Y-23.909 I9.901 J20.815
G1 X107.171 Y-24.407
G2 X109.199 Y-25.501 I-4.705 J-11.142
X111.074 Y-26.839 I-21.964 J-32.78
G3 X114.207 Y-28.155 I4.132 J5.45
G2 X120.254 Y-29.859 I-3.597 J-24.347
X125.461 Y-33.376 I-6.472 J-15.195
X129.753 Y-39.012 I-18.667 J-18.666
X131.702 Y-45.823 I-13.1 J-7.434
X130.384 Y-54.302 I-22.046 J-0.913
X125.366 Y-61.262 I-14.86 J5.424
X124.106 Y-62.128 I-6.868 J8.641
G3 X122.792 Y-62.911 I94.463 J-160.174
X122.996 Y-63.864 I0.265 J-0.442
G2 X128.898 Y-65.101 I-4.013 J-33.853
G3 X134.799 Y-66.338 I10.313 J34.52
G2 X139.645 Y-67.384 I-3.378 J-27.377
X144.35 Y-68.949 I-40.127 J-128.474
G3 X147.586 Y-68.819 I1.455 J4.119
G2 X152.515 Y-66.969 I17.572 J-39.331
G3 X157.512 Y-65.312 I-34.555 J112.549
G1 X161.286 Y-63.966
G2 X165.058 Y-63.045 I6.324 J-17.731
X172.118 Y-62.446 I9.37 J-68.48
X179.178 Y-63.034 I1.018 J-30.446
G3 X181.988 Y-63.16 I1.81 J8.944
X185.356 Y-62.484 I-2.135 J19.365
G2 X188.72 Y-61.785 I5.971 J-20.28
X191.504 Y-61.651 I2.278 J-18.33
X193.785 Y-61.756 I-1.669 J-60.918
X195.9 Y-63.496 I-0.152 J-2.34
G3 X198.477 Y-64.421 I1.608 J0.426
X198.876 Y-64.102 I-2.851 J3.973
G2 X201.859 Y-61.484 I197.122 J-221.615
X205.032 Y-59.101 I18.727 J-21.63
G3 X209.474 Y-55.81 I-23.917 J36.924
G2 X213.848 Y-52.427 I42.183 J-50.027
X214.98 Y-51.696 I9.215 J-13.017
X216.156 Y-51.039 I15.154 J-25.776
G3 X217.434 Y-48.918 I-1.122 J2.121
G1 X217.433 Y-11.525
G3 X216.216 Y-10.308 I-1.217 J0
G1 X90.079 Y-10.307
G3 X89.679 Y-11.274 I0 J-0.566
G2 X91.118 Y-12.729 I-95.751 J-96.103
X92.4 Y-14.324 I-7.719 J-7.517
G3 X95.258 Y-17.345 I9.934 J6.537
G2 X98.239 Y-20.246 I-9.22 J-12.454
X99.231 Y-21.871 I-6.471 J-5.067
G1 X100.082 Y-23.717
G3 X102.372 Y-26.01 I4.26 J1.965
X105.35 Y-27.327 I39.941 J86.296
G2 X108.187 Y-28.926 I-5.565 J-13.191
X108.706 Y-29.329 I-5.97 J-8.236
G3 X109.221 Y-29.738 I10.294 J12.425
X113.543 Y-31.524 I5.53 J7.258
G2 X121.108 Y-34.257 I-2.512 J-18.794
X126.598 Y-40.136 I-8.334 J-13.283
X128.292 Y-49.988 I-13.949 J-7.47
X123.28 Y-58.637 I-13.521 J2.058
X117.819 Y-61.744 I-12.714 J15.998
X111.733 Y-63.309 I-10.065 J26.514
G3 X111.517 Y-64.274 I0.074 J-0.523
G2 X113.417 Y-65.799 I-7.011 J-10.677
G3 X114.082 Y-66.189 I1.123 J1.152
G2 X115.259 Y-66.57 I-7.168 J-24.156
G3 X116.438 Y-66.941 I6.311 J17.98
X117.021 Y-67.021 I0.579 J2.071
X119.964 Y-66.989 I-0.289 J164.135
G2 X122.903 Y-67.134 I0.421 J-21.387
X126.607 Y-67.966 I-2.17 J-18.304
G3 X130.244 Y-69.051 I17.606 J52.376
X135.827 Y-70.131 I11.133 J42.611
G2 X141.358 Y-71.448 I-3.341 J-26.3
X143.123 Y-72.128 I-11.949 J-33.644
G1 X144.464 Y-72.686
G3 X147.705 Y-72.55 I1.474 J3.544
G2 X152.237 Y-70.73 I11.696 J-22.571
G3 X156.883 Y-69.222 I-24.297 J82.73
X161.446 Y-67.549 I-91.005 J255.391
G2 X166.158 Y-66.356 I7.656 J-20.325
X171.846 Y-65.92 I6.492 J-47.445
X177.543 Y-66.234 I0.668 J-39.796
G3 X185.753 Y-65.941 I3.211 J25.205
G2 X189.009 Y-65.316 I38.75 J-193.085
X192.316 Y-65.073 I2.773 J-15.133
X193.778 Y-65.182 I-0.647 J-18.646
G3 X195.238 Y-65.323 I4.891 J42.979
X198.477 Y-64.421 I0.388 J4.875
G2 X201.429 Y-64.149 I1.707 J-2.379
G3 X204.372 Y-63.8 I1.191 J2.537
G2 X206.896 Y-61.979 I19.391 J-24.219
G3 X211.378 Y-58.625 I-22.516 J34.762
G2 X215.797 Y-55.189 I37.164 J-43.233
X217.656 Y-54.072 I8.826 J-12.58
X219.618 Y-53.148 I15.991 J-31.435
G3 X220.863 Y-51.251 I-0.823 J1.897
G1 X220.862 Y-8.096
G3 X219.645 Y-6.879 I-1.217 J0
G1 X79.449 Y-6.877
G3 X79.217 Y-7.752 I0 J-0.468
G2 X84.891 Y-11.358 I-35.813 J-62.625
X89.572 Y-16.184 I-10.341 J-14.711
G3 X90.97 Y-17.922 I9.74 J6.409
X92.59 Y-19.455 I20.238 J19.765
G2 X94.14 Y-20.832 I-82.267 J-94.106
X95.553 Y-22.349 I-8.114 J-8.976
X96.688 Y-24.31 I-6.396 J-5.008
X97.51 Y-26.422 I-81.41 J-32.936
G3 X99.447 Y-28.536 I3.594 J1.347
X100.241 Y-28.824 I1.85 J3.863
G2 X101.035 Y-29.112 I-1.096 J-4.261
G3 X104.083 Y-30.547 I178.878 J376.035
G2 X106.967 Y-32.29 I-6.625 J-14.222
X107.38 Y-32.623 I-5.886 J-7.726
G3 X107.788 Y-32.962 I14.63 J17.169
X111.399 Y-34.655 I5.207 J6.41
X113.884 Y-34.99 I4.016 J20.39
G2 X116.308 Y-35.632 I-0.501 J-6.785
G3 X118.135 Y-36.493 I102.589 J215.446
G2 X119.855 Y-37.552 I-3.682 J-7.904
X122.703 Y-40.453 I-9.992 J-12.662
X124.524 Y-44.088 I-8.77 J-6.667
X124.786 Y-49.668 I-11.682 J-3.344
X122.407 Y-54.722 I-10.885 J2.038
X116.968 Y-58.514 I-9.653 J8.048
X110.521 Y-60.06 I-10.436 J29.315
X109.724 Y-60.095 I-0.613 J4.745
G3 X108.926 Y-60.08 I-0.798 J-20.728
X107.37 Y-60.538 I0 J-2.874
G2 X105.038 Y-61.748 I-7.645 J11.878
X104.67 Y-61.877 I-1.409 J3.435
G3 X104.298 Y-61.998 I1.688 J-5.785
X103.657 Y-63.456 I0.377 J-1.035
G2 X103.943 Y-64.258 I-7.819 J-3.242
G3 X105.154 Y-65.368 I1.54 J0.464
G2 X108.286 Y-66.386 I-3.119 J-14.916
X111.008 Y-68.239 I-3.879 J-8.625
G3 X113.119 Y-69.48 I3.577 J3.67
G2 X114.335 Y-69.871 I-8.623 J-28.891
G3 X115.553 Y-70.254 I7.558 J21.894
X116.988 Y-70.45 I1.403 J4.929
X119.745 Y-70.409 I-1.03 J161.164
G2 X122.5 Y-70.539 I0.458 J-19.499
X125.97 Y-71.336 I-1.946 J-16.416
G3 X129.377 Y-72.37 I14.916 J43.015
X134.818 Y-73.411 I10.527 J40.29
G2 X140.209 Y-74.684 I-3.098 J-25.177
X141.695 Y-75.253 I-11.13 J-31.337
X143.166 Y-75.86 I-117.635 J-286.897
G3 X149.264 Y-75.604 I2.775 J6.67
G2 X153.141 Y-73.961 I12.559 J-24.238
X157.16 Y-72.71 I30.605 J-91.218
G3 X161.522 Y-71.116 I-9.128 J31.749
G2 X165.988 Y-69.84 I6.685 J-14.943
X171.607 Y-69.355 I7.673 J-56.073
X177.239 Y-69.653 I1.149 J-31.644
G3 X186.301 Y-69.329 I3.631 J25.388
G2 X190.42 Y-68.67 I8.072 J-37.249
X194.591 Y-68.647 I2.206 J-21.156
X195.613 Y-68.756 I-3.382 J-36.45
G3 X196.638 Y-68.832 I1.329 J10.965
X200.225 Y-67.472 I0.139 J5.044
G2 X203.438 Y-64.578 I78.114 J-83.492
X204.372 Y-63.8 I20.324 J-23.441
X207.541 Y-63.562 I1.759 J-2.197
G3 X210.714 Y-63.372 I1.443 J2.491
G1 X218.952 Y-57.18
G2 X220.921 Y-56.271 I5.614 J-9.571
X222.978 Y-55.582 I30.627 J-88.048
G3 X224.292 Y-53.778 I-0.581 J1.804
G1 X224.29 Y-4.667
G3 X223.074 Y-3.45 I-1.217 J0
G1 X69.994 Y-3.448
G3 X69.798 Y-4.282 I0 J-0.44
G2 X72.187 Y-5.974 I-4.197 J-8.46
X74.068 Y-8.218 I-10.081 J-10.359
X74.233 Y-8.48 I-3.779 J-2.564
G3 X74.402 Y-8.739 I2.746 J1.603
X75.438 Y-9.622 I2.33 J1.683
G2 X80.577 Y-12.545 I-26.486 J-52.555
X85.192 Y-16.242 I-14.722 J-23.104
X87.174 Y-18.873 I-8.233 J-8.263
G3 X89.347 Y-21.348 I6.703 J3.696
G2 X91.496 Y-23.06 I-20.511 J-27.945
X93.267 Y-25.159 I-5.72 J-6.622
X93.948 Y-26.56 I-7.401 J-4.468
X94.434 Y-28.039 I-16.066 J-6.098
G3 X97.565 Y-31.458 I4.936 J1.377
G2 X101.916 Y-33.228 I-31.572 J-83.853
X105.858 Y-35.782 I-5.824 J-13.307
X106.212 Y-36.124 I-5.305 J-5.842
G3 X106.566 Y-36.467 I5.66 J5.499
X109.823 Y-37.874 I3.685 J4.057
G2 X114.253 Y-38.515 I-2.673 J-34.116
X118.187 Y-40.65 I-1.635 J-7.703
X120.332 Y-43.145 I-15.496 J-15.495
X121.424 Y-46.249 I-4.529 J-3.337
X121.06 Y-50.047 I-13.948 J-0.578
X119.013 Y-53.268 I-5.675 J1.346
X114.51 Y-55.785 I-9.96 J12.533
X109.43 Y-56.678 I-5.081 J14.011
X109 Y-56.665 I0 J6.876
G3 X108.571 Y-56.651 I-0.429 J-6.863
X105.718 Y-57.518 I0 J-5.124
G2 X103.338 Y-58.767 I-6.991 J10.434
X100.713 Y-59.35 I-3.153 J7.99
G3 X99.177 Y-60.771 I0.102 J-1.652
G1 X99.133 Y-61.079
X99.122 Y-61.155
G3 X99.449 Y-62.669 I2.125 J-0.333
G2 X100.462 Y-64.653 I-8.552 J-5.618
X101.065 Y-66.798 I-11.678 J-4.437
G3 X103.151 Y-68.554 I2.114 J0.395
G2 X106.133 Y-69.128 I-0.112 J-8.603
X108.689 Y-70.767 I-2.715 J-7.047
G3 X112.101 Y-72.755 I5.678 J5.825
X114.535 Y-73.412 I18.888 J65.127
X117.037 Y-73.719 I2.492 J9.963
G2 X121.736 Y-73.983 I0.041 J-41.252
X126.328 Y-75.01 I-2.488 J-21.894
G3 X131.873 Y-76.265 I8.75 J25.788
G2 X137.452 Y-77.356 I-4.453 J-37.571
X139.904 Y-78.208 I-5.216 J-18.966
G3 X142.297 Y-79.212 I164.27 J388.092
X150.411 Y-78.872 I3.692 J8.875
G2 X156.333 Y-76.688 I11.677 J-22.534
G3 X162.254 Y-74.503 I-6.208 J25.945
G2 X166.281 Y-73.264 I5.55 J-10.872
X170.469 Y-72.8 I17.703 J-140.812
X174.522 Y-72.677 I2.972 J-31.064
X178.539 Y-73.229 I-0.69 J-19.917
G3 X183.312 Y-73.23 I2.389 J9.828
G2 X188 Y-72.333 I11.517 J-47.476
X190.844 Y-71.961 I19.911 J-141.046
X193.713 Y-71.94 I1.526 J-12.643
G1 X195.63 Y-72.143
G3 X197.711 Y-72.274 I2.576 J24.297
X201.739 Y-70.749 I0.117 J5.773
G2 X204.725 Y-68.048 I156.112 J-169.52
X207.857 Y-65.519 I28.096 J-31.6
G1 X210.714 Y-63.372
G2 X214.067 Y-63.176 I1.825 J-2.428
G3 X217.408 Y-62.834 I1.436 J2.465
G1 X217.484 Y-62.766
X217.531 Y-62.725
X218.026 Y-62.315
X218.084 Y-62.269
X218.189 Y-62.19
X218.79 Y-61.683
X218.862 Y-61.627
X219.496 Y-61.152
X219.613 Y-61.072
X219.79 Y-60.963
X220.118 Y-60.712
X220.184 Y-60.664
X220.671 Y-60.331
X220.765 Y-60.271
X220.913 Y-60.184
X221.052 Y-60.111
X221.637 Y-59.842
X222.224 Y-59.521
X222.317 Y-59.474
X222.414 Y-59.433
X223.048 Y-59.188
X223.14 Y-59.156
X223.752 Y-58.963
X223.996 Y-58.877
X224.042 Y-58.862
X224.993 Y-58.561
X225.748 Y-58.265
X225.786 Y-58.251
X226.25 Y-58.082
X226.289 Y-58.069
X226.923 Y-57.857
G2 X227.268 Y-57.783 I0.503 J-1.506
G1 X227.586 Y-57.751
X227.741 Y-57.744
X227.738 Y-0.016
X227.737 Y-0.004
X227.721 Y-0.002
X55.014 Y0
X55.115 Y-0.081
X55.274 Y-0.217
X55.35 Y-0.287
X55.421 Y-0.362
X55.557 Y-0.513
X55.62 Y-0.589
X55.679 Y-0.668
X55.788 Y-0.826
X55.845 Y-0.914
X55.896 Y-1.006
X56.058 Y-1.322
X56.108 Y-1.432
X56.175 Y-1.59
X56.195 Y-1.64
X57.328 Y-2.06
X57.349 Y-2.068
X58.617 Y-2.559
X58.646 Y-2.57
X59.28 Y-2.83
X59.32 Y-2.847
X60.302 Y-3.281
X60.329 Y-3.293
X61.229 Y-3.711
X63.156 Y-4.537
X64.371 Y-5.05
X64.451 Y-5.086
X64.528 Y-5.126
X64.739 Y-5.244
X64.824 Y-5.295
X64.906 Y-5.352
X65.33 Y-5.664
X65.415 Y-5.731
X66.508 Y-6.658
X67.516 Y-7.044
X67.582 Y-7.071
X68.194 Y-7.338
G2 X68.46 Y-7.485 I-0.634 J-1.455
G1 X68.992 Y-7.851
X69.062 Y-7.902
X69.13 Y-7.957
X69.867 Y-8.594
X69.956 Y-8.677
X70.59 Y-9.317
G2 X70.777 Y-9.543 I-1.127 J-1.118
G1 X71.198 Y-10.165
X71.231 Y-10.214
X71.405 Y-10.492
X71.583 Y-10.726
X71.63 Y-10.791
X71.673 Y-10.859
X72.388 Y-12.024
X73.249 Y-12.385
X73.35 Y-12.431
X74.081 Y-12.8
X74.123 Y-12.822
X74.641 Y-13.102
X75.295 Y-13.433
X75.366 Y-13.472
X75.961 Y-13.812
X76.054 Y-13.87
X76.47 Y-14.148
X76.646 Y-14.257
X76.727 Y-14.311
X77.444 Y-14.82
X77.477 Y-14.844
X78.085 Y-15.301
X78.419 Y-15.467
G2 X78.648 Y-15.607 I-0.708 J-1.421
G1 X79.306 Y-16.088
X80.195 Y-16.711
X80.285 Y-16.778
X80.592 Y-17.027
X81.054 Y-17.377
X81.115 Y-17.425
X81.9 Y-18.08
X82.003 Y-18.174
X82.637 Y-18.806
X82.693 Y-18.865
X82.746 Y-18.927
X83.213 Y-19.498
X83.429 Y-19.732
X83.523 Y-19.842
X83.616 Y-19.963
X83.684 Y-20.059
X84.641 Y-21.513
X85.301 Y-22.365
X85.536 Y-22.658
X86.427 Y-23.597
X86.993 Y-24.097
X87.238 Y-24.303
X87.726 Y-24.597
G2 X87.951 Y-24.761 I-0.82 J-1.36
G1 X88.271 Y-25.041
X88.309 Y-25.075
X88.892 Y-25.619
X89.471 Y-26.07
G2 X89.665 Y-26.249 I-0.976 J-1.252
G1 X89.824 Y-26.423
X89.904 Y-26.517
X90.028 Y-26.675
X90.085 Y-26.752
X90.137 Y-26.833
X90.232 Y-26.991
X90.276 Y-27.068
X90.315 Y-27.147
X90.752 Y-28.095
X90.767 Y-28.13
X91.041 Y-28.762
G2 X91.163 Y-29.223 I-1.457 J-0.63
G1 X91.224 Y-29.799
X91.289 Y-30.157
X91.483 Y-30.552
X91.706 Y-30.951
X92.2 Y-31.488
X92.267 Y-31.566
X92.329 Y-31.648
X92.769 Y-32.271
X92.836 Y-32.374
X92.894 Y-32.481
X93.522 Y-33.746
G2 X93.633 Y-34.04 I-1.422 J-0.705
G1 X93.868 Y-34.084
X93.951 Y-34.103
X94.241 Y-34.175
X94.334 Y-34.2
X95.143 Y-34.453
X95.6 Y-34.49
G2 X95.942 Y-34.556 I-0.127 J-1.582
G1 X96.259 Y-34.654
G2 X96.533 Y-34.768 I-0.469 J-1.517
G1 X96.868 Y-34.945
X96.959 Y-34.997
X97.87 Y-35.295
X97.965 Y-35.33
X98.058 Y-35.37
X99.758 Y-36.179
X99.853 Y-36.228
X99.945 Y-36.283
X100.024 Y-36.335
X100.523 Y-36.543
X100.606 Y-36.58
X100.686 Y-36.622
X100.999 Y-36.796
X101.091 Y-36.829
X101.166 Y-36.859
X101.8 Y-37.127
G2 X102.114 Y-37.304 I-0.618 J-1.462
G1 X102.749 Y-37.763
X102.779 Y-37.786
X103.413 Y-38.269
X103.519 Y-38.357
X104.737 Y-39.464
X104.8 Y-39.512
X104.887 Y-39.583
X105.605 Y-40.215
X105.644 Y-40.251
X106.078 Y-40.66
X106.15 Y-40.732
X106.217 Y-40.809
X106.901 Y-41.644
X107.074 Y-41.592
X107.133 Y-41.576
X107.768 Y-41.414
G2 X108.073 Y-41.366 I0.393 J-1.538
G1 X108.708 Y-41.331
X108.739 Y-41.33
X109.373 Y-41.308
G2 X109.736 Y-41.336 I0.056 J-1.587
G1 X110.371 Y-41.461
X110.445 Y-41.478
X111.011 Y-41.618
X111.577 Y-41.706
X111.652 Y-41.719
X111.997 Y-41.726
X112.109 Y-41.732
X112.22 Y-41.746
X112.855 Y-41.848
G2 X113.284 Y-41.982 I-0.253 J-1.567
G1 X113.831 Y-42.243
X114.392 Y-42.43
X114.493 Y-42.468
X114.592 Y-42.513
X114.901 Y-42.665
G2 X115.18 Y-42.842 I-0.704 J-1.423
G1 X115.488 Y-43.085
X115.56 Y-43.145
X115.627 Y-43.209
X116.896 Y-44.478
X116.953 Y-44.537
X117.006 Y-44.6
X117.194 Y-44.832
G2 X117.361 Y-45.083 I-1.232 J-1.001
G1 X117.531 Y-45.399
G2 X117.657 Y-45.712 I-1.399 J-0.749
G1 X117.748 Y-46.028
G2 X117.808 Y-46.399 I-1.526 J-0.437
G1 X117.834 Y-47.031
X117.835 Y-47.097
Y-47.729
X117.833 Y-47.814
X117.799 Y-48.447
G2 X117.73 Y-48.832 I-1.585 J0.085
G1 X117.632 Y-49.148
G2 X117.5 Y-49.455 I-1.516 J0.47
G1 X117.323 Y-49.771
G2 X117.158 Y-50.01 I-1.384 J0.777
G1 X116.993 Y-50.208
G2 X116.761 Y-50.435 I-1.219 J1.017
G1 X116.452 Y-50.68
X116.369 Y-50.742
X116.282 Y-50.798
X114.916 Y-51.619
X114.835 Y-51.665
X114.751 Y-51.705
X114.523 Y-51.808
X114.451 Y-51.839
X113.103 Y-52.368
X113.025 Y-52.397
X111.835 Y-52.793
X111.756 Y-52.817
X111.676 Y-52.837
X111.042 Y-52.978
X110.959 Y-52.994
X110.325 Y-53.099
X110.268 Y-53.108
X109.633 Y-53.19
X109.532 Y-53.2
X109.43 Y-53.203
X106.944
X106.457 Y-53.235
X106.119 Y-53.298
X105.134 Y-53.767
X104.597 Y-54.119
X103.672 Y-54.739
X103.638 Y-54.761
X103.301 Y-54.975
G2 X103.054 Y-55.102 I-0.85 J1.341
G1 X102.419 Y-55.363
X102.36 Y-55.386
X101.725 Y-55.616
X101.64 Y-55.645
X101.006 Y-55.836
G2 X100.646 Y-55.9 I-0.457 J1.52
G1 X100.046 Y-55.937
X98.811 Y-56.067
X98.718 Y-56.074
X98.266 Y-56.095
X97.839 Y-56.215
X97.196 Y-56.426
X96.926 Y-56.611
X96.809 Y-56.698
X96.537 Y-56.998
X96.499 Y-57.043
X96.396 Y-57.247
X96.32 Y-57.428
X96.23 Y-57.682
X96.092 Y-58.208
X95.979 Y-58.751
X95.719 Y-60.597
X95.707 Y-60.671
X95.594 Y-61.265
X95.512 Y-61.858
X95.49 Y-61.981
X95.351 Y-62.614
X95.317 Y-62.741
X95.153 Y-63.272
X95.729 Y-63.663
G2 X96.031 Y-63.928 I-0.891 J-1.314
G1 X96.432 Y-64.385
G2 X96.656 Y-64.714 I-1.192 J-1.049
G1 X96.977 Y-65.346
X97.017 Y-65.431
X97.293 Y-66.063
G2 X97.381 Y-66.323 I-1.455 J-0.635
G1 X97.52 Y-66.895
X97.616 Y-67.189
X97.645 Y-67.29
X97.668 Y-67.392
X97.72 Y-67.672
G2 X97.747 Y-67.945 I-1.561 J-0.291
G1 X97.752 Y-68.42
X97.834 Y-68.806
X97.984 Y-69.247
X98.183 Y-69.646
X98.513 Y-70.076
X99.036 Y-70.551
X99.787 Y-71.14
X99.862 Y-71.203
X99.933 Y-71.27
X100.561 Y-71.903
X100.588 Y-71.93
X100.893 Y-71.998
X100.918 Y-72.004
X101.508 Y-72.145
X102.263 Y-72.055
X102.346 Y-72.047
X102.98 Y-72.005
G2 X103.386 Y-72.03 I0.105 J-1.584
G1 X103.722 Y-72.095
X103.807 Y-72.113
X104.422 Y-72.267
X104.486 Y-72.285
X104.645 Y-72.331
X104.773 Y-72.375
X104.932 Y-72.437
X105.032 Y-72.48
X105.666 Y-72.78
G2 X105.933 Y-72.939 I-0.677 J-1.436
G1 X106.028 Y-73.009
X106.113 Y-73.076
X106.192 Y-73.149
X106.731 Y-73.674
X106.8 Y-73.746
X106.864 Y-73.821
X107.454 Y-74.56
X107.493 Y-74.612
X107.538 Y-74.672
X107.598 Y-74.76
X107.652 Y-74.852
X107.963 Y-75.424
X107.994 Y-75.483
X108.332 Y-75.52
X108.401 Y-75.529
X109.67 Y-75.723
X109.794 Y-75.747
X111.063 Y-76.046
X111.191 Y-76.082
X112.46 Y-76.496
X112.494 Y-76.508
X113.068 Y-76.71
X113.64 Y-76.861
X113.748 Y-76.893
X114.369 Y-77.104
X114.835 Y-77.254
X115.262 Y-77.299
X115.828 Y-77.327
X116.409 Y-77.339
X117.012 Y-77.327
X117.041
X118.944 Y-77.325
X119.023 Y-77.327
X119.657 Y-77.358
X119.7 Y-77.36
X120.969 Y-77.457
X121.036 Y-77.463
X121.67 Y-77.538
X121.772 Y-77.554
X121.874 Y-77.576
X123.777 Y-78.059
X123.801 Y-78.065
X125.069 Y-78.409
X125.165 Y-78.438
X125.785 Y-78.648
X126.387 Y-78.84
X127.594 Y-79.193
X129.707 Y-79.679
X131.843 Y-79.985
X133.096 Y-80.139
X133.137 Y-80.145
X134.195 Y-80.304
X134.281 Y-80.319
X135.761 Y-80.625
X135.892 Y-80.658
X136.495 Y-80.838
X137.097 Y-80.99
X137.24 Y-81.033
X137.874 Y-81.258
X137.917 Y-81.274
X138.522 Y-81.509
X139.085 Y-81.702
X139.677 Y-81.869
X139.767 Y-81.897
X139.856 Y-81.931
X141.124 Y-82.459
X141.188 Y-82.487
X141.823 Y-82.785
X141.864 Y-82.805
X142.222 Y-82.985
X142.327 Y-83.043
X143.114 Y-83.518
X143.278 Y-83.546
X143.794 Y-83.606
X144.334 Y-83.617
X145.531 Y-83.613
X146.727 Y-83.529
X147.288 Y-83.475
X148.481 Y-83.278
X149.052 Y-83.167
X149.606 Y-83.029
X150.132 Y-82.868
X150.634 Y-82.664
X151.199 Y-82.372
X151.795 Y-82.039
X151.838 Y-82.016
X152.472 Y-81.688
X152.545 Y-81.652
X153.179 Y-81.364
X153.244 Y-81.336
X153.878 Y-81.081
X153.965 Y-81.049
X154.105 Y-81.001
X154.181 Y-80.978
X154.643 Y-80.848
X155.246 Y-80.65
X155.395 Y-80.609
X156.599 Y-80.342
X157.128 Y-80.165
X157.748 Y-79.946
X157.888 Y-79.904
X158.489 Y-79.752
X158.874 Y-79.572
X158.989 Y-79.523
X159.108 Y-79.484
X160.407 Y-79.111
X161.459 Y-78.66
X161.585 Y-78.612
X162.185 Y-78.414
X163.663 Y-77.847
X163.9 Y-77.727
X164.019 Y-77.672
X164.653 Y-77.412
X164.721 Y-77.386
X165.191 Y-77.217
X165.281 Y-77.188
X165.445 Y-77.14
X165.511 Y-77.123
X166.145 Y-76.967
X166.249 Y-76.945
X166.883 Y-76.833
X166.944 Y-76.823
X167.578 Y-76.737
X167.626 Y-76.731
X169.794 Y-76.501
X169.81 Y-76.499
X170.814 Y-76.403
X170.852 Y-76.4
X171.487 Y-76.355
X171.549 Y-76.352
X173.452 Y-76.291
X173.534 Y-76.29
X174.803 Y-76.315
X174.933 Y-76.323
X176.202 Y-76.453
X176.355 Y-76.476
X177.624 Y-76.733
X177.684 Y-76.746
X178.304 Y-76.897
X178.884 Y-77.027
X179.495 Y-77.13
X179.889 Y-77.148
X180.413 Y-77.153
X181.58 Y-77.042
X183.464 Y-76.816
X183.479 Y-76.814
X184.095 Y-76.746
X184.695 Y-76.666
X185.282 Y-76.575
X186.496 Y-76.337
X187.742 Y-76.054
X187.815 Y-76.039
X188.45 Y-75.926
X188.506 Y-75.917
X189.097 Y-75.834
X189.663 Y-75.721
X189.955 Y-75.654
X190.036 Y-75.637
X190.118 Y-75.625
X190.435 Y-75.585
X190.516 Y-75.577
X191.129 Y-75.532
X191.743 Y-75.471
X191.849 Y-75.464
X191.955 Y-75.465
X192.561 Y-75.486
X193.167 Y-75.485
X193.252 Y-75.487
X193.336 Y-75.494
X193.95 Y-75.559
X195.177 Y-75.656
X195.77 Y-75.688
X196.997 Y-75.721
X197.609
X197.671 Y-75.722
X198.267 Y-75.745
X199.466 Y-75.734
X200.032 Y-75.706
X200.542 Y-75.657
X200.989 Y-75.563
X201.563 Y-75.363
X201.82 Y-75.218
X202.192 Y-74.943
X203.588 Y-73.734
X204.761 Y-72.654
X204.892 Y-72.524
X204.995 Y-72.431
X205.447 Y-72.056
X205.671 Y-71.851
X205.689 Y-71.835
X206.705 Y-70.932
X206.744 Y-70.897
X207.178 Y-70.536
X207.22 Y-70.503
X208.055 Y-69.855
X208.097 Y-69.823
X208.933 Y-69.217
X209.337 Y-68.911
X209.375 Y-68.882
X209.994 Y-68.44
X210.638 Y-67.957
X210.728 Y-67.895
X211.958 Y-67.098
X213.19 Y-66.264
X213.773 Y-65.837
X215.026 Y-64.833
X215.783 Y-64.212
X216.532 Y-63.584
X216.564 Y-63.558
X216.885 Y-63.303
X217.408 Y-62.834
X217.458 Y-62.784 Z-11.992
X217.502 Y-62.729 Z-11.984
X217.538 Y-62.672 Z-11.961
X217.568 Y-62.612 Z-11.937
X217.589 Y-62.555 Z-11.899
X217.604 Y-62.497 Z-11.861
X217.618 Y-62.398 Z-11.761
Y-62.322 Z-11.641
X217.613 Y-62.276 Z-11.506
X217.611 Y-62.26 Z-11.365
Z5
X190.889 Y-28.038
Z-7.175
X190.873 Y-28.043 Z-7.321 F333.3
X190.824 Y-28.057 Z-7.46
X190.747 Y-28.081 Z-7.583
X190.646 Y-28.117 Z-7.684
X190.527 Y-28.163 Z-7.758
X190.398 Y-28.221 Z-7.8
G3 X192.982 Y-33.672 Z-9.471 I1.292 J-2.726
X190.398 Y-28.221 Z-11.142 I-1.292 J2.726
X192.982 Y-33.672 Z-12.813 I1.292 J-2.726
X190.398 Y-28.221 Z-14.483 I-1.292 J2.726
X192.149 Y-33.927 Z-16 I1.292 J-2.726
G1 X195.39 Y-33.429 F2000
G2 X196.199 Y-33.324 I2.897 J-19.157
G3 X196.974 Y-33.068 I-0.21 J1.939
X197.569 Y-32.031 I-0.607 J1.037
G1 Y-31.389
G3 X196.352 Y-30.172 I-1.217 J0
G1 X177.157
G3 X177.067 Y-30.94 I0 J-0.389
X182.855 Y-31.874 I9.17 J38.432
G2 X188.62 Y-32.937 I-2.599 J-30.25
X189.975 Y-33.388 I-4.681 J-16.334
G3 X191.319 Y-33.871 I14.064 J37.009
X192.076 Y-33.939 I0.517 J1.523
G1 X192.149 Y-33.927
G2 X194.559 Y-35.08 I0.361 J-2.343
G3 X197.022 Y-36.114 I1.916 J1.113
X197.785 Y-35.88 I-2.049 J8.043
X199.21 Y-35.239 I-3.417 J9.492
X200.56 Y-32.962 I-1.246 J2.277
G1 Y-28.398
G3 X199.343 Y-27.182 I-1.217 J0
G1 X171.701 Y-27.181
G3 X170.587 Y-28.362 I0 J-1.117
G2 X170.575 Y-31.878 I-28.719 J-1.663
G3 X171.672 Y-33.132 I1.178 J-0.076
G2 X178.937 Y-34.322 I-2.702 J-39.253
G3 X181.696 Y-34.72 I3.132 J11.948
G2 X184.471 Y-34.985 I-0.645 J-21.394
X187.53 Y-35.741 I-3.089 J-19.08
X190.512 Y-36.756 I-110.414 J-329.146
G3 X192.337 Y-36.924 I1.254 J3.628
X194.304 Y-36.596 I-9.612 J63.81
G2 X196.27 Y-36.269 I21.31 J-121.937
G3 X197.022 Y-36.114 I-1.297 J8.198
G2 X199.82 Y-36.87 I0.729 J-2.86
G3 X202.697 Y-37.221 I1.667 J1.695
X203.989 Y-34.955 I-1.34 J2.266
G1 X203.988 Y-24.969
G3 X202.772 Y-23.753 I-1.217 J0
G1 X167.705 Y-23.752
G3 X166.746 Y-24.9 I0 J-0.975
G2 X167.203 Y-30.215 I-28.428 J-5.122
X166.604 Y-35.516 I-25.241 J0.169
G3 X167.507 Y-36.573 I0.85 J-0.189
G2 X171.891 Y-36.522 I2.698 J-43.88
X176.227 Y-37.172 I-0.764 J-19.907
G3 X180.06 Y-37.866 I6.259 J23.632
G2 X183.923 Y-38.37 I-6.326 J-63.445
X186.882 Y-39.12 I-2.783 J-17.189
G1 X189.47 Y-40.024
G3 X192.743 Y-40.33 I2.255 J6.457
G2 X197.361 Y-39.675 I40.789 J-270.772
G3 X199.962 Y-38.76 I-0.923 J6.776
G2 X201.293 Y-37.996 I19.201 J-31.938
G3 X202.637 Y-37.255 I-94.601 J173.112
G1 X202.697 Y-37.221
G2 X205.152 Y-37.491 I1.047 J-1.771
G3 X207.418 Y-36.51 I0.921 J0.982
G1 X207.417 Y-21.541
G3 X206.2 Y-20.324 I-1.217 J0
G1 X163.019 Y-20.323
G3 X162.243 Y-21.422 I0 J-0.823
G2 X163.254 Y-24.657 I-41.331 J-14.691
X163.854 Y-27.993 I-19.036 J-5.15
X163.461 Y-34.203 I-20.013 J-1.85
X161.434 Y-40.086 I-26.913 J5.982
G3 X162.128 Y-40.925 I0.542 J-0.258
G2 X168.71 Y-39.85 I8.99 J-34.348
X175.349 Y-40.486 I1.39 J-20.456
G3 X179.346 Y-41.222 I6.776 J25.585
G2 X183.374 Y-41.76 I-7.72 J-73.11
X186.105 Y-42.463 I-2.471 J-15.265
G1 X188.486 Y-43.313
G3 X193.045 Y-43.753 I3.151 J8.821
X194.951 Y-43.44 I-12.559 J82.555
G2 X196.857 Y-43.128 I13.521 J-76.483
X198.303 Y-42.936 I5.911 J-39.079
G3 X199.729 Y-42.627 I-0.823 J7.238
X201.648 Y-41.748 I-2.816 J8.679
G2 X203.782 Y-40.517 I28.245 J-46.522
G1 X206.079 Y-39.261
G3 X207.418 Y-37.003 I-1.234 J2.257
G1 Y-36.51
G2 X209.132 Y-33.938 I2.786 J0
G3 X210.847 Y-31.366 I-1.072 J2.572
G1 X210.846 Y-18.112
G3 X209.629 Y-16.895 I-1.217 J0
G1 X157.241 Y-16.894
G3 X156.685 Y-17.928 I0 J-0.666
G2 X160.034 Y-25.919 I-19.35 J-12.807
X159.958 Y-34.582 I-19.598 J-4.159
X157.213 Y-41.375 I-22.803 J5.262
G3 X153.507 Y-47.696 I288.401 J-173.339
X154.143 Y-48.281 I0.385 J-0.22
G2 X161.094 Y-44.727 I17.029 J-24.739
X168.75 Y-43.203 I9.02 J-25.321
X172.81 Y-43.576 I0.729 J-14.362
X176.764 Y-44.564 I-41.637 J-174.936
G3 X178.703 Y-44.855 I2.314 J8.827
G2 X186.976 Y-46.364 I-1.244 J-30.248
X187.755 Y-46.668 I-2.645 J-7.936
G3 X188.525 Y-46.993 I7.829 J17.451
X192.315 Y-47.361 I2.531 J6.374
G2 X196.701 Y-46.71 I10.963 J-58.722
G3 X201.042 Y-45.808 I-2.587 J23.357
X203.2 Y-44.819 I-2.69 J8.719
G2 X206.012 Y-43.184 I25.851 J-41.222
G3 X208.864 Y-41.618 I-88.187 J164.052
G2 X209.21 Y-41.435 I4.164 J-7.432
G3 X209.556 Y-41.251 I-4.368 J8.652
X210.847 Y-39.055 I-1.222 J2.196
G1 Y-31.366
G2 X212.455 Y-28.954 I2.613 J0
G3 X214.063 Y-26.542 I-1.005 J2.412
G1 X214.062 Y-14.896
G3 X212.845 Y-13.679 I-1.217 J0
G1 X149.348 Y-13.678
G3 X149.075 Y-14.57 I0 J-0.488
G2 X156.544 Y-24.521 I-10.717 J-15.822
X155.761 Y-36.938 I-16.153 J-5.215
X153.582 Y-41.177 I-59.148 J27.717
G3 X151.316 Y-45.37 I132.513 J-74.332
G2 X146.781 Y-51.36 I-19.908 J10.36
X140.809 Y-55.918 I-25.104 J26.699
G3 X141.071 Y-56.771 I0.24 J-0.393
X142.549 Y-56.65 I-1.001 J21.43
G2 X144.025 Y-56.52 I3.102 J-26.667
G3 X146.565 Y-56.074 I-0.692 J11.406
G2 X149.084 Y-55.522 I5.16 J-17.5
X150.3 Y-55.356 I9.074 J-62.028
G3 X152.056 Y-54.439 I-0.372 J2.85
G2 X156.028 Y-50.756 I23.405 J-21.268
X160.784 Y-48.162 I10.301 J-13.227
X163.976 Y-47.17 I15.478 J-44.152
X167.257 Y-46.534 I5.916 J-21.738
X173.626 Y-46.994 I1.983 J-16.845
X174.924 Y-47.371 I-7.321 J-27.642
G3 X176.222 Y-47.748 I10.986 J35.42
X178.358 Y-48.061 I2.384 J8.808
G2 X183.511 Y-48.719 I-0.707 J-26.045
X188.407 Y-50.455 I-5.141 J-22.272
G3 X191.725 Y-50.791 I2.113 J4.323
G2 X196.596 Y-49.936 I7.813 J-30.221
G3 X201.429 Y-48.885 I-1.949 J20.59
X203.046 Y-48.313 I-51.39 J148.051
X204.581 Y-47.55 I-2.492 J6.934
G2 X208.644 Y-45.269 I19.096 J-29.257
G3 X212.803 Y-43.166 I-43.096 J90.412
X214.063 Y-41.062 I-1.126 J2.104
G1 Y-26.542
G2 X215.777 Y-23.969 I2.786 J0
G3 X217.492 Y-21.397 I-1.072 J2.572
G1 X217.491 Y-11.442
G3 X216.299 Y-10.249 I-1.192 J0
G1 X108.001 Y-10.248
G3 X107.707 Y-11.121 I0 J-0.486
G2 X108.369 Y-11.637 I-20.158 J-26.537
G3 X109.031 Y-12.153 I38.762 J49.032
X109.331 Y-12.303 I0.535 J0.696
G2 X113.937 Y-13.945 I-9.375 J-33.575
X118.208 Y-16.326 I-10.239 J-23.386
G3 X119.991 Y-16.139 I0.783 J1.133
G2 X122.433 Y-13.813 I23.577 J-22.296
X125.32 Y-12.071 I6.624 J-7.717
X134.022 Y-11.058 I6.253 J-15.831
X142.306 Y-13.907 I-3.39 J-23.321
X149.794 Y-19.695 I-16.819 J-29.494
X153.761 Y-28.288 I-10.148 J-9.897
X153.107 Y-33.918 I-13.676 J-1.264
X150.668 Y-39.035 I-22.221 J7.451
G3 X148.848 Y-42.482 I20.518 J-13.035
G2 X147.029 Y-45.929 I-22.791 J9.827
X142.826 Y-50.413 I-13.847 J8.765
X137.694 Y-53.793 I-38.59 J53.012
G3 X136.425 Y-55.435 I1.437 J-2.422
X136.159 Y-56.406 I34.432 J-9.931
G2 X135.84 Y-57.359 I-6.868 J1.774
X135.487 Y-58.149 I-15.875 J6.613
G3 X135.154 Y-58.947 I7.905 J-3.77
X135.878 Y-60.079 I0.797 J-0.288
X139.918 Y-60.13 I2.367 J27.523
G1 X144.229 Y-59.869
G3 X147.812 Y-59.323 I-1.213 J20.003
G2 X151.38 Y-58.682 I6.784 J-27.518
G3 X154.261 Y-57.128 I-0.499 J4.371
G2 X164.754 Y-50.478 I15.581 J-12.984
X166.905 Y-50.05 I4.684 J-17.897
X169.088 Y-49.844 I3.467 J-25.076
X172.379 Y-50.212 I0.521 J-10.248
X175.562 Y-51.124 I-76.773 J-273.779
G3 X178.019 Y-51.485 I2.515 J8.582
G2 X183.25 Y-52.145 I-0.142 J-22.185
X188.101 Y-54.211 I-4.057 J-16.254
G3 X190.936 Y-54.582 I1.821 J2.901
G2 X195.1 Y-53.552 I10.986 J-35.47
X199.34 Y-52.899 I12.303 J-65.828
G3 X201.44 Y-52.529 I-2.386 J19.67
X203.509 Y-52.014 I-15.209 J65.444
X206.097 Y-50.86 I-2.3 J8.642
G2 X211.063 Y-47.901 I38.654 J-59.221
X216.241 Y-45.331 I38.456 J-70.982
G3 X217.493 Y-43.391 I-0.878 J1.94
G1 X217.492 Y-21.397
G2 X219.177 Y-18.869 I2.739 J0
G3 X220.862 Y-16.341 I-1.053 J2.528
G1 Y-8.096
G3 X219.645 Y-6.879 I-1.217 J0
G1 X107.182 Y-6.877
G3 X104.982 Y-8.073 I0 J-2.623
G2 X104.419 Y-8.863 I-9.239 J5.99
X103.805 Y-9.613 I-16.995 J13.28
G3 X103.352 Y-11.533 I1.634 J-1.399
G1 X103.365 Y-11.586
G3 X104.245 Y-12.856 I2.09 J0.508
X105.068 Y-13.364 I6.079 J8.932
G2 X105.871 Y-13.904 I-2.812 J-5.05
X106.444 Y-14.383 I-11.005 J-13.731
G3 X107.02 Y-14.859 I8.761 J10.027
X108.371 Y-15.535 I2.36 J3.028
G2 X113.714 Y-17.466 I-9.209 J-33.826
X118.287 Y-20.838 I-5.726 J-12.55
G3 X120.865 Y-20.598 I1.201 J1.07
G2 X122.456 Y-18.342 I16.489 J-9.934
X124.432 Y-16.415 I9.534 J-7.801
X130.166 Y-14.103 I6.93 J-8.922
X136.281 Y-15.014 I1.303 J-12.23
G3 X138.486 Y-15.86 I12.922 J30.393
G2 X140.638 Y-16.832 I-4.087 J-11.914
X146.068 Y-20.588 I-18.843 J-33.043
X149.794 Y-26.037 I-7.649 J-9.229
X150.314 Y-30.733 I-10.731 J-3.566
X148.964 Y-35.26 I-12.464 J1.252
G1 X146.804 Y-39.414
G2 X144.758 Y-43.164 I-95.046 J49.425
X140.917 Y-47.56 I-12.837 J7.34
X136.082 Y-50.831 I-29.985 J39.12
G3 X133.166 Y-54.57 I3.319 J-5.595
G2 X131.692 Y-58.533 I-30.373 J9.039
X129.526 Y-62.163 I-16.766 J7.543
G3 X130.005 Y-63.2 I0.513 J-0.392
X132.775 Y-63.208 I1.459 J27.924
G2 X135.545 Y-63.262 I0.98 J-20.868
G3 X139.989 Y-63.409 I3.618 J42.07
X144.432 Y-63.231 I-2.12 J108.394
X147.877 Y-62.667 I-1.042 J17.179
G2 X151.305 Y-62.012 I6.071 J-22.485
X152.426 Y-61.926 I1.747 J-15.3
G3 X153.547 Y-61.839 I-0.788 J17.475
X155.969 Y-60.438 I-0.378 J3.447
G2 X158.424 Y-57.571 I19.813 J-14.484
X161.449 Y-55.313 I9.282 J-9.278
X165.236 Y-53.822 I7.976 J-14.707
X169.258 Y-53.207 I5.044 J-19.502
X172.094 Y-53.562 I0.415 J-8.17
X174.82 Y-54.422 I-84.268 J-271.965
G3 X177.782 Y-54.857 I2.788 J8.689
G2 X186.906 Y-57.395 I0.315 J-16.535
X187.407 Y-57.757 I-2.523 J-4.018
G3 X187.896 Y-58.135 I5.965 J7.212
X190.322 Y-58.407 I1.454 J2.015
G2 X194.236 Y-57.159 I8.625 J-20.291
X198.279 Y-56.426 I12.197 J-55.78
G3 X202.209 Y-55.684 I-6.611 J45.814
X206.071 Y-54.642 I-13.438 J57.46
X207.824 Y-53.689 I-1.468 J4.789
G2 X209.483 Y-52.58 I5.877 J-6.998
G3 X214.443 Y-49.919 I-103.351 J198.628
G2 X219.585 Y-47.63 I15.847 J-28.672
