(signature)
(T4  D=6.35 CR=0 TAPER=45deg - ZMIN=-1.986 - chamfer mill)
G90 G94
G17
G21
(When using Fusion 360 for Personal Use, the feedrate of)
(rapid moves is reduced to match the feedrate of cutting)
(moves, which can increase machining time. Unrestricted rapid)
(moves are available with a Fusion 360 Subscription.)
G28 G91 Z0
G90

(Engrave1)
T4
S15000 M3
G54
G0 X0.588 Y-0.799
Z15
G1 Z5 F2000
Z-0.001 F333.3
X1.478 Y-1.341 Z-0.543 F2000
X1.845 Y-1.563 Z-0.765
X2.167 Y-1.754 Z-0.956
X2.447 Y-1.915 Z-1.116
X2.681 Y-2.044 Z-1.246
X2.87 Y-2.143 Z-1.344
X3.014 Y-2.213 Z-1.414
X3.115 Y-2.257 Z-1.459
X3.176 Y-2.281 Z-1.483
X3.208 Y-2.292 Z-1.494
X3.233 Y-2.298 Z-1.5
X3.306 Y-2.308 Z-1.51
X3.387 Y-2.314 Z-1.515
X3.506 Y-2.318 Z-1.52
X4.84 Y-2.32 Z-1.521
X4.966 Y-2.322 Z-1.524
X5.092 Y-2.33 Z-1.532
X5.218 Y-2.343 Z-1.545
X5.344 Y-2.362 Z-1.563
X5.414 Y-2.338 Z-1.538
X5.485 Y-2.315 Z-1.517
X5.555 Y-2.296 Z-1.496
X5.625 Y-2.276 Z-1.478
X5.695 Y-2.26 Z-1.46
X5.766 Y-2.244 Z-1.446
X5.836 Y-2.232 Z-1.432
X5.906 Y-2.219 Z-1.421
X5.976 Y-2.211 Z-1.41
X6.047 Y-2.202 Z-1.403
X6.117 Y-2.196 Z-1.396
X6.187 Y-2.191 Z-1.393
X6.257 Y-2.189 Z-1.389
X6.328 Y-2.187
X8.159 Y-2.188
X8.436 Y-2.184 Z-1.384
X8.74 Y-2.173 Z-1.372
X9.083 Y-2.154 Z-1.352
X9.453 Y-2.128 Z-1.324
X9.843 Y-2.096 Z-1.288
X10.366 Y-2.046 Z-1.232
X10.652 Y-2.017 Z-1.198
X11.134 Y-1.964 Z-1.131
X11.536 Y-1.918 Z-1.067
X11.859 Y-1.882 Z-1.008
X12.109 Y-1.855 Z-0.955
X12.208 Y-1.846 Z-0.931
X12.359 Y-1.835 Z-0.89
X12.399 Y-1.833 Z-0.878
X12.481 Z-0.849
X12.524 Y-1.835 Z-0.832
X12.569 Y-1.84 Z-0.811
X12.68 Y-1.859 Z-0.751
X12.84 Y-1.89 Z-0.66
X12.991 Y-1.92 Z-0.568
X13.132 Y-1.95 Z-0.478
X13.264 Y-1.98 Z-0.387
X13.387 Y-2.009 Z-0.296
X13.506 Y-2.04 Z-0.201
X13.565 Y-2.056 Z-0.149
X13.605 Y-2.073 Z-0.11
X13.716 Y-2.095 Z-0.001
X13.605 Y-2.073 Z-0.11
X13.565 Y-2.056 Z-0.149
X13.506 Y-2.04 Z-0.201
X13.387 Y-2.009 Z-0.296
X13.264 Y-1.98 Z-0.387
X13.132 Y-1.95 Z-0.478
X12.991 Y-1.92 Z-0.568
X12.84 Y-1.89 Z-0.66
X12.68 Y-1.859 Z-0.751
X12.569 Y-1.84 Z-0.811
X12.524 Y-1.835 Z-0.832
X12.481 Y-1.833 Z-0.849
X12.399 Z-0.878
X12.359 Y-1.835 Z-0.89
X12.208 Y-1.846 Z-0.931
X12.109 Y-1.855 Z-0.955
X11.859 Y-1.882 Z-1.008
X11.536 Y-1.918 Z-1.067
X11.134 Y-1.964 Z-1.131
X10.652 Y-2.017 Z-1.198
X10.366 Y-2.046 Z-1.232
X9.843 Y-2.096 Z-1.288
X9.453 Y-2.128 Z-1.324
X9.083 Y-2.154 Z-1.352
X8.74 Y-2.173 Z-1.372
X8.436 Y-2.184 Z-1.384
X8.159 Y-2.188 Z-1.389
X6.328 Y-2.187
X6.257 Y-2.189
X6.187 Y-2.191 Z-1.393
X6.117 Y-2.196 Z-1.396
X6.047 Y-2.202 Z-1.403
X5.976 Y-2.211 Z-1.41
X5.906 Y-2.219 Z-1.421
X5.836 Y-2.232 Z-1.432
X5.766 Y-2.244 Z-1.446
X5.695 Y-2.26 Z-1.46
X5.625 Y-2.276 Z-1.478
X5.555 Y-2.296 Z-1.496
X5.485 Y-2.315 Z-1.517
X5.414 Y-2.338 Z-1.538
X5.344 Y-2.362 Z-1.563
X5.379 Y-2.555 Z-1.394
X5.41 Y-2.733 Z-1.247
X5.439 Y-2.897 Z-1.118
X5.467 Y-3.051 Z-1.008
X5.48 Y-3.125 Z-0.961
X5.493 Y-3.197 Z-0.917
X5.505 Y-3.267 Z-0.879
X5.518 Y-3.336 Z-0.845
X5.53 Y-3.404 Z-0.816
X5.542 Y-3.472 Z-0.793
X5.554 Y-3.539 Z-0.775
X5.565 Y-3.605 Z-0.763
X5.573 Y-3.657 Z-0.756
X5.58 Y-3.709 Z-0.752
X5.584 Y-3.761 Z-0.748
X5.588 Y-3.813
Y-3.862
Y-3.911 Z-0.752
X5.585 Y-3.96 Z-0.755
X5.582 Y-4.01 Z-0.761
X5.576 Y-4.059 Z-0.768
X5.57 Y-4.108 Z-0.777
X5.56 Y-4.158 Z-0.787
X5.551 Y-4.207 Z-0.8
X5.538 Y-4.257 Z-0.813
X5.526 Y-4.307 Z-0.829
X5.494 Y-4.406 Z-0.864
X5.475 Y-4.456 Z-0.884
X5.064 Y-5.452 Z-1.334
X4.995 Y-5.628 Z-1.409
X4.963 Y-5.719 Z-1.444
X4.951 Y-5.762 Z-1.458
X4.942 Y-5.815 Z-1.469
X4.936 Y-5.887 Z-1.477
X4.932 Y-6.018 Z-1.487
X4.937 Y-6.553 Z-1.502
X4.935 Y-6.772 Z-1.512
X4.93 Y-6.961 Z-1.524
X4.919 Y-7.165 Z-1.543
X4.904 Y-7.325 Z-1.562
X4.897 Y-7.395 Z-1.573
X4.874 Y-7.569 Z-1.603
X4.857 Y-7.665 Z-1.623
X4.833 Y-7.798 Z-1.654
X4.809 Y-7.923 Z-1.691
X4.786 Y-8.05 Z-1.737
X4.73 Y-8.048 Z-1.689
X4.527 Y-8.038 Z-1.516
X4.275 Y-8.016 Z-1.307
X4.04 Y-7.989 Z-1.117
X3.847 Y-7.956 Z-0.967
X3.662 Y-7.916 Z-0.827
X3.555 Y-7.887 Z-0.749
X3.413 Y-7.843 Z-0.649
X3.277 Y-7.791 Z-0.556
X3.202 Y-7.759 Z-0.507
X3.067 Y-7.693 Z-0.422
X2.887 Y-7.591 Z-0.31
X2.795 Y-7.533 Z-0.252
X2.722 Y-7.486 Z-0.203
X2.665 Y-7.449 Z-0.16
X2.624 Y-7.422 Z-0.125
X2.602 Y-7.408 Z-0.103
X2.6 Y-7.407 Z-0.101
X2.514 Y-7.352 Z-0.001
X2.6 Y-7.407 Z-0.101
X2.602 Y-7.408 Z-0.103
X2.624 Y-7.422 Z-0.125
X2.665 Y-7.449 Z-0.16
X2.722 Y-7.486 Z-0.203
X2.795 Y-7.533 Z-0.252
X2.887 Y-7.591 Z-0.31
X3.067 Y-7.693 Z-0.422
X3.202 Y-7.759 Z-0.507
X3.277 Y-7.791 Z-0.556
X3.413 Y-7.843 Z-0.649
X3.555 Y-7.887 Z-0.749
X3.662 Y-7.916 Z-0.827
X3.847 Y-7.956 Z-0.967
X4.04 Y-7.989 Z-1.117
X4.275 Y-8.016 Z-1.307
X4.527 Y-8.038 Z-1.516
X4.73 Y-8.048 Z-1.689
X4.786 Y-8.05 Z-1.737
X4.831 Y-8.169 Z-1.723
X4.869 Y-8.261 Z-1.715
X4.901 Y-8.333 Z-1.712
X4.952 Y-8.444
X5.025 Y-8.592 Z-1.721
X5.067 Y-8.674 Z-1.731
X5.112 Y-8.755 Z-1.743
X5.169 Y-8.856 Z-1.764
X5.215 Y-8.934 Z-1.785
X5.263 Y-9.012 Z-1.807
X5.42 Y-9.019 Z-1.711
X5.568 Y-9.026 Z-1.629
X5.709 Y-9.033 Z-1.56
X5.844 Y-9.039 Z-1.504
X5.975 Y-9.046 Z-1.459
X6.102 Y-9.052 Z-1.426
X6.226 Y-9.058 Z-1.404
X6.35 Y-9.063 Z-1.392
X6.443 Y-9.066 Z-1.389
X8.76 Y-9.097 Z-1.356
X9.122 Y-9.096 Z-1.344
X9.265 Y-9.095 Z-1.339
X9.519 Y-9.09 Z-1.326
X9.873 Y-9.078 Z-1.301
X9.948 Y-9.076 Z-1.295
X10.188 Y-9.064 Z-1.273
X10.465 Y-9.048 Z-1.24
X10.535 Y-9.043 Z-1.231
X10.708 Y-9.03 Z-1.205
X10.913 Y-9.013 Z-1.168
X11.087 Y-8.997 Z-1.13
X11.228 Y-8.984 Z-1.094
X11.339 Y-8.973 Z-1.061
X11.421 Y-8.966 Z-1.032
X11.51 Y-8.961 Z-0.995
X11.521 Z-0.99
X11.629 Y-8.972 Z-0.923
X11.698 Y-8.98 Z-0.875
X11.778 Y-8.99 Z-0.816
X11.877 Y-9.003 Z-0.733
X11.931 Y-9.009 Z-0.684
X11.962 Y-9.014 Z-0.654
X11.931 Y-9.009 Z-0.684
X11.877 Y-9.003 Z-0.733
X11.778 Y-8.99 Z-0.816
X11.698 Y-8.98 Z-0.875
X11.629 Y-8.972 Z-0.923
X11.521 Y-8.961 Z-0.99
X11.51 Z-0.995
X11.421 Y-8.966 Z-1.032
X11.339 Y-8.973 Z-1.061
X11.228 Y-8.984 Z-1.094
X11.087 Y-8.997 Z-1.13
X10.913 Y-9.013 Z-1.168
X10.708 Y-9.03 Z-1.205
X10.535 Y-9.043 Z-1.231
X10.465 Y-9.048 Z-1.24
X10.188 Y-9.064 Z-1.273
X9.948 Y-9.076 Z-1.295
X9.873 Y-9.078 Z-1.301
X9.519 Y-9.09 Z-1.326
X9.265 Y-9.095 Z-1.339
X9.122 Y-9.096 Z-1.344
X8.76 Y-9.097 Z-1.356
X6.443 Y-9.066 Z-1.389
X6.35 Y-9.063 Z-1.392
X6.226 Y-9.058 Z-1.404
X6.102 Y-9.052 Z-1.426
X5.975 Y-9.046 Z-1.459
X5.844 Y-9.039 Z-1.504
X5.709 Y-9.033 Z-1.56
X5.568 Y-9.026 Z-1.629
X5.42 Y-9.019 Z-1.711
X5.263 Y-9.012 Z-1.807
X5.217 Y-9.154 Z-1.725
X5.185 Y-9.261 Z-1.669
X5.156 Y-9.366 Z-1.616
X5.129 Y-9.473 Z-1.568
X5.103 Y-9.582 Z-1.523
X5.081 Y-9.69 Z-1.482
X5.065 Y-9.772 Z-1.455
X5.046 Y-9.888 Z-1.422
X5.032 Y-10.003 Z-1.394
X5.02 Y-10.127 Z-1.37
X5.015 Y-10.191 Z-1.361
X5.013 Y-10.254 Z-1.352
X5.01 Y-10.362 Z-1.343
X5.015 Y-10.644 Z-1.335
X5.017 Y-10.824 Z-1.333
X5.019 Y-11.189 Z-1.331
X5.005 Y-13.33 Z-1.345
Y-13.824
X5.009 Y-14.287 Z-1.341
X5.016 Y-14.7 Z-1.333
X5.024 Y-14.989 Z-1.325
X5.042 Y-15.492 Z-1.305
X5.056 Y-15.761 Z-1.289
X5.08 Y-16.146 Z-1.26
X5.101 Y-16.404 Z-1.234
X5.128 Y-16.688 Z-1.2
X5.155 Y-16.919 Z-1.165
X5.177 Y-17.073 Z-1.136
X5.214 Y-17.306 Z-1.086
X5.244 Y-17.467 Z-1.042
X5.275 Y-17.609 Z-0.996
X5.291 Y-17.667 Z-0.974
X5.244 Y-17.765 Z-0.88
X5.22 Y-17.819 Z-0.825
X5.197 Y-17.862 Z-0.778
X5.22 Y-17.819 Z-0.825
X5.244 Y-17.765 Z-0.88
X5.291 Y-17.667 Z-0.974
X5.346 Y-17.721 Z-0.913
X5.508 Y-17.873 Z-0.727
X5.642 Y-17.996 Z-0.568
X5.733 Y-18.088 Z-0.451
X5.813 Y-18.184 Z-0.333
Z5
X17.68 Y-1.908
Z-0.492 F333.3
X17.818 Y-1.993 Z-0.651 F2000
X17.864 Y-2.027 Z-0.706
X17.959 Y-2.091 Z-0.814
X18.074 Y-2.179 Z-0.947
X18.287 Y-2.344 Z-1.187
X18.504 Y-2.523 Z-1.426
X18.522 Y-2.539 Z-1.447
X18.64 Y-2.402 Z-1.344
X18.806 Y-2.221 Z-1.199
X19.019 Y-2.001 Z-1.01
X20.158 Y-0.857 Z-0.001
X19.019 Y-2.001 Z-1.01
X18.806 Y-2.221 Z-1.199
X18.64 Y-2.402 Z-1.344
X18.522 Y-2.539 Z-1.447
X18.509 Y-2.668 Z-1.448
X18.486 Y-2.94 Z-1.449
X18.465 Y-3.273
X18.445 Y-3.658
X18.428 Y-4.092 Z-1.447
X18.412 Y-4.573 Z-1.445
X18.391 Y-5.417 Z-1.439
X18.371 Y-6.56 Z-1.43
X18.359 Y-7.589 Z-1.422
X18.351 Y-8.548 Z-1.414
X18.346 Y-9.598 Z-1.406
Y-10.644 Z-1.397
X18.352 Y-11.598 Z-1.386
X18.361 Y-12.464 Z-1.373
X18.375 Y-13.245 Z-1.356
X18.393 Y-13.945 Z-1.335
X18.415 Y-14.569 Z-1.311
X18.441 Y-15.119 Z-1.283
X18.455 Y-15.368 Z-1.268
X18.471 Y-15.6 Z-1.251
X18.487 Y-15.816 Z-1.234
X18.504 Y-16.016 Z-1.216
X18.522 Y-16.2 Z-1.197
X18.541 Y-16.369 Z-1.178
X18.561 Y-16.524 Z-1.157
X18.581 Y-16.665 Z-1.137
X18.602 Y-16.793 Z-1.116
X18.622 Y-16.908 Z-1.094
X18.662 Y-17.094 Z-1.054
X18.709 Y-17.27 Z-1.006
X18.73 Y-17.335 Z-0.985
X18.67 Y-17.416 Z-0.888
X18.58 Y-17.522 Z-0.753
X18.516 Y-17.588 Z-0.663
X18.58 Y-17.522 Z-0.753
X18.67 Y-17.416 Z-0.888
X18.73 Y-17.335 Z-0.985
X18.779 Y-17.4 Z-0.935
X18.83 Y-17.459 Z-0.885
X18.884 Y-17.516 Z-0.831
X18.963 Y-17.592 Z-0.751
X19.711 Y-18.26 Z-0.001
Z5
X23.733 Y-11.25
Z-0.214 F333.3
X23.736 Y-11.236 Z-0.201 F2000
Z5
X23.733 Y-11.25
Z-0.214 F333.3
X23.721 Y-11.275 Z-0.237 F2000
X23.713 Y-11.301 Z-0.259
X23.695 Y-11.344 Z-0.292
X23.681 Y-11.384 Z-0.32
X23.656 Y-11.444 Z-0.359
X23.637 Y-11.499 Z-0.391
X23.606 Y-11.576 Z-0.433
X23.581 Y-11.645 Z-0.469
X23.543 Y-11.738 Z-0.514
X23.469 Y-11.932 Z-0.601
X23.388 Y-12.143 Z-0.688
X23.312 Y-12.357 Z-0.767
X23.261 Y-12.538 Z-0.824
X23.227 Y-12.707 Z-0.87
X23.207 Y-12.866 Z-0.907
X23.2 Y-13.003 Z-0.933
X23.203 Y-13.178 Z-0.962
X23.214 Y-13.31 Z-0.977
X23.243 Y-13.503 Z-0.995
X23.285 Y-13.686 Z-1.008
X23.302 Y-13.746 Z-1.01
X23.341 Y-13.873 Z-1.017
X23.401 Y-14.039 Z-1.021
X23.475 Y-14.214 Z-1.024
X23.5 Y-14.269 Z-1.026
X23.586 Y-14.437 Z-1.027
X23.71 Y-14.654 Z-1.029
X23.848 Y-14.863 Z-1.031
X23.882 Y-14.911 Z-1.032
X23.997 Y-15.064 Z-1.033
X24.033 Y-15.11 Z-1.034
X24.156 Y-15.258 Z-1.037
X24.194 Y-15.301 Z-1.038
X24.327 Y-15.445 Z-1.042
X24.454 Y-15.574 Z-1.048
X24.506 Y-15.624 Z-1.049
X24.681 Y-15.785 Z-1.058
X24.894 Y-15.962 Z-1.068
X25.101 Y-16.12 Z-1.08
X25.141 Y-16.15 Z-1.083
X25.316 Y-16.271 Z-1.094
X25.469 Y-16.371 Z-1.105
X25.541 Y-16.416 Z-1.11
X25.763 Y-16.547 Z-1.127
X26.015 Y-16.684 Z-1.146
X26.265 Y-16.807 Z-1.165
X26.389 Y-16.865 Z-1.177
X26.523 Y-16.923 Z-1.187
X26.719 Y-17.005 Z-1.204
X27.059 Y-17.133 Z-1.232
X27.347 Y-17.228 Z-1.255
X27.638 Y-17.314 Z-1.278
X27.762 Y-17.348 Z-1.289
X27.937 Y-17.392 Z-1.301
X28.123 Y-17.436 Z-1.316
X28.244 Y-17.461 Z-1.323
X28.489 Y-17.51 Z-1.341
X28.86 Y-17.57 Z-1.364
X29.061 Y-17.596 Z-1.375
X29.275 Y-17.618 Z-1.382
X29.5 Y-17.635 Z-1.387
X29.665 Y-17.644 Z-1.388
X30.024 Y-17.652 Z-1.386
X30.222 Z-1.388
X30.364 Y-17.648 Z-1.384
X30.691 Y-17.632 Z-1.383
X31.003 Y-17.601 Z-1.379
X31.218 Y-17.573 Z-1.381
X31.307 Y-17.559 Z-1.38
X31.396 Y-17.544 Z-1.381
X31.603 Y-17.501 Z-1.383
X31.668 Y-17.487 Z-1.384
X31.881 Y-17.429 Z-1.39
X31.959 Y-17.405
X32.079 Y-17.366 Z-1.397
X32.259 Y-17.298 Z-1.405
X32.417 Y-17.227 Z-1.414
X32.54 Y-17.166 Z-1.42
X32.624 Y-17.117 Z-1.424
X32.749 Y-17.037 Z-1.43
X32.841 Y-16.972 Z-1.432
X32.902 Y-16.922 Z-1.434
X33 Y-16.836 Z-1.435
X33.071 Y-16.766 Z-1.433
X33.136 Y-16.694 Z-1.431
X33.197 Y-16.619 Z-1.427
X33.236 Y-16.567 Z-1.423
X33.311 Y-16.458 Z-1.414
X33.362 Y-16.368 Z-1.406
X33.407 Y-16.284 Z-1.397
X33.461 Y-16.17 Z-1.383
X33.505 Y-16.058 Z-1.37
X33.547 Y-15.938 Z-1.354
X33.572 Y-15.85 Z-1.342
X33.616 Y-15.668 Z-1.318
X33.642 Y-15.519 Z-1.301
X33.661 Y-15.359 Z-1.281
X33.671 Y-15.19 Z-1.263
X33.672 Y-15.085 Z-1.25
Y-15.019 Z-1.246
X33.663 Y-14.824 Z-1.229
X33.641 Y-14.629 Z-1.215
X33.629 Y-14.549 Z-1.209
X33.608 Y-14.426 Z-1.204
X33.57 Y-14.244 Z-1.195
X33.527 Y-14.08 Z-1.19
X33.505 Y-14.001 Z-1.188
X33.45 Y-13.827 Z-1.185
X33.358 Y-13.576
X33.253 Y-13.326 Z-1.188
X33.143 Y-13.091 Z-1.193
X33.024 Y-12.86 Z-1.2
X32.878 Y-12.604 Z-1.208
X32.709 Y-12.333 Z-1.215
X32.526 Y-12.062 Z-1.221
X32.336 Y-11.801 Z-1.227
X32.133 Y-11.536 Z-1.233
X32.029 Y-11.404 Z-1.237
X31.916 Y-11.265 Z-1.24
X31.745 Y-11.059 Z-1.246
X31.438 Y-10.705 Z-1.254
X31.177 Y-10.415 Z-1.261
X30.901 Y-10.119 Z-1.268
X30.719 Y-9.928 Z-1.274
X30.32 Y-9.52 Z-1.284
X29.982 Y-9.185 Z-1.293
X29.893 Y-9.097 Z-1.295
X29.438 Y-8.66 Z-1.307
X28.955 Y-8.208 Z-1.318
X28.539 Y-7.827 Z-1.328
X28.445 Y-7.741 Z-1.33
X27.906 Y-7.26 Z-1.342
X27.336 Y-6.76 Z-1.354
X27.067 Y-6.518 Z-1.36
X26.83 Y-6.289 Z-1.364
X26.614 Y-6.065 Z-1.366
X26.546 Y-5.991 Z-1.365
X26.408 Y-5.836 Z-1.367
X26.322 Y-5.735 Z-1.366
X26.213 Y-5.603 Z-1.368
X26.111 Y-5.471 Z-1.369
X26.034 Y-5.367 Z-1.371
X25.986 Y-5.298 Z-1.372
X25.889 Y-5.154 Z-1.378
X25.816 Y-5.034 Z-1.383
X25.736 Y-4.892 Z-1.395
X25.682 Y-4.782 Z-1.405
X25.625 Y-4.656 Z-1.421
X25.591 Y-4.567 Z-1.433
X25.559 Y-4.475 Z-1.449
X25.514 Y-4.321 Z-1.476
X25.488 Y-4.213 Z-1.499
X25.477 Y-4.149 Z-1.512
X25.457 Y-4.02 Z-1.543
X25.453 Y-3.987 Z-1.55
X25.441 Y-3.858 Z-1.58
X25.439 Y-3.732 Z-1.608
X25.442 Y-3.675 Z-1.621
X25.449 Y-3.605 Z-1.634
X25.473 Y-3.473 Z-1.652
X25.506 Y-3.358 Z-1.666
X25.535 Y-3.279 Z-1.674
X25.573 Y-3.192 Z-1.68
X25.628 Y-3.089 Z-1.682
X25.669 Y-3.026
X25.726 Y-2.95 Z-1.679
X25.822 Y-2.839 Z-1.67
X25.914 Y-2.749 Z-1.659
X26.026 Y-2.657 Z-1.645
X26.05 Y-2.639 Z-1.641
X26.156 Y-2.563 Z-1.627
X26.306 Y-2.472 Z-1.607
X26.395 Y-2.424 Z-1.594
X26.471 Y-2.386 Z-1.585
X26.665 Y-2.302 Z-1.56
X26.872 Y-2.229 Z-1.535
X27.076 Y-2.172 Z-1.512
X27.315 Y-2.12 Z-1.486
X27.549 Y-2.083 Z-1.461
X27.622 Y-2.074 Z-1.453
X27.844 Y-2.053 Z-1.429
X28.114 Y-2.044 Z-1.402
X28.222 Y-2.043 Z-1.388
X28.324 Y-2.044 Z-1.376
X28.676 Y-2.062 Z-1.336
X28.697 Y-2.063 Z-1.333
X28.965 Y-2.093 Z-1.3
X29.175 Y-2.123 Z-1.27
X29.248 Y-2.134 Z-1.26
X29.554 Y-2.195 Z-1.217
X29.655 Y-2.218 Z-1.199
X29.853 Y-2.269 Z-1.169
X30.133 Y-2.35 Z-1.12
X30.454 Y-2.461 Z-1.062
X30.604 Y-2.518 Z-1.03
X30.755 Y-2.581 Z-1.001
X31.058 Y-2.718 Z-0.934
X31.358 Y-2.876 Z-0.864
X31.502 Y-2.957 Z-0.825
X31.658 Y-3.052 Z-0.787
X31.832 Y-3.167 Z-0.739
X31.958 Y-3.257 Z-0.698
X32.173 Y-3.43 Z-0.628
X32.292 Y-3.533 Z-0.583
X32.466 Y-3.698 Z-0.511
X32.577 Y-3.815 Z-0.456
X32.663 Y-3.916 Z-0.403
X32.682 Y-3.941 Z-0.389
X33.072 Y-4.567 Z-0.001
Z5
X36.481 Y-8.207
Z-0.001 F333.3
X37.878 Y-8.813 Z-0.747 F2000
X38.135 Y-8.926 Z-0.886
X38.247 Y-8.97 Z-0.95
X38.365 Y-9.011 Z-1.023
X38.522 Y-9.057 Z-1.126
X38.644 Y-9.087 Z-1.211
X38.849 Y-9.13 Z-1.362
X38.979 Y-9.153 Z-1.462
X39.128 Y-9.177 Z-1.58
X39.268 Y-9.197 Z-1.694
X39.452 Y-9.218 Z-1.848
X39.469 Y-9.098 Z-1.787
X39.484 Y-8.984 Z-1.736
X39.499 Y-8.874 Z-1.692
X39.514 Y-8.769 Z-1.656
X39.528 Y-8.667 Z-1.627
X39.541 Y-8.568 Z-1.605
X39.554 Y-8.47 Z-1.588
X39.568 Y-8.373 Z-1.578
X39.574 Y-8.317 Z-1.574
X39.585 Y-8.204 Z-1.57
X39.668 Y-6.918 Z-1.568
X39.68 Y-6.748 Z-1.569
X39.709 Y-6.353 Z-1.573
X39.761 Y-5.751 Z-1.585
X39.811 Y-5.215 Z-1.598
X39.853 Y-4.832 Z-1.607
X39.882 Y-4.595 Z-1.611
X39.908 Y-4.391 Z-1.612
X39.928 Y-4.246 Z-1.611
X39.955 Y-4.079 Z-1.609
X39.976 Y-3.97 Z-1.606
X39.993 Y-3.889 Z-1.601
X40.013 Y-3.809 Z-1.593
X40.035 Y-3.75 Z-1.58
X40.06 Y-3.699 Z-1.564
X40.104 Y-3.623 Z-1.532
X40.187 Y-3.494 Z-1.471
X40.299 Y-3.329 Z-1.387
X40.433 Y-3.139 Z-1.286
X40.576 Y-2.943 Z-1.176
X40.911 Y-2.501 Z-0.908
X41.07 Y-2.299 Z-0.777
X41.267 Y-2.056 Z-0.61
X41.38 Y-1.919 Z-0.512
X41.557 Y-1.716 Z-0.352
X41.639 Y-1.624 Z-0.275
X41.731 Y-1.529 Z-0.183
X41.769 Y-1.495 Z-0.145
X41.815 Y-1.459 Z-0.095
X41.818 Y-1.457 Z-0.091
X41.899 Y-1.412 Z-0.001
X41.818 Y-1.457 Z-0.091
X41.815 Y-1.459 Z-0.095
X41.769 Y-1.495 Z-0.145
X41.731 Y-1.529 Z-0.183
X41.639 Y-1.624 Z-0.275
X41.557 Y-1.716 Z-0.352
X41.38 Y-1.919 Z-0.512
X41.267 Y-2.056 Z-0.61
X41.07 Y-2.299 Z-0.777
X40.911 Y-2.501 Z-0.908
X40.576 Y-2.943 Z-1.176
X40.433 Y-3.139 Z-1.286
X40.299 Y-3.329 Z-1.387
X40.187 Y-3.494 Z-1.471
X40.104 Y-3.623 Z-1.532
X40.06 Y-3.699 Z-1.564
X40.035 Y-3.75 Z-1.58
X40.013 Y-3.809 Z-1.593
X39.993 Y-3.889 Z-1.601
X39.976 Y-3.97 Z-1.606
X39.955 Y-4.079 Z-1.609
X39.928 Y-4.246 Z-1.611
X39.908 Y-4.391 Z-1.612
X39.882 Y-4.595 Z-1.611
X39.853 Y-4.832 Z-1.607
X39.811 Y-5.215 Z-1.598
X39.761 Y-5.751 Z-1.585
X39.709 Y-6.353 Z-1.573
X39.68 Y-6.748 Z-1.569
X39.668 Y-6.918 Z-1.568
X39.585 Y-8.204 Z-1.57
X39.574 Y-8.317 Z-1.574
X39.568 Y-8.373 Z-1.578
X39.554 Y-8.47 Z-1.588
X39.541 Y-8.568 Z-1.605
X39.528 Y-8.667 Z-1.627
X39.514 Y-8.769 Z-1.656
X39.499 Y-8.874 Z-1.692
X39.484 Y-8.984 Z-1.736
X39.469 Y-9.098 Z-1.787
X39.452 Y-9.218 Z-1.848
X39.5 Y-9.318
X39.537 Y-9.391 Z-1.851
X39.606 Y-9.525 Z-1.864
X39.672 Y-9.649 Z-1.884
X39.603 Y-9.855 Z-1.753
X39.58 Y-9.928 Z-1.71
X39.549 Y-10.026 Z-1.656
X39.522 Y-10.124 Z-1.604
X39.492 Y-10.238 Z-1.549
X39.466 Y-10.339 Z-1.505
X39.445 Y-10.439 Z-1.465
X39.428 Y-10.524 Z-1.434
X39.408 Y-10.631 Z-1.401
X39.385 Y-10.8 Z-1.356
X39.374 Y-10.917 Z-1.334
X39.367 Y-11.034 Z-1.316
X39.364 Y-11.136 Z-1.306
Y-11.196 Z-1.303
X39.365 Y-11.255 Z-1.3
X39.37 Y-11.367
X39.39 Y-11.846 Z-1.304
X39.407 Y-12.406 Z-1.314
X39.434 Y-13.272 Z-1.332
X39.452 Y-13.699 Z-1.335
X39.474 Y-14.112 Z-1.333
X39.501 Y-14.511 Z-1.326
X39.533 Y-14.918 Z-1.315
X39.565 Y-15.266 Z-1.3
X39.602 Y-15.62 Z-1.28
X39.648 Y-16.003 Z-1.251
X39.686 Y-16.282 Z-1.226
X39.742 Y-16.65 Z-1.183
X39.779 Y-16.879 Z-1.153
X39.832 Y-17.17 Z-1.106
X39.888 Y-17.451 Z-1.051
X39.936 Y-17.678 Z-0.999
X39.98 Y-17.88 Z-0.943
X40.009 Y-18.006 Z-0.903
X40.033 Y-18.135 Z-0.855
X40.084 Y-18.167 Z-0.798
X40.178 Y-18.234 Z-0.686
X40.084 Y-18.167 Z-0.798
X40.033 Y-18.135 Z-0.855
X40.032 Y-18.143 Z-0.85
X39.985 Y-18.418 Z-0.654
X39.963 Y-18.544 Z-0.56
X39.96 Y-18.564 Z-0.545
X39.944 Y-18.662 Z-0.467
X39.923 Y-18.78 Z-0.364
X39.917 Y-18.817 Z-0.329
X39.923 Y-18.78 Z-0.364
X39.944 Y-18.662 Z-0.467
X39.96 Y-18.564 Z-0.545
X39.963 Y-18.544 Z-0.56
X39.985 Y-18.418 Z-0.654
X40.032 Y-18.143 Z-0.85
X40.033 Y-18.135 Z-0.855
X40.009 Y-18.006 Z-0.903
X39.98 Y-17.88 Z-0.943
X39.936 Y-17.678 Z-0.999
X39.888 Y-17.451 Z-1.051
X39.832 Y-17.17 Z-1.106
X39.779 Y-16.879 Z-1.153
X39.742 Y-16.65 Z-1.183
X39.686 Y-16.282 Z-1.226
X39.648 Y-16.003 Z-1.251
X39.602 Y-15.62 Z-1.28
X39.565 Y-15.266 Z-1.3
X39.533 Y-14.918 Z-1.315
X39.501 Y-14.511 Z-1.326
X39.474 Y-14.112 Z-1.333
X39.452 Y-13.699 Z-1.335
X39.434 Y-13.272 Z-1.332
X39.407 Y-12.406 Z-1.314
X39.39 Y-11.846 Z-1.304
X39.37 Y-11.367 Z-1.3
X39.365 Y-11.255
X39.364 Y-11.196 Z-1.303
Y-11.136 Z-1.306
X39.367 Y-11.034 Z-1.316
X39.374 Y-10.917 Z-1.334
X39.385 Y-10.8 Z-1.356
X39.408 Y-10.631 Z-1.401
X39.428 Y-10.524 Z-1.434
X39.445 Y-10.439 Z-1.465
X39.466 Y-10.339 Z-1.505
X39.492 Y-10.238 Z-1.549
X39.522 Y-10.124 Z-1.604
X39.549 Y-10.026 Z-1.656
X39.58 Y-9.928 Z-1.71
X39.603 Y-9.855 Z-1.753
X39.672 Y-9.649 Z-1.884
X39.815 Y-9.673 Z-1.791
X39.95 Y-9.696 Z-1.71
X40.079 Y-9.719 Z-1.639
X40.202 Y-9.74 Z-1.579
X40.322 Y-9.76 Z-1.528
X40.438 Y-9.78 Z-1.487
X40.552 Y-9.8 Z-1.454
X40.665 Y-9.819 Z-1.43
X40.738 Y-9.83 Z-1.418
X40.811 Y-9.84 Z-1.409
X40.883 Y-9.847 Z-1.4
X40.956 Y-9.854 Z-1.395
X41.029 Y-9.857 Z-1.39
X41.102 Y-9.86 Z-1.389
X46.228 Y-9.935 Z-1.314
X46.292 Z-1.316
X46.356 Z-1.321
X46.421 Y-9.934 Z-1.329
X46.486 Z-1.341
X46.552 Y-9.933 Z-1.355
X46.619 Z-1.373
X46.687 Z-1.395
X46.755 Y-9.932 Z-1.419
X46.897 Y-9.931 Z-1.478
X47.045 Y-9.93 Z-1.552
X47.201 Y-9.929 Z-1.64
X47.366 Y-9.928 Z-1.744
X47.389 Y-10.066 Z-1.659
X47.411 Y-10.195 Z-1.585
X47.431 Y-10.318 Z-1.522
X47.451 Y-10.436 Z-1.469
X47.469 Y-10.549 Z-1.426
X47.488 Y-10.66 Z-1.391
X47.506 Y-10.768 Z-1.366
X47.523 Y-10.875 Z-1.349
X47.533 Y-10.947 Z-1.34
X47.543 Y-11.019 Z-1.336
X47.549 Y-11.091 Z-1.331
X47.555 Y-11.163
X47.678 Y-13.335 Z-1.312
X47.718 Y-13.943 Z-1.301
X47.765 Y-14.509 Z-1.281
X47.821 Y-15.051 Z-1.25
X47.85 Y-15.303 Z-1.232
X47.88 Y-15.544 Z-1.212
X47.912 Y-15.78 Z-1.189
X47.945 Y-16.006 Z-1.164
X47.979 Y-16.222 Z-1.137
X48.033 Y-16.536 Z-1.091
X48.062 Y-16.697 Z-1.064
X48.091 Y-16.846 Z-1.036
X48.118 Y-16.981 Z-1.009
X48.172 Y-17.226 Z-0.951
X48.183 Y-17.278 Z-0.937
X48.22 Y-17.427 Z-0.894
X48.262 Y-17.588 Z-0.839
X48.273 Y-17.634 Z-0.821
X48.299 Y-17.723 Z-0.783
X48.322 Y-17.8 Z-0.745
X48.342 Y-17.868 Z-0.705
X48.344 Y-17.964 Z-0.624
X48.345 Y-18.003 Z-0.587
X48.346 Y-18.014 Z-0.576
X48.345 Y-18.003 Z-0.587
X48.344 Y-17.964 Z-0.624
X48.342 Y-17.868 Z-0.705
X48.384 Y-17.902 Z-0.652
X48.342 Y-17.868 Z-0.705
X48.322 Y-17.8 Z-0.745
X48.299 Y-17.723 Z-0.783
X48.273 Y-17.634 Z-0.821
X48.262 Y-17.588 Z-0.839
X48.22 Y-17.427 Z-0.894
X48.183 Y-17.278 Z-0.937
X48.172 Y-17.226 Z-0.951
X48.118 Y-16.981 Z-1.009
X48.091 Y-16.846 Z-1.036
X48.062 Y-16.697 Z-1.064
X48.033 Y-16.536 Z-1.091
X47.979 Y-16.222 Z-1.137
X47.945 Y-16.006 Z-1.164
X47.912 Y-15.78 Z-1.189
X47.88 Y-15.544 Z-1.212
X47.85 Y-15.303 Z-1.232
X47.821 Y-15.051 Z-1.25
X47.765 Y-14.509 Z-1.281
X47.718 Y-13.943 Z-1.301
X47.678 Y-13.335 Z-1.312
X47.555 Y-11.163 Z-1.331
X47.549 Y-11.091
X47.543 Y-11.019 Z-1.336
X47.533 Y-10.947 Z-1.34
X47.523 Y-10.875 Z-1.349
X47.506 Y-10.768 Z-1.366
X47.488 Y-10.66 Z-1.391
X47.469 Y-10.549 Z-1.426
X47.451 Y-10.436 Z-1.469
X47.431 Y-10.318 Z-1.522
X47.411 Y-10.195 Z-1.585
X47.389 Y-10.066 Z-1.659
X47.366 Y-9.928 Z-1.744
X47.415 Y-9.87 Z-1.734
X47.459 Y-9.816 Z-1.727
X47.501 Y-9.766 Z-1.724
X47.584 Y-9.664
X47.672 Y-9.558 Z-1.735
X47.717 Y-9.503 Z-1.744
X47.763 Y-9.447 Z-1.757
X47.811 Y-9.388 Z-1.774
X47.861 Y-9.327 Z-1.795
X47.929 Y-9.245 Z-1.827
X47.965 Y-9.252 Z-1.802
X48.136 Y-9.286 Z-1.683
X48.303 Y-9.313 Z-1.573
X48.507 Y-9.339 Z-1.442
X48.588 Y-9.348 Z-1.393
X48.828 Y-9.369 Z-1.249
X49.041 Y-9.379 Z-1.128
X49.236 Y-9.384 Z-1.022
X49.421 Z-0.923
X49.584 Y-9.381 Z-0.839
X49.813 Y-9.374 Z-0.717
X50 Y-9.369 Z-0.611
X50.156 Y-9.364 Z-0.516
X50.28 Y-9.359 Z-0.432
X50.372 Y-9.356 Z-0.363
X50.46 Y-9.353 Z-0.284
X50.372 Y-9.356 Z-0.363
X50.28 Y-9.359 Z-0.432
X50.156 Y-9.364 Z-0.516
X50 Y-9.369 Z-0.611
X49.813 Y-9.374 Z-0.717
X49.584 Y-9.381 Z-0.839
X49.421 Y-9.384 Z-0.923
X49.236 Z-1.022
X49.041 Y-9.379 Z-1.128
X48.828 Y-9.369 Z-1.249
X48.588 Y-9.348 Z-1.393
X48.507 Y-9.339 Z-1.442
X48.303 Y-9.313 Z-1.573
X48.136 Y-9.286 Z-1.683
X47.965 Y-9.252 Z-1.802
X47.929 Y-9.245 Z-1.827
X47.917 Y-9.158 Z-1.788
X47.891 Y-8.993 Z-1.721
X47.868 Y-8.853 Z-1.673
X47.849 Y-8.743 Z-1.643
X47.827 Y-8.611 Z-1.61
X47.802 Y-8.433 Z-1.573
X47.795 Y-8.364 Z-1.559
X47.779 Y-8.191 Z-1.531
X47.771 Y-8.08 Z-1.515
X47.763 Y-7.878 Z-1.492
X47.76 Y-7.689 Z-1.475
X47.761 Y-7.505 Z-1.462
X47.764 Y-7.324 Z-1.452
X47.775 Y-7.034 Z-1.442
X47.785 Y-6.864 Z-1.439
X47.805 Y-6.572 Z-1.438
X47.832 Y-6.24 Z-1.44
X47.865 Y-5.866 Z-1.445
X47.924 Y-5.246 Z-1.458
X47.991 Y-4.586 Z-1.475
X48.059 Y-3.969 Z-1.492
X48.128 Y-3.388 Z-1.508
X48.169 Y-3.072 Z-1.514
X48.216 Y-2.75 Z-1.517
X48.239 Y-2.606 Z-1.518
X48.267 Y-2.453 Z-1.515
X48.292 Y-2.334 Z-1.51
X48.291 Y-2.333 Z-1.509
X48.229 Y-2.287 Z-1.435
X48.07 Y-2.179 Z-1.248
X48.015 Y-2.141 Z-1.182
X48.07 Y-2.179 Z-1.248
X48.229 Y-2.287 Z-1.435
X48.291 Y-2.333 Z-1.509
X48.292 Y-2.334 Z-1.51
X48.313 Y-2.306 Z-1.494
X48.371 Y-2.234 Z-1.449
X48.462 Y-2.133 Z-1.376
X48.58 Y-2.011 Z-1.281
X48.718 Y-1.877 Z-1.169
X48.871 Y-1.739 Z-1.043
X49.032 Y-1.603 Z-0.91
X49.196 Y-1.475 Z-0.773
X49.384 Y-1.343 Z-0.615
X49.498 Y-1.27 Z-0.518
X49.625 Y-1.2 Z-0.41
X49.765 Y-1.141 Z-0.285
X49.806 Y-1.13 Z-0.246
Z5
X52.709 Y-0.798
Z0 F333.3
X53.883 Y-1.529 Z-0.723 F2000
X54.119 Y-1.673 Z-0.866
X54.354 Y-1.814 Z-1.004
X54.84 Y-2.093 Z-1.281
X55.048 Y-2.209 Z-1.395
X55.232 Y-2.308 Z-1.493
X55.549 Y-2.468 Z-1.651
X55.738 Y-2.567 Z-1.749
X55.839 Y-2.624 Z-1.805
X56.021 Y-2.732 Z-1.912
X56.137 Y-2.806 Z-1.986
X56.278 Y-2.717 Z-1.895
X56.419 Y-2.635 Z-1.812
X56.56 Y-2.56 Z-1.736
X56.701 Y-2.492 Z-1.667
X56.772 Y-2.461 Z-1.635
X56.842 Y-2.431 Z-1.606
X56.913 Y-2.404 Z-1.577
X56.983 Y-2.378 Z-1.551
X57.054 Y-2.354 Z-1.526
X57.124 Y-2.331 Z-1.504
X57.194 Y-2.312 Z-1.482
X57.265 Y-2.292 Z-1.464
X57.335 Y-2.276 Z-1.446
X57.405 Y-2.26 Z-1.431
X57.476 Y-2.248 Z-1.417
X57.546 Y-2.236 Z-1.406
X57.616 Y-2.227 Z-1.395
X57.687 Y-2.218 Z-1.387
X57.757 Y-2.213 Z-1.38
X57.827 Y-2.208 Z-1.376
X57.897 Y-2.206 Z-1.372
X57.968 Y-2.205
X59.951 Y-2.212 Z-1.364
X60.346 Y-2.208 Z-1.357
X60.718 Y-2.198 Z-1.342
X61.07 Y-2.183 Z-1.322
X61.401 Y-2.165 Z-1.298
X61.794 Y-2.138 Z-1.263
X62.276 Y-2.099 Z-1.212
X62.585 Y-2.071 Z-1.174
X62.99 Y-2.031 Z-1.118
X63.385 Y-1.988 Z-1.054
X63.721 Y-1.95 Z-0.991
X64.041 Y-1.913 Z-0.921
X64.118 Y-1.904 Z-0.902
X64.353 Y-1.879 Z-0.84
X64.497 Y-1.863 Z-0.795
X64.637 Y-1.853 Z-0.747
X64.733 Y-1.847 Z-0.707
X64.824 Y-1.845 Z-0.666
X64.926 Y-1.847 Z-0.616
X65.047 Y-1.849 Z-0.55
X65.166 Y-1.848 Z-0.482
X65.269 Y-1.846 Z-0.418
X65.305 Y-1.845 Z-0.395
X65.431 Y-1.838 Z-0.307
X65.443 Z-0.298
X65.527 Y-1.834 Z-0.232
X65.536 Y-1.832 Z-0.223
X65.575 Y-1.828 Z-0.186
X65.609 Z-0.153
X65.763 Y-1.844 Z-0.001
X65.609 Y-1.828 Z-0.153
X65.575 Z-0.186
X65.536 Y-1.832 Z-0.223
X65.527 Y-1.834 Z-0.232
X65.443 Y-1.838 Z-0.298
X65.431 Z-0.307
X65.305 Y-1.845 Z-0.395
X65.269 Y-1.846 Z-0.418
X65.166 Y-1.848 Z-0.482
X65.047 Y-1.849 Z-0.55
X64.926 Y-1.847 Z-0.616
X64.824 Y-1.845 Z-0.666
X64.733 Y-1.847 Z-0.707
X64.637 Y-1.853 Z-0.747
X64.497 Y-1.863 Z-0.795
X64.353 Y-1.879 Z-0.84
X64.118 Y-1.904 Z-0.902
X64.041 Y-1.913 Z-0.921
X63.721 Y-1.95 Z-0.991
X63.385 Y-1.988 Z-1.054
X62.99 Y-2.031 Z-1.118
X62.585 Y-2.071 Z-1.174
X62.276 Y-2.099 Z-1.212
X61.794 Y-2.138 Z-1.263
X61.401 Y-2.165 Z-1.298
X61.07 Y-2.183 Z-1.322
X60.718 Y-2.198 Z-1.342
X60.346 Y-2.208 Z-1.357
X59.951 Y-2.212 Z-1.364
X57.968 Y-2.205 Z-1.372
X57.897 Y-2.206
X57.827 Y-2.208 Z-1.376
X57.757 Y-2.213 Z-1.38
X57.687 Y-2.218 Z-1.387
X57.616 Y-2.227 Z-1.395
X57.546 Y-2.236 Z-1.406
X57.476 Y-2.248 Z-1.417
X57.405 Y-2.26 Z-1.431
X57.335 Y-2.276 Z-1.446
X57.265 Y-2.292 Z-1.464
X57.194 Y-2.312 Z-1.482
X57.124 Y-2.331 Z-1.504
X57.054 Y-2.354 Z-1.526
X56.983 Y-2.378 Z-1.551
X56.913 Y-2.404 Z-1.577
X56.842 Y-2.431 Z-1.606
X56.772 Y-2.461 Z-1.635
X56.701 Y-2.492 Z-1.667
X56.56 Y-2.56 Z-1.736
X56.419 Y-2.635 Z-1.812
X56.278 Y-2.717 Z-1.895
X56.137 Y-2.806 Z-1.986
X56.142 Y-2.966 Z-1.925
X56.144 Y-3.035 Z-1.902
X56.15 Y-3.156 Z-1.866
X56.159 Y-3.298 Z-1.83
X56.172 Y-3.484 Z-1.789
X56.182 Y-3.724 Z-1.743
X56.187 Y-4.121 Z-1.677
X56.181 Y-4.515 Z-1.624
X56.167 Y-4.913 Z-1.582
X56.145 Y-5.309 Z-1.549
X56.115 Y-5.705 Z-1.526
X56.077 Y-6.096 Z-1.512
X56.031 Y-6.485 Z-1.508
X55.973 Y-6.872 Z-1.516
X55.907 Y-7.229 Z-1.536
X55.862 Y-7.432 Z-1.556
X55.817 Y-7.61 Z-1.578
X55.806 Y-7.652 Z-1.584
X55.782 Y-7.745 Z-1.602
X55.763 Y-7.821 Z-1.619
X55.736 Y-7.936 Z-1.652
X55.394 Y-7.908 Z-1.346
X55.097 Y-7.877 Z-1.092
X54.957 Y-7.862 Z-0.974
X54.797 Y-7.839 Z-0.847
X54.691 Y-7.821 Z-0.762
X54.583 Y-7.798 Z-0.678
X54.455 Y-7.763 Z-0.582
X54.319 Y-7.718 Z-0.481
X54.259 Y-7.692 Z-0.438
X54.195 Y-7.66 Z-0.393
X54.094 Y-7.602 Z-0.321
X54.022 Y-7.551 Z-0.269
X53.972 Y-7.516 Z-0.228
X53.91 Y-7.472 Z-0.167
X53.898 Y-7.463 Z-0.152
X53.91 Y-7.472 Z-0.167
X53.972 Y-7.516 Z-0.228
X54.022 Y-7.551 Z-0.269
X54.094 Y-7.602 Z-0.321
X54.195 Y-7.66 Z-0.393
X54.259 Y-7.692 Z-0.438
X54.319 Y-7.718 Z-0.481
X54.455 Y-7.763 Z-0.582
X54.583 Y-7.798 Z-0.678
X54.691 Y-7.821 Z-0.762
X54.797 Y-7.839 Z-0.847
X54.957 Y-7.862 Z-0.974
X55.097 Y-7.877 Z-1.092
X55.394 Y-7.908 Z-1.346
X55.736 Y-7.936 Z-1.652
X55.761 Y-8.044 Z-1.638
X55.795 Y-8.181 Z-1.63
X55.831 Y-8.307 Z-1.629
X55.873 Y-8.439 Z-1.635
X55.914 Y-8.56 Z-1.648
X55.942 Y-8.633 Z-1.659
X55.989 Y-8.753 Z-1.682
X56.022 Y-8.831 Z-1.701
X56.076 Y-8.95 Z-1.734
X56.106 Y-9.013 Z-1.754
X56.251 Y-9.028 Z-1.663
X56.387 Y-9.043 Z-1.584
X56.517 Y-9.056 Z-1.517
X56.641 Y-9.069 Z-1.462
X56.76 Y-9.082 Z-1.416
X56.877 Y-9.094 Z-1.38
X56.991 Y-9.106 Z-1.354
X57.104 Y-9.118 Z-1.338
X57.173 Y-9.124 Z-1.33
X57.243 Y-9.129 Z-1.327
X57.313 Y-9.131 Z-1.323
X57.382 Y-9.133
X59.803 Y-9.132 Z-1.322
X60.293 Y-9.124 Z-1.314
X60.335 Y-9.123 Z-1.313
X60.767 Y-9.108 Z-1.298
X60.982 Y-9.098 Z-1.287
X61.183 Y-9.087 Z-1.274
X61.371 Y-9.075 Z-1.26
X61.546 Y-9.062 Z-1.245
X61.708 Y-9.049 Z-1.229
X61.858 Y-9.036 Z-1.211
X62.005 Y-9.021 Z-1.192
X62.159 Y-9.004 Z-1.167
X62.338 Y-8.982 Z-1.134
X62.509 Y-8.959 Z-1.094
X62.543 Y-8.955 Z-1.085
X62.644 Y-8.94 Z-1.056
X62.738 Y-8.927 Z-1.022
X62.744 Y-8.918 Z-1.012
X62.84 Y-8.776 Z-0.847
X62.851 Y-8.762 Z-0.828
X62.84 Y-8.776 Z-0.847
X62.744 Y-8.918 Z-1.012
X62.738 Y-8.927 Z-1.022
X62.821 Y-8.943 Z-0.964
X62.901 Y-8.957 Z-0.905
X63.025 Y-8.98 Z-0.802
X63.073 Y-8.989 Z-0.759
X63.124 Y-8.999 Z-0.709
X63.073 Y-8.989 Z-0.759
X63.025 Y-8.98 Z-0.802
X62.901 Y-8.957 Z-0.905
X62.821 Y-8.943 Z-0.964
X62.738 Y-8.927 Z-1.022
X62.644 Y-8.94 Z-1.056
X62.543 Y-8.955 Z-1.085
X62.509 Y-8.959 Z-1.094
X62.338 Y-8.982 Z-1.134
X62.159 Y-9.004 Z-1.167
X62.005 Y-9.021 Z-1.192
X61.858 Y-9.036 Z-1.211
X61.708 Y-9.049 Z-1.229
X61.546 Y-9.062 Z-1.245
X61.371 Y-9.075 Z-1.26
X61.183 Y-9.087 Z-1.274
X60.982 Y-9.098 Z-1.287
X60.767 Y-9.108 Z-1.298
X60.335 Y-9.123 Z-1.313
X60.293 Y-9.124 Z-1.314
X59.803 Y-9.132 Z-1.322
X57.382 Y-9.133 Z-1.323
X57.313 Y-9.131
X57.243 Y-9.129 Z-1.327
X57.173 Y-9.124 Z-1.33
X57.104 Y-9.118 Z-1.338
X56.991 Y-9.106 Z-1.354
X56.877 Y-9.094 Z-1.38
X56.76 Y-9.082 Z-1.416
X56.641 Y-9.069 Z-1.462
X56.517 Y-9.056 Z-1.517
X56.387 Y-9.043 Z-1.584
X56.251 Y-9.028 Z-1.663
X56.106 Y-9.013 Z-1.754
X56.042 Y-9.171 Z-1.667
X56.004 Y-9.27 Z-1.617
X55.959 Y-9.402 Z-1.555
X55.928 Y-9.504 Z-1.513
X55.889 Y-9.646 Z-1.46
X55.872 Y-9.718 Z-1.435
X55.856 Y-9.789 Z-1.415
X55.843 Y-9.86 Z-1.394
X55.83 Y-9.931 Z-1.378
X55.821 Y-10.002 Z-1.361
X55.807 Y-10.117 Z-1.34
X55.802 Y-10.18 Z-1.331
X55.797 Y-10.244 Z-1.324
X55.795 Y-10.308 Z-1.317
X55.793 Y-10.372 Z-1.314
X55.794 Y-10.436 Z-1.31
X55.799 Y-10.608 Z-1.309
X55.826 Y-11.615 Z-1.315
X55.845 Y-12.063 Z-1.312
X55.856 Y-12.266 Z-1.307
X55.869 Y-12.449 Z-1.301
X55.899 Y-12.803 Z-1.282
X55.934 Y-13.112 Z-1.257
X55.975 Y-13.394 Z-1.226
X56.023 Y-13.661 Z-1.187
X56.084 Y-13.943 Z-1.135
X56.387 Y-15.246 Z-0.874
X56.398 Y-15.302 Z-0.867
X56.405 Y-15.358 Z-0.859
X56.413 Y-15.415 Z-0.855
X56.417 Y-15.471 Z-0.852
X56.42 Y-15.527
X56.421 Y-15.581
Y-15.634 Z-0.855
X56.417 Y-15.687 Z-0.858
X56.414 Y-15.741 Z-0.865
X56.408 Y-15.794 Z-0.872
X56.393 Y-15.903 Z-0.894
X56.384 Y-15.959 Z-0.909
X56.375 Y-16.015 Z-0.928
X56.367 Y-16.071 Z-0.95
X56.349 Y-16.187 Z-1.003
X56.331 Y-16.307 Z-1.069
X56.311 Y-16.433 Z-1.149
X56.291 Y-16.567 Z-1.242
X56.269 Y-16.71 Z-1.35
X56.245 Y-16.865 Z-1.474
X56.198 Y-16.875 Z-1.462
X56.094 Y-16.894 Z-1.437
X55.989 Y-16.908 Z-1.416
X55.911 Y-16.915 Z-1.401
X55.834 Y-16.919 Z-1.389
X55.726 Z-1.372
X55.652 Y-16.914 Z-1.36
X55.62 Y-16.903 Z-1.349
X55.526 Y-16.867 Z-1.312
X55.462 Y-16.836 Z-1.285
X55.397 Y-16.805 Z-1.261
X55.254 Y-16.728 Z-1.205
X54.891 Y-16.522 Z-1.05
X54.51 Y-16.291 Z-0.873
X54.133 Y-16.049 Z-0.683
X53.923 Y-15.912 Z-0.567
X53.733 Y-15.787 Z-0.453
X53.651 Y-15.734 Z-0.4
X53.512 Y-15.643 Z-0.302
X53.413 Y-15.58 Z-0.223
X53.342 Y-15.539 Z-0.158
X53.329 Y-15.534 Z-0.145
X53.201 Y-15.457 Z-0.001
X53.329 Y-15.534 Z-0.145
X53.342 Y-15.539 Z-0.158
X53.413 Y-15.58 Z-0.223
X53.512 Y-15.643 Z-0.302
X53.651 Y-15.734 Z-0.4
X53.733 Y-15.787 Z-0.453
X53.923 Y-15.912 Z-0.567
X54.133 Y-16.049 Z-0.683
X54.51 Y-16.291 Z-0.873
X54.891 Y-16.522 Z-1.05
X55.254 Y-16.728 Z-1.205
X55.397 Y-16.805 Z-1.261
X55.462 Y-16.836 Z-1.285
X55.526 Y-16.867 Z-1.312
X55.62 Y-16.903 Z-1.349
X55.652 Y-16.914 Z-1.36
X55.726 Y-16.919 Z-1.372
X55.834 Z-1.389
X55.911 Y-16.915 Z-1.401
X55.989 Y-16.908 Z-1.416
X56.094 Y-16.894 Z-1.437
X56.198 Y-16.875 Z-1.462
X56.245 Y-16.865 Z-1.474
X56.312 Y-16.894 Z-1.448
X56.378 Y-16.919 Z-1.424
X56.444 Y-16.943 Z-1.403
X56.517 Y-16.967 Z-1.38
X56.59 Y-16.989 Z-1.36
X56.67 Y-17.01 Z-1.339
X56.751 Y-17.029 Z-1.321
X56.838 Y-17.045 Z-1.305
X56.925 Y-17.059 Z-1.291
X57.02 Y-17.07 Z-1.279
X57.115 Y-17.078 Z-1.271
X57.206 Y-17.082 Z-1.266
X57.353 Y-17.081 Z-1.264
X58.018 Y-17.055 Z-1.276
X58.86 Y-17.018 Z-1.286
X60.274 Y-16.952 Z-1.299
X61.039 Y-16.91 Z-1.306
X61.728 Y-16.869 Z-1.31
X62.343 Y-16.825 Z-1.312
X62.886 Y-16.78 Z-1.311
X63.359 Y-16.734 Z-1.308
X63.668 Y-16.699 Z-1.303
X63.941 Y-16.664 Z-1.296
X64.214 Y-16.621 Z-1.287
X64.365 Y-16.593 Z-1.28
X64.489 Y-16.568 Z-1.273
X64.646 Y-16.533 Z-1.259
X64.669 Y-16.487 Z-1.216
X64.799 Y-16.212 Z-0.952
X64.893 Y-16.017 Z-0.754
X64.941 Y-15.919 Z-0.649
X64.893 Y-16.017 Z-0.754
X64.799 Y-16.212 Z-0.952
X64.669 Y-16.487 Z-1.216
X64.646 Y-16.533 Z-1.259
X64.758 Y-16.573 Z-1.18
X64.81 Y-16.592 Z-1.141
X64.95 Y-16.642 Z-1.028
X65.048 Y-16.672 Z-0.943
X65.105 Y-16.688 Z-0.891
X65.22 Y-16.711 Z-0.782
X65.375 Y-16.737 Z-0.63
X65.499 Y-16.767 Z-0.505
Z5
X67.982 Y-1.992
Z-0.191 F333.3
X68.063 Y-2 Z-0.264 F2000
X68.134 Y-2.015 Z-0.323
X68.219 Y-2.034 Z-0.389
X68.297 Y-2.053 Z-0.444
X68.427 Y-2.08 Z-0.529
X68.558 Y-2.105 Z-0.603
X68.696 Y-2.127 Z-0.673
X68.845 Y-2.148 Z-0.742
X69.007 Y-2.168 Z-0.808
X69.179 Y-2.186 Z-0.872
X69.362 Y-2.202 Z-0.932
X69.556 Y-2.216 Z-0.99
X69.755 Y-2.228 Z-1.043
X70.039 Y-2.242 Z-1.108
X70.194 Y-2.246 Z-1.139
X70.502 Y-2.252 Z-1.193
X70.661 Z-1.217
X71 Y-2.251 Z-1.259
X71.682 Y-2.244 Z-1.326
X72.228 Y-2.247 Z-1.373
X72.636 Y-2.254 Z-1.403
X72.714 Y-2.256 Z-1.41
X72.793 Y-2.26 Z-1.419
X72.908 Y-2.272 Z-1.435
X73.022 Y-2.289 Z-1.456
X73.137 Y-2.31 Z-1.481
X73.252 Y-2.335 Z-1.511
X73.243 Y-2.552 Z-1.322
X73.236 Y-2.737 Z-1.168
X73.225 Y-2.931 Z-1.016
X73.219 Y-3.031 Z-0.943
X73.214 Y-3.122 Z-0.882
X73.209 Y-3.207 Z-0.829
X73.205 Y-3.253 Z-0.803
X73.197 Y-3.358 Z-0.748
X73.189 Y-3.446 Z-0.711
X73.183 Y-3.525 Z-0.686
X73.177 Y-3.599 Z-0.67
X73.168 Y-3.682 Z-0.66
X73.159 Y-3.769
X73.147 Y-3.846 Z-0.668
X73.132 Y-3.915 Z-0.677
X73.119 Y-3.959 Z-0.684
X73.088 Y-4.056 Z-0.707
X73.068 Y-4.109 Z-0.722
X73.041 Y-4.168 Z-0.742
X73.012 Y-4.228 Z-0.765
X72.987 Y-4.272 Z-0.784
X72.851 Y-4.5 Z-0.895
X72.35 Y-5.323 Z-1.294
X72.25 Y-5.491 Z-1.372
X72.161 Y-5.649 Z-1.441
X72.079 Y-5.802 Z-1.503
X72.015 Y-5.928 Z-1.551
X71.989 Y-5.98 Z-1.569
X71.753 Y-5.868 Z-1.321
X71.422 Y-5.72 Z-0.974
X71.125 Y-5.598 Z-0.661
X70.909 Y-5.519 Z-0.434
X70.741 Y-5.453 Z-0.255
X70.909 Y-5.519 Z-0.434
X71.125 Y-5.598 Z-0.661
X71.422 Y-5.72 Z-0.974
X71.753 Y-5.868 Z-1.321
X71.989 Y-5.98 Z-1.569
X71.953 Y-6.298 Z-1.564
X71.894 Y-6.864 Z-1.549
X71.824 Y-7.567 Z-1.523
X71.744 Y-8.389 Z-1.485
X71.671 Y-9.142 Z-1.444
X71.66 Y-9.341 Z-1.441
X71.658 Y-9.513 Z-1.445
X71.66 Y-9.617 Z-1.451
X71.67 Y-9.788 Z-1.467
X71.681 Y-9.899 Z-1.481
X71.696 Y-10.011 Z-1.499
X71.724 Y-10.173 Z-1.533
X71.749 Y-10.291 Z-1.561
X71.778 Y-10.409 Z-1.594
X71.812 Y-10.527 Z-1.631
X71.766 Y-10.611 Z-1.587
X71.722 Y-10.695 Z-1.546
X71.689 Y-10.767 Z-1.513
X71.656 Y-10.838 Z-1.483
X71.626 Y-10.91 Z-1.454
X71.597 Y-10.982 Z-1.428
X71.572 Y-11.054 Z-1.403
X71.547 Y-11.126 Z-1.382
X71.527 Y-11.194 Z-1.362
X71.507 Y-11.261 Z-1.345
X71.49 Y-11.33 Z-1.329
X71.474 Y-11.398 Z-1.316
X71.461 Y-11.466 Z-1.304
X71.449 Y-11.534 Z-1.295
X71.441 Y-11.59 Z-1.287
X71.429 Y-11.701 Z-1.277
X71.421 Y-11.813 Z-1.272
X71.417 Y-11.917 Z-1.273
X71.436 Y-12.921 Z-1.313
X71.448 Y-13.475 Z-1.334
X71.462 Y-13.947 Z-1.348
X71.476 Y-14.341 Z-1.358
X71.492 Y-14.667 Z-1.361
X71.508 Y-14.92 Z-1.36
X71.528 Y-15.136 Z-1.353
X71.547 Y-15.303 Z-1.344
X71.567 Y-15.436 Z-1.332
X71.594 Y-15.585 Z-1.313
X71.627 Y-15.74 Z-1.289
X71.671 Y-15.927 Z-1.255
X71.747 Y-16.231 Z-1.193
X71.862 Y-16.688 Z-1.095
X71.93 Y-16.964 Z-1.03
X71.981 Y-17.173 Z-0.976
X72.018 Y-17.33 Z-0.928
X72.026 Y-17.335 Z-0.92
X72.176 Y-17.441 Z-0.756
X72.343 Y-17.567 Z-0.561
X72.368 Y-17.587 Z-0.53
X72.343 Y-17.567 Z-0.561
X72.176 Y-17.441 Z-0.756
X72.026 Y-17.335 Z-0.92
X72.018 Y-17.33 Z-0.928
X71.993 Y-17.424 Z-0.857
X71.948 Y-17.587 Z-0.728
X71.914 Y-17.715 Z-0.62
X71.889 Y-17.81 Z-0.535
X71.866 Y-17.895 Z-0.453
X71.889 Y-17.81 Z-0.535
X71.914 Y-17.715 Z-0.62
X71.948 Y-17.587 Z-0.728
X71.993 Y-17.424 Z-0.857
X72.018 Y-17.33 Z-0.928
X71.981 Y-17.173 Z-0.976
X71.93 Y-16.964 Z-1.03
X71.862 Y-16.688 Z-1.095
X71.747 Y-16.231 Z-1.193
X71.671 Y-15.927 Z-1.255
X71.627 Y-15.74 Z-1.289
X71.594 Y-15.585 Z-1.313
X71.567 Y-15.436 Z-1.332
X71.547 Y-15.303 Z-1.344
X71.528 Y-15.136 Z-1.353
X71.508 Y-14.92 Z-1.36
X71.492 Y-14.667 Z-1.361
X71.476 Y-14.341 Z-1.358
X71.462 Y-13.947 Z-1.348
X71.448 Y-13.475 Z-1.334
X71.436 Y-12.921 Z-1.313
X71.417 Y-11.917 Z-1.273
X71.421 Y-11.813 Z-1.272
X71.429 Y-11.701 Z-1.277
X71.441 Y-11.59 Z-1.287
X71.449 Y-11.534 Z-1.295
X71.461 Y-11.466 Z-1.304
X71.474 Y-11.398 Z-1.316
X71.49 Y-11.33 Z-1.329
X71.507 Y-11.261 Z-1.345
X71.527 Y-11.194 Z-1.362
X71.547 Y-11.126 Z-1.382
X71.572 Y-11.054 Z-1.403
X71.597 Y-10.982 Z-1.428
X71.626 Y-10.91 Z-1.454
X71.656 Y-10.838 Z-1.483
X71.689 Y-10.767 Z-1.513
X71.722 Y-10.695 Z-1.546
X71.766 Y-10.611 Z-1.587
X71.812 Y-10.527 Z-1.631
X71.974 Y-10.557 Z-1.523
X72.032 Y-10.569 Z-1.487
X72.168 Y-10.597 Z-1.405
X72.291 Y-10.622 Z-1.34
X72.404 Y-10.645 Z-1.288
X72.563 Y-10.679 Z-1.229
X72.682 Y-10.705 Z-1.196
X72.783 Y-10.728 Z-1.177
X72.927 Y-10.757 Z-1.16
X73.03 Y-10.774 Z-1.151
X73.133 Y-10.786 Z-1.147
X73.282 Y-10.798 Z-1.146
X73.411 Y-10.804 Z-1.151
X73.591 Y-10.805 Z-1.164
X73.785 Y-10.802 Z-1.183
X74.105 Y-10.789 Z-1.221
X74.35 Y-10.775 Z-1.254
X74.522 Y-10.762 Z-1.281
X74.684 Y-10.749 Z-1.307
X75.017 Y-10.718 Z-1.365
X75.378 Y-10.681 Z-1.431
X75.499 Y-10.673 Z-1.46
X75.622 Y-10.67 Z-1.493
X75.746 Y-10.672 Z-1.532
X75.837 Y-10.676 Z-1.563
X75.968 Y-10.686 Z-1.612
X76.1 Y-10.7 Z-1.668
X76.197 Y-10.713 Z-1.712
X76.294 Y-10.729 Z-1.758
X76.392 Y-10.747 Z-1.808
X76.426 Y-10.892 Z-1.726
X76.466 Y-11.068 Z-1.639
X76.499 Y-11.213 Z-1.576
X76.533 Y-11.343 Z-1.525
X76.551 Y-11.407 Z-1.503
X76.592 Y-11.533 Z-1.461
X76.637 Y-11.654 Z-1.425
X76.693 Y-11.789 Z-1.39
X76.76 Y-11.931 Z-1.36
X76.813 Y-12.034 Z-1.341
X76.879 Y-12.152 Z-1.323
X76.942 Y-12.262 Z-1.309
X77.061 Y-12.456 Z-1.289
X77.148 Y-12.593 Z-1.278
X77.229 Y-12.717 Z-1.268
X77.396 Y-12.971 Z-1.252
X77.583 Y-13.247 Z-1.238
X77.788 Y-13.546 Z-1.226
X78.009 Y-13.863 Z-1.215
X78.285 Y-14.254 Z-1.204
X78.56 Y-14.636 Z-1.196
X79.016 Y-15.255 Z-1.181
X79.058 Y-15.31
X79.283 Y-15.605 Z-1.174
X79.558 Y-15.957 Z-1.163
X79.689 Y-16.121 Z-1.158
X79.87 Y-16.342 Z-1.148
X80.104 Y-16.616 Z-1.133
X80.192 Y-16.717 Z-1.126
X80.357 Y-16.899 Z-1.109
X80.46 Y-17.012 Z-1.095
X80.584 Y-17.142 Z-1.075
X80.682 Y-17.242 Z-1.055
X80.793 Y-17.349 Z-1.028
X80.868 Y-17.419 Z-1.007
X80.985 Y-17.523 Z-0.97
X81.165 Y-17.682 Z-0.903
X81.289 Y-17.791 Z-0.851
X81.404 Y-17.896 Z-0.794
X81.48 Y-17.965 Z-0.749
X81.539 Y-18.021 Z-0.708
X81.645 Y-18.051 Z-0.605
X81.539 Y-18.021 Z-0.708
X81.548 Y-18.046 Z-0.684
X81.59 Y-18.168 Z-0.566
X81.61 Y-18.222 Z-0.51
X81.59 Y-18.168 Z-0.566
X81.548 Y-18.046 Z-0.684
X81.539 Y-18.021 Z-0.708
X81.48 Y-17.965 Z-0.749
X81.404 Y-17.896 Z-0.794
X81.289 Y-17.791 Z-0.851
X81.165 Y-17.682 Z-0.903
X80.985 Y-17.523 Z-0.97
X80.868 Y-17.419 Z-1.007
X80.793 Y-17.349 Z-1.028
X80.682 Y-17.242 Z-1.055
X80.584 Y-17.142 Z-1.075
X80.46 Y-17.012 Z-1.095
X80.357 Y-16.899 Z-1.109
X80.192 Y-16.717 Z-1.126
X80.104 Y-16.616 Z-1.133
X79.87 Y-16.342 Z-1.148
X79.689 Y-16.121 Z-1.158
X79.558 Y-15.957 Z-1.163
X79.283 Y-15.605 Z-1.174
X79.058 Y-15.31 Z-1.181
X79.016 Y-15.255
X78.56 Y-14.636 Z-1.196
X78.285 Y-14.254 Z-1.204
X78.009 Y-13.863 Z-1.215
X77.788 Y-13.546 Z-1.226
X77.583 Y-13.247 Z-1.238
X77.396 Y-12.971 Z-1.252
X77.229 Y-12.717 Z-1.268
X77.148 Y-12.593 Z-1.278
X77.061 Y-12.456 Z-1.289
X76.942 Y-12.262 Z-1.309
X76.879 Y-12.152 Z-1.323
X76.813 Y-12.034 Z-1.341
X76.76 Y-11.931 Z-1.36
X76.693 Y-11.789 Z-1.39
X76.637 Y-11.654 Z-1.425
X76.592 Y-11.533 Z-1.461
X76.551 Y-11.407 Z-1.503
X76.533 Y-11.343 Z-1.525
X76.499 Y-11.213 Z-1.576
X76.466 Y-11.068 Z-1.639
X76.426 Y-10.892 Z-1.726
X76.392 Y-10.747 Z-1.808
X76.469 Y-10.677 Z-1.766
X76.571 Y-10.589 Z-1.716
X76.629 Y-10.542 Z-1.691
X76.734 Y-10.458 Z-1.65
X76.8 Y-10.41 Z-1.625
X76.897 Y-10.339 Z-1.594
X77.005 Y-10.267 Z-1.566
X77.146 Y-10.177 Z-1.534
X77.307 Y-10.084 Z-1.509
X77.37 Y-10.05 Z-1.5
X77.516 Y-9.973 Z-1.488
X77.637 Y-9.913 Z-1.482
X77.755 Y-9.855 Z-1.48
X77.944 Y-9.772 Z-1.486
X78.148 Y-9.68 Z-1.497
X78.208 Y-9.65 Z-1.498
X78.347 Y-9.57 Z-1.494
X78.448 Y-9.508 Z-1.491
X78.663 Y-9.364 Z-1.479
X78.763 Y-9.292 Z-1.474
X78.96 Y-9.14 Z-1.461
X79.159 Y-8.977 Z-1.452
X79.239 Y-8.905 Z-1.448
X79.474 Y-8.686 Z-1.442
X79.62 Y-8.532
X79.694 Y-8.45 Z-1.44
X79.759 Y-8.374 Z-1.442
X79.905 Y-8.19 Z-1.443
X79.974 Y-8.093 Z-1.446
X80.044 Y-7.986 Z-1.447
X80.091 Y-7.908 Z-1.445
X80.122 Y-7.847 Z-1.441
X80.154 Y-7.786
X80.211 Y-7.656 Z-1.435
X80.265 Y-7.52 Z-1.425
X80.309 Y-7.377 Z-1.416
X80.349 Y-7.229 Z-1.403
X80.362 Y-7.168 Z-1.396
X80.381 Y-7.073 Z-1.39
X80.406 Y-6.904 Z-1.375
X80.413 Y-6.834 Z-1.366
X80.421 Y-6.741 Z-1.36
X80.429 Y-6.554 Z-1.341
X80.428 Y-6.49 Z-1.333
X80.427 Y-6.382 Z-1.325
X80.416 Y-6.193 Z-1.306
X80.393 Y-6 Z-1.288
X80.362 Y-5.802 Z-1.268
X80.317 Y-5.601 Z-1.251
X80.278 Y-5.456 Z-1.235
X80.254 Y-5.375 Z-1.231
X80.183 Y-5.17 Z-1.216
X80.156 Y-5.1 Z-1.211
X80.109 Y-4.99 Z-1.207
X80.014 Y-4.787 Z-1.197
X79.971 Y-4.707 Z-1.195
X79.858 Y-4.512 Z-1.192
X79.79 Y-4.405
X79.781 Y-4.391
X79.632 Y-4.18 Z-1.193
X79.588 Y-4.123 Z-1.194
X79.5 Y-4.013 Z-1.199
X79.366 Y-3.856 Z-1.202
X79.344 Y-3.831 Z-1.204
X79.135 Y-3.61 Z-1.211
X78.984 Y-3.462 Z-1.216
X78.826 Y-3.318 Z-1.221
X78.636 Y-3.16 Z-1.228
X78.5 Y-3.057 Z-1.233
X78.437 Y-3.011 Z-1.239
X78.221 Y-2.868 Z-1.253
X78.163 Y-2.833 Z-1.255
X78.105 Y-2.799 Z-1.261
X77.982 Y-2.731 Z-1.273
X77.901 Y-2.689 Z-1.281
X77.771 Y-2.625 Z-1.295
X77.692 Y-2.59 Z-1.304
X77.48 Y-2.503 Z-1.33
X77.306 Y-2.44 Z-1.352
X77.091 Y-2.378 Z-1.373
X77.039 Y-2.364 Z-1.379
X76.975 Y-2.35 Z-1.384
X76.807 Y-2.319 Z-1.392
X76.731 Y-2.307 Z-1.395
X76.565 Y-2.285 Z-1.398
X76.308 Y-2.26 Z-1.4
X76.033 Y-2.241
X75.733 Y-2.225 Z-1.398
X75.503 Y-2.216 Z-1.395
X75.074 Y-2.205 Z-1.392
X74.682 Y-2.203 Z-1.393
X74.36 Y-2.209 Z-1.399
X74.147 Y-2.218 Z-1.407
X73.964 Y-2.229 Z-1.418
X73.793 Y-2.245 Z-1.431
X73.65 Y-2.262 Z-1.446
X73.521 Y-2.281 Z-1.464
X73.446 Y-2.295 Z-1.474
X73.348 Y-2.313 Z-1.493
X73.252 Y-2.335 Z-1.511
Z15
G28 G91 Z0
G90
G28 G91 X0 Y0
G90
M5
M30
