(signature)
(T2  D=6.35 CR=0 TAPER=45deg - ZMIN=-1.268 - chamfer mill)
G90 G94
G17
G21
(When using Fusion 360 for Personal Use, the feedrate of)
(rapid moves is reduced to match the feedrate of cutting)
(moves, which can increase machining time. Unrestricted rapid)
(moves are available with a Fusion 360 Subscription.)
G28 G91 Z0
G90

(Engrave2)
T2
S5000 M3
G54
M8
G0 X-28.473 Y5.924
Z15
G1 Z5 F1000
Z-0.001 F333.3
X-27.905 Y5.577 Z-0.347 F1000
X-27.671 Y5.436 Z-0.489
X-27.465 Y5.314 Z-0.611
X-27.286 Y5.211 Z-0.713
X-27.137 Y5.129 Z-0.795
X-27.016 Y5.066 Z-0.859
X-26.924 Y5.021 Z-0.903
X-26.86 Y4.992 Z-0.932
X-26.82 Y4.977 Z-0.947
X-26.791 Y4.968 Z-0.957
X-26.738 Y4.96 Z-0.964
X-26.61 Y4.954 Z-0.971
X-25.758 Y4.953 Z-0.972
X-25.704 Y4.951
X-25.65 Y4.95 Z-0.975
X-25.597 Y4.945 Z-0.978
X-25.543 Y4.941 Z-0.984
X-25.489 Y4.933 Z-0.99
X-25.436 Y4.926 Z-0.998
X-25.331 Y4.96 Z-0.964
X-25.279 Y4.974 Z-0.949
X-25.226 Y4.988 Z-0.937
X-25.174 Y4.998 Z-0.924
X-25.122 Y5.009 Z-0.915
X-25.069 Y5.017 Z-0.906
X-25.017 Y5.025 Z-0.9
X-24.964 Y5.029 Z-0.893
X-24.912 Y5.034 Z-0.89
X-24.86 Y5.035 Z-0.887
X-24.807 Y5.037
X-23.638
X-23.461 Y5.039 Z-0.884
X-23.266 Y5.046 Z-0.876
X-23.048 Y5.058 Z-0.863
X-22.816 Y5.075 Z-0.846
X-22.305 Y5.12 Z-0.796
X-21.886 Y5.164 Z-0.743
X-21.738 Y5.18 Z-0.723
X-21.481 Y5.209 Z-0.682
X-21.278 Y5.232 Z-0.645
X-21.068 Y5.253 Z-0.598
X-20.999 Y5.259 Z-0.581
X-20.922 Y5.263 Z-0.558
X-20.85 Y5.262 Z-0.531
X-20.83 Y5.26 Z-0.522
X-20.648 Y5.226 Z-0.421
X-20.463 Y5.189 Z-0.306
X-20.395 Y5.175 Z-0.259
X-20.301 Y5.152 Z-0.191
X-20.238 Y5.138 Z-0.14
X-20.182 Y5.121 Z-0.093
X-20.155 Y5.109 Z-0.067
X-20.089 Y5.096 Z-0.001
X-20.155 Y5.109 Z-0.067
X-20.102 Y5.068 Z-0.001
X-20.155 Y5.109 Z-0.067
X-20.182 Y5.121 Z-0.093
X-20.238 Y5.138 Z-0.14
X-20.301 Y5.152 Z-0.191
X-20.395 Y5.175 Z-0.259
X-20.463 Y5.189 Z-0.306
X-20.648 Y5.226 Z-0.421
X-20.83 Y5.26 Z-0.522
X-20.85 Y5.262 Z-0.531
X-20.922 Y5.263 Z-0.558
X-20.999 Y5.259 Z-0.581
X-21.068 Y5.253 Z-0.598
X-21.278 Y5.232 Z-0.645
X-21.481 Y5.209 Z-0.682
X-21.738 Y5.18 Z-0.723
X-21.886 Y5.164 Z-0.743
X-22.305 Y5.12 Z-0.796
X-22.816 Y5.075 Z-0.846
X-23.048 Y5.058 Z-0.863
X-23.266 Y5.046 Z-0.876
X-23.461 Y5.039 Z-0.884
X-23.638 Y5.037 Z-0.887
X-24.807
X-24.86 Y5.035
X-24.912 Y5.034 Z-0.89
X-24.964 Y5.029 Z-0.893
X-25.017 Y5.025 Z-0.9
X-25.069 Y5.017 Z-0.906
X-25.122 Y5.009 Z-0.915
X-25.174 Y4.998 Z-0.924
X-25.226 Y4.988 Z-0.937
X-25.279 Y4.974 Z-0.949
X-25.331 Y4.96 Z-0.964
X-25.436 Y4.926 Z-0.998
X-25.412 Y4.794 Z-0.883
X-25.391 Y4.675 Z-0.785
X-25.372 Y4.568 Z-0.703
X-25.355 Y4.47 Z-0.634
X-25.338 Y4.38 Z-0.579
X-25.331 Y4.336 Z-0.556
X-25.316 Y4.253 Z-0.519
X-25.309 Y4.212 Z-0.505
X-25.301 Y4.172 Z-0.495
X-25.29 Y4.098 Z-0.483
X-25.283 Y4.032 Z-0.478
X-25.28 Y3.962
Y3.926 Z-0.481
X-25.283 Y3.889 Z-0.484
X-25.286 Y3.852 Z-0.489
X-25.297 Y3.778 Z-0.503
X-25.305 Y3.741 Z-0.512
X-25.325 Y3.668 Z-0.534
X-25.35 Y3.593 Z-0.562
X-25.615 Y2.952 Z-0.852
X-25.659 Y2.84 Z-0.9
X-25.679 Y2.781 Z-0.922
X-25.69 Y2.74 Z-0.935
X-25.696 Y2.674 Z-0.944
X-25.699 Y2.59 Z-0.95
X-25.696 Y2.249 Z-0.959
X-25.698 Y2.053 Z-0.969
X-25.7 Y2.005 Z-0.971
X-25.709 Y1.835 Z-0.989
X-25.713 Y1.79 Z-0.993
X-25.729 Y1.654 Z-1.015
X-25.755 Y1.491 Z-1.047
X-25.772 Y1.4 Z-1.072
X-25.793 Y1.293 Z-1.11
X-25.905 Y1.299 Z-1.014
X-26.107 Y1.314 Z-0.844
X-26.234 Y1.327 Z-0.741
X-26.356 Y1.346 Z-0.645
X-26.47 Y1.37 Z-0.559
X-26.571 Y1.396 Z-0.485
X-26.657 Y1.421 Z-0.422
X-26.737 Y1.451 Z-0.368
X-26.863 Y1.506 Z-0.286
X-26.96 Y1.559 Z-0.227
X-27.037 Y1.605 Z-0.178
X-27.108 Y1.651 Z-0.131
X-27.141 Y1.67 Z-0.107
X-27.177 Y1.696 Z-0.076
X-27.187 Y1.702 Z-0.066
X-27.188 Y1.703 Z-0.064
X-27.243 Y1.738 Z-0.001
X-27.188 Y1.703 Z-0.064
X-27.187 Y1.702 Z-0.066
X-27.177 Y1.696 Z-0.076
X-27.141 Y1.67 Z-0.107
X-27.108 Y1.651 Z-0.131
X-27.037 Y1.605 Z-0.178
X-26.96 Y1.559 Z-0.227
X-26.863 Y1.506 Z-0.286
X-26.737 Y1.451 Z-0.368
X-26.657 Y1.421 Z-0.422
X-26.571 Y1.396 Z-0.485
X-26.47 Y1.37 Z-0.559
X-26.356 Y1.346 Z-0.645
X-26.234 Y1.327 Z-0.741
X-26.107 Y1.314 Z-0.844
X-25.905 Y1.299 Z-1.014
X-25.793 Y1.293 Z-1.11
X-25.758 Y1.202 Z-1.099
X-25.716 Y1.103 Z-1.094
X-25.68 Y1.026
X-25.654 Y0.975 Z-1.097
X-25.596 Y0.861 Z-1.111
X-25.568 Y0.809 Z-1.122
X-25.537 Y0.758 Z-1.132
X-25.488 Y0.678 Z-1.154
X-25.382 Y0.673 Z-1.09
X-25.284 Y0.668 Z-1.036
X-25.192 Y0.664 Z-0.992
X-25.106 Y0.66 Z-0.957
X-25.025 Y0.656 Z-0.93
X-24.946 Y0.652 Z-0.909
X-24.869 Y0.649 Z-0.896
X-24.793 Y0.645 Z-0.889
X-24.734 Y0.643 Z-0.887
X-23.433 Y0.625 Z-0.869
X-23.023 Z-0.858
X-22.769 Y0.628 Z-0.847
X-22.495 Y0.637 Z-0.827
X-22.239 Y0.65 Z-0.801
X-22.01 Y0.666 Z-0.769
X-21.812 Y0.683 Z-0.732
X-21.677 Y0.697 Z-0.698
X-21.606 Y0.704 Z-0.677
X-21.515 Y0.71 Z-0.643
X-21.474 Z-0.621
X-21.391 Y0.701 Z-0.569
X-21.346 Y0.696 Z-0.535
X-21.3 Y0.687 Z-0.497
X-21.241 Y0.68 Z-0.445
X-21.218 Y0.678 Z-0.424
X-21.241 Y0.68 Z-0.445
X-21.3 Y0.687 Z-0.497
X-21.346 Y0.696 Z-0.535
X-21.391 Y0.701 Z-0.569
X-21.474 Y0.71 Z-0.621
X-21.515 Z-0.643
X-21.606 Y0.704 Z-0.677
X-21.677 Y0.697 Z-0.698
X-21.812 Y0.683 Z-0.732
X-22.01 Y0.666 Z-0.769
X-22.239 Y0.65 Z-0.801
X-22.495 Y0.637 Z-0.827
X-22.769 Y0.628 Z-0.847
X-23.023 Y0.625 Z-0.858
X-23.433 Z-0.869
X-24.734 Y0.643 Z-0.887
X-24.793 Y0.645 Z-0.889
X-24.869 Y0.649 Z-0.896
X-24.946 Y0.652 Z-0.909
X-25.025 Y0.656 Z-0.93
X-25.106 Y0.66 Z-0.957
X-25.192 Y0.664 Z-0.992
X-25.284 Y0.668 Z-1.036
X-25.382 Y0.673 Z-1.09
X-25.488 Y0.678 Z-1.154
X-25.517 Y0.587 Z-1.102
X-25.556 Y0.451 Z-1.032
X-25.573 Y0.384 Z-1.001
X-25.59 Y0.314 Z-0.973
X-25.614 Y0.192 Z-0.929
X-25.626 Y0.118 Z-0.908
X-25.639 Y0.006 Z-0.882
X-25.646 Y-0.075 Z-0.869
X-25.649 Y-0.184 Z-0.858
Y-0.244 Z-0.856
X-25.646 Y-0.385 Z-0.853
X-25.644 Y-0.604 Z-0.85
Y-1.112 Z-0.851
X-25.652 Y-2.08 Z-0.859
Y-2.396
X-25.648 Y-2.76 Z-0.855
X-25.64 Y-3.14 Z-0.846
X-25.638 Y-3.224 Z-0.844
X-25.628 Y-3.478 Z-0.832
X-25.611 Y-3.779 Z-0.813
X-25.605 Y-3.879 Z-0.805
X-25.59 Y-4.061 Z-0.787
X-25.568 Y-4.273 Z-0.759
X-25.557 Y-4.372 Z-0.744
X-25.538 Y-4.504 Z-0.719
X-25.516 Y-4.637 Z-0.689
X-25.5 Y-4.722 Z-0.666
X-25.479 Y-4.813 Z-0.637
X-25.47 Y-4.85 Z-0.622
X-25.499 Y-4.913 Z-0.562
X-25.529 Y-4.974 Z-0.498
X-25.499 Y-4.913 Z-0.562
X-25.47 Y-4.85 Z-0.622
X-25.435 Y-4.885 Z-0.583
X-25.331 Y-4.982 Z-0.464
X-25.245 Y-5.06 Z-0.363
X-25.188 Y-5.119 Z-0.289
X-25.137 Y-5.18 Z-0.213
Z5
X-17.557 Y5.216
Z-0.314 F333.3
X-17.469 Y5.162 Z-0.415 F1000
X-17.378 Y5.099 Z-0.52
X-17.313 Y5.049 Z-0.596
X-17.272 Y5.02 Z-0.641
X-17.167 Y4.935 Z-0.76
X-17.03 Y4.823 Z-0.91
X-17.018 Y4.813 Z-0.924
X-16.943 Y4.9 Z-0.858
X-16.837 Y5.015 Z-0.766
X-16.701 Y5.156 Z-0.645
X-15.974 Y5.886 Z-0.001
X-16.701 Y5.156 Z-0.645
X-16.837 Y5.015 Z-0.766
X-16.943 Y4.9 Z-0.858
X-17.018 Y4.813 Z-0.924
X-17.026 Y4.735
X-17.035 Y4.646 Z-0.925
X-17.049 Y4.451 Z-0.926
X-17.061 Y4.223
X-17.073 Y3.962 Z-0.925
X-17.093 Y3.349 Z-0.922
X-17.11 Y2.556 Z-0.916
X-17.12 Y1.833 Z-0.91
X-17.128 Y0.973 Z-0.903
X-17.131 Y-0.038 Z-0.895
X-17.127 Y-0.974 Z-0.885
X-17.121 Y-1.527 Z-0.877
X-17.112 Y-2.026 Z-0.866
X-17.101 Y-2.473 Z-0.853
X-17.087 Y-2.871 Z-0.838
X-17.071 Y-3.22 Z-0.82
X-17.051 Y-3.53 Z-0.799
X-17.03 Y-3.795 Z-0.777
X-17.006 Y-4.02 Z-0.752
X-16.981 Y-4.209 Z-0.726
X-16.954 Y-4.365 Z-0.699
X-16.927 Y-4.492 Z-0.671
X-16.899 Y-4.597 Z-0.643
X-16.886 Y-4.636 Z-0.63
X-16.898 Y-4.654 Z-0.61
X-16.981 Y-4.757 Z-0.481
X-17.022 Y-4.799 Z-0.424
X-16.981 Y-4.757 Z-0.481
X-16.898 Y-4.654 Z-0.61
X-16.886 Y-4.636 Z-0.63
X-16.81 Y-4.73 Z-0.553
X-16.788 Y-4.754 Z-0.531
X-16.737 Y-4.803 Z-0.479
X-16.259 Y-5.229 Z0
Z5
X-13.69 Y-0.751
Z-0.137 F333.3
X-13.688 Y-0.743 Z-0.128 F1000
Z5
X-13.69 Y-0.751
Z-0.137 F333.3
X-13.698 Y-0.767 Z-0.152 F1000
X-13.715 Y-0.811 Z-0.187
X-13.739 Y-0.876 Z-0.229
X-13.771 Y-0.96 Z-0.277
X-13.811 Y-1.064 Z-0.329
X-13.859 Y-1.187 Z-0.384
X-13.911 Y-1.322 Z-0.439
X-13.949 Y-1.429 Z-0.479
X-13.99 Y-1.576 Z-0.528
X-14.013 Y-1.682 Z-0.556
X-14.023 Y-1.758 Z-0.573
X-14.03 Y-1.883 Z-0.6
X-14.028 Y-1.983 Z-0.615
X-14.02 Y-2.085 Z-0.627
X-14.001 Y-2.194 Z-0.638
X-13.976 Y-2.308 Z-0.644
X-13.971 Y-2.328 Z-0.645
X-13.949 Y-2.4 Z-0.648
X-13.894 Y-2.552 Z-0.654
X-13.862 Y-2.627
X-13.837 Y-2.683 Z-0.655
X-13.767 Y-2.817 Z-0.658
X-13.714 Y-2.909 Z-0.657
X-13.686 Y-2.956 Z-0.658
X-13.59 Y-3.095 Z-0.661
X-13.533 Y-3.173 Z-0.66
X-13.487 Y-3.231 Z-0.661
X-13.362 Y-3.375 Z-0.666
X-13.274 Y-3.469 Z-0.667
X-13.089 Y-3.644 Z-0.675
X-12.927 Y-3.777 Z-0.685
X-12.83 Y-3.852 Z-0.689
X-12.777 Y-3.89 Z-0.693
X-12.581 Y-4.022 Z-0.707
X-12.549 Y-4.042 Z-0.708
X-12.393 Y-4.134 Z-0.721
X-12.245 Y-4.215 Z-0.731
X-11.993 Y-4.337 Z-0.753
X-11.921 Y-4.369 Z-0.757
X-11.782 Y-4.427 Z-0.77
X-11.575 Y-4.506 Z-0.786
X-11.343 Y-4.581 Z-0.806
X-11.208 Y-4.621 Z-0.815
X-11.16 Y-4.635 Z-0.819
X-10.886 Y-4.702 Z-0.841
X-10.821 Y-4.716 Z-0.844
X-10.652 Y-4.749 Z-0.858
X-10.425 Y-4.787 Z-0.871
X-10.149 Y-4.819 Z-0.882
X-9.901 Y-4.835 Z-0.886
X-9.672 Y-4.841
X-9.546
X-9.454 Y-4.838 Z-0.884
X-9.246 Y-4.828 Z-0.883
X-9.046 Y-4.808 Z-0.881
X-8.916 Y-4.791 Z-0.882
X-8.853 Y-4.781 Z-0.881
X-8.795 Y-4.77
X-8.622 Y-4.735 Z-0.884
X-8.476 Y-4.694 Z-0.886
X-8.351 Y-4.655 Z-0.893
X-8.244 Y-4.615 Z-0.897
X-8.155 Y-4.574 Z-0.902
X-8.058 Y-4.523 Z-0.905
X-7.996 Y-4.489 Z-0.91
X-7.873 Y-4.406 Z-0.914
X-7.772 Y-4.319 Z-0.916
X-7.761 Y-4.308 Z-0.915
X-7.7 Y-4.246 Z-0.913
X-7.621 Y-4.147 Z-0.908
X-7.584 Y-4.092 Z-0.902
X-7.54 Y-4.02 Z-0.898
X-7.477 Y-3.893 Z-0.883
X-7.422 Y-3.745 Z-0.864
X-7.409 Y-3.694 Z-0.856
X-7.38 Y-3.573 Z-0.844
X-7.362 Y-3.469 Z-0.829
X-7.349 Y-3.376 Z-0.818
X-7.343 Y-3.243 Z-0.802
X-7.342 Y-3.159 Z-0.795
X-7.347 Y-3.066 Z-0.786
X-7.362 Y-2.909 Z-0.776
X-7.364 Y-2.893 Z-0.774
X-7.395 Y-2.724 Z-0.765
X-7.407 Y-2.664 Z-0.763
X-7.435 Y-2.559 Z-0.759
X-7.484 Y-2.397 Z-0.757
X-7.543 Y-2.238 Z-0.756
X-7.609 Y-2.078 Z-0.759
X-7.685 Y-1.919 Z-0.761
X-7.759 Y-1.775 Z-0.767
X-7.849 Y-1.616 Z-0.772
X-7.957 Y-1.443 Z-0.776
X-8.074 Y-1.27 Z-0.78
X-8.195 Y-1.104 Z-0.784
X-8.325 Y-0.934 Z-0.788
X-8.391 Y-0.85 Z-0.79
X-8.573 Y-0.63 Z-0.796
X-8.769 Y-0.403 Z-0.801
X-8.778 Y-0.393
X-8.991 Y-0.158 Z-0.807
X-9.228 Y0.093 Z-0.814
X-9.483 Y0.353 Z-0.82
X-9.699 Y0.568 Z-0.826
X-9.92 Y0.782 Z-0.831
X-10.354 Y1.192 Z-0.842
X-10.62 Y1.435 Z-0.848
X-10.877 Y1.666 Z-0.854
X-11.389 Y2.117 Z-0.865
X-11.559 Y2.273 Z-0.867
X-11.712 Y2.418 Z-0.871
X-11.892 Y2.609
X-11.981 Y2.707 Z-0.873
X-12.036 Y2.772 Z-0.872
X-12.162 Y2.93 Z-0.873
X-12.225 Y3.013 Z-0.876
X-12.299 Y3.122 Z-0.878
X-12.33 Y3.17 Z-0.882
X-12.411 Y3.309 Z-0.891
X-12.445 Y3.379 Z-0.897
X-12.482 Y3.46 Z-0.908
X-12.504 Y3.518 Z-0.916
X-12.524 Y3.577 Z-0.926
X-12.552 Y3.674 Z-0.943
X-12.569 Y3.743 Z-0.958
X-12.583 Y3.825 Z-0.976
X-12.599 Y3.97 Z-1.009
X-12.6 Y4.05 Z-1.027
X-12.597 Y4.103 Z-1.039
X-12.578 Y4.216 Z-1.055
X-12.558 Y4.29 Z-1.064
X-12.539 Y4.341 Z-1.069
X-12.515 Y4.396 Z-1.073
X-12.48 Y4.461 Z-1.075
X-12.454 Y4.501 Z-1.074
X-12.418 Y4.549 Z-1.073
X-12.377 Y4.597 Z-1.069
X-12.297 Y4.678 Z-1.06
X-12.225 Y4.737 Z-1.051
X-12.142 Y4.795 Z-1.041
X-12.046 Y4.855 Z-1.027
X-11.992 Y4.884 Z-1.017
X-11.938 Y4.912 Z-1.012
X-11.817 Y4.962 Z-0.998
X-11.685 Y5.011 Z-0.981
X-11.542 Y5.049 Z-0.966
X-11.391 Y5.083 Z-0.948
X-11.231 Y5.106 Z-0.932
X-11.064 Y5.123 Z-0.913
X-10.892 Y5.129 Z-0.895
X-10.758 Z-0.879
X-10.533 Y5.117 Z-0.853
X-10.348 Y5.097 Z-0.83
X-10.214 Y5.078 Z-0.811
X-9.972 Y5.032 Z-0.777
X-9.908 Y5.017 Z-0.766
X-9.781 Y4.985 Z-0.747
X-9.602 Y4.933 Z-0.715
X-9.397 Y4.862 Z-0.678
X-9.302 Y4.826 Z-0.658
X-9.205 Y4.786 Z-0.639
X-9.011 Y4.698 Z-0.596
X-8.819 Y4.597 Z-0.552
X-8.728 Y4.545 Z-0.527
X-8.628 Y4.485 Z-0.503
X-8.517 Y4.412 Z-0.472
X-8.436 Y4.354 Z-0.446
X-8.299 Y4.244 Z-0.401
X-8.223 Y4.178 Z-0.372
X-8.112 Y4.072 Z-0.327
X-8.041 Y3.998 Z-0.291
X-7.991 Y3.939 Z-0.261
X-7.956 Y3.89 Z-0.232
X-7.725 Y3.517 Z-0.001
Z5
X-5.548 Y1.192
Z0 F333.3
X-4.656 Y0.805 Z-0.477 F1000
X-4.505 Y0.739 Z-0.559
X-4.42 Y0.704 Z-0.607
X-4.344 Y0.679 Z-0.653
X-4.201 Y0.637 Z-0.75
X-4.097 Y0.613 Z-0.825
X-3.986 Y0.593 Z-0.908
X-3.794 Y0.563 Z-1.061
X-3.65 Y0.543 Z-1.182
X-3.639 Y0.624 Z-1.141
X-3.629 Y0.7 Z-1.107
X-3.619 Y0.771 Z-1.079
X-3.61 Y0.839 Z-1.056
X-3.601 Y0.903 Z-1.038
X-3.592 Y0.965 Z-1.024
X-3.584 Y1.026 Z-1.014
X-3.576 Y1.086 Z-1.008
X-3.568 Y1.158 Z-1.004
X-3.562 Y1.23 Z-1.003
X-3.494 Y2.26
X-3.453 Y2.761 Z-1.012
X-3.419 Y3.118 Z-1.021
X-3.393 Y3.348 Z-1.027
X-3.359 Y3.629 Z-1.03
X-3.328 Y3.829 Z-1.028
X-3.305 Y3.95 Z-1.023
X-3.3 Y3.968 Z-1.021
X-3.28 Y4.033 Z-1.011
X-3.262 Y4.072 Z-0.999
X-3.233 Y4.12 Z-0.978
X-3.18 Y4.202 Z-0.94
X-3.114 Y4.301 Z-0.89
X-2.927 Y4.56 Z-0.747
X-2.718 Y4.837 Z-0.58
X-2.616 Y4.966 Z-0.496
X-2.491 Y5.121 Z-0.39
X-2.419 Y5.209 Z-0.327
X-2.332 Y5.31 Z-0.248
X-2.254 Y5.395 Z-0.176
X-2.196 Y5.455 Z-0.119
X-2.157 Y5.489 Z-0.079
X-2.124 Y5.561 Z-0.001
X-2.157 Y5.489 Z-0.079
X-2.128 Y5.505 Z-0.047
X-2.087 Y5.532 Z-0.001
X-2.128 Y5.505 Z-0.047
X-2.157 Y5.489 Z-0.079
X-2.196 Y5.455 Z-0.119
X-2.254 Y5.395 Z-0.176
X-2.332 Y5.31 Z-0.248
X-2.419 Y5.209 Z-0.327
X-2.491 Y5.121 Z-0.39
X-2.616 Y4.966 Z-0.496
X-2.718 Y4.837 Z-0.58
X-2.927 Y4.56 Z-0.747
X-3.114 Y4.301 Z-0.89
X-3.18 Y4.202 Z-0.94
X-3.233 Y4.12 Z-0.978
X-3.262 Y4.072 Z-0.999
X-3.28 Y4.033 Z-1.011
X-3.3 Y3.968 Z-1.021
X-3.305 Y3.95 Z-1.023
X-3.328 Y3.829 Z-1.028
X-3.359 Y3.629 Z-1.03
X-3.393 Y3.348 Z-1.027
X-3.419 Y3.118 Z-1.021
X-3.453 Y2.761 Z-1.012
X-3.494 Y2.26 Z-1.003
X-3.562 Y1.23
X-3.568 Y1.158 Z-1.004
X-3.576 Y1.086 Z-1.008
X-3.584 Y1.026 Z-1.014
X-3.592 Y0.965 Z-1.024
X-3.601 Y0.903 Z-1.038
X-3.61 Y0.839 Z-1.056
X-3.619 Y0.771 Z-1.079
X-3.629 Y0.7 Z-1.107
X-3.639 Y0.624 Z-1.141
X-3.65 Y0.543 Z-1.182
X-3.592 Y0.427 Z-1.184
X-3.554 Y0.355 Z-1.19
X-3.51 Y0.271 Z-1.204
X-3.557 Y0.136 Z-1.119
X-3.575 Y0.074 Z-1.082
X-3.611 Y-0.052 Z-1.015
X-3.641 Y-0.17 Z-0.961
X-3.655 Y-0.234 Z-0.936
X-3.678 Y-0.357 Z-0.895
X-3.687 Y-0.425 Z-0.876
X-3.7 Y-0.539 Z-0.852
X-3.704 Y-0.613 Z-0.841
X-3.706 Y-0.717 Z-0.832
X-3.703 Y-0.807 Z-0.83
X-3.686 Y-1.239 Z-0.835
X-3.671 Y-1.752 Z-0.845
X-3.65 Y-2.32 Z-0.852
X-3.635 Y-2.58 Z-0.851
X-3.619 Y-2.835 Z-0.847
X-3.599 Y-3.08 Z-0.84
X-3.581 Y-3.284 Z-0.832
X-3.562 Y-3.462 Z-0.822
X-3.528 Y-3.759 Z-0.802
X-3.501 Y-3.965 Z-0.783
X-3.485 Y-4.072 Z-0.771
X-3.445 Y-4.32 Z-0.74
X-3.409 Y-4.522 Z-0.708
X-3.377 Y-4.686 Z-0.677
X-3.344 Y-4.841 Z-0.642
X-3.314 Y-4.978 Z-0.605
X-3.294 Y-5.067 Z-0.577
X-3.282 Y-5.127 Z-0.555
X-3.279 Y-5.146 Z-0.548
X-3.282 Y-5.172 Z-0.53
X-3.31 Y-5.338 Z-0.412
X-3.334 Y-5.48 Z-0.302
X-3.347 Y-5.552 Z-0.239
X-3.348 Y-5.557 Z-0.234
X-3.347 Y-5.552 Z-0.239
X-3.334 Y-5.48 Z-0.302
X-3.31 Y-5.338 Z-0.412
X-3.282 Y-5.172 Z-0.53
X-3.279 Y-5.146 Z-0.548
X-3.232 Y-5.175 Z-0.494
X-3.173 Y-5.215 Z-0.425
X-3.127 Y-5.251 Z-0.367
X-3.173 Y-5.215 Z-0.425
X-3.232 Y-5.175 Z-0.494
X-3.279 Y-5.146 Z-0.548
X-3.282 Y-5.127 Z-0.555
X-3.294 Y-5.067 Z-0.577
X-3.314 Y-4.978 Z-0.605
X-3.344 Y-4.841 Z-0.642
X-3.377 Y-4.686 Z-0.677
X-3.409 Y-4.522 Z-0.708
X-3.445 Y-4.32 Z-0.74
X-3.485 Y-4.072 Z-0.771
X-3.501 Y-3.965 Z-0.783
X-3.528 Y-3.759 Z-0.802
X-3.562 Y-3.462 Z-0.822
X-3.581 Y-3.284 Z-0.832
X-3.599 Y-3.08 Z-0.84
X-3.619 Y-2.835 Z-0.847
X-3.635 Y-2.58 Z-0.851
X-3.65 Y-2.32 Z-0.852
X-3.671 Y-1.752 Z-0.845
X-3.686 Y-1.239 Z-0.835
X-3.703 Y-0.807 Z-0.83
X-3.706 Y-0.717 Z-0.832
X-3.704 Y-0.613 Z-0.841
X-3.7 Y-0.539 Z-0.852
X-3.687 Y-0.425 Z-0.876
X-3.678 Y-0.357 Z-0.895
X-3.655 Y-0.234 Z-0.936
X-3.641 Y-0.17 Z-0.961
X-3.611 Y-0.052 Z-1.015
X-3.575 Y0.074 Z-1.082
X-3.557 Y0.136 Z-1.119
X-3.51 Y0.271 Z-1.204
X-3.413 Y0.255 Z-1.141
X-3.324 Y0.239 Z-1.088
X-3.241 Y0.225 Z-1.043
X-3.162 Y0.212 Z-1.005
X-3.087 Y0.199 Z-0.973
X-3.015 Y0.186 Z-0.948
X-2.944 Y0.174 Z-0.928
X-2.828 Y0.156 Z-0.905
X-2.736 Y0.144 Z-0.894
X-2.643 Y0.138 Z-0.888
X-2.596 Y0.136 Z-0.887
X0.678 Y0.088 Z-0.839
X0.757 Y0.089 Z-0.843
X0.837 Z-0.855
X0.919 Y0.09 Z-0.875
X1.005 Z-0.902
X1.095 Y0.091 Z-0.939
X1.191 Z-0.986
X1.294 Y0.092 Z-1.044
X1.405 Y0.093 Z-1.114
X1.421 Y0 Z-1.056
X1.435 Y-0.086 Z-1.008
X1.448 Y-0.165 Z-0.968
X1.461 Y-0.24 Z-0.935
X1.472 Y-0.311 Z-0.908
X1.484 Y-0.38 Z-0.887
X1.495 Y-0.447 Z-0.872
X1.512 Y-0.558 Z-0.856
X1.522 Y-0.65 Z-0.85
X1.526 Y-0.696
X1.604 Y-2.083 Z-0.838
X1.63 Y-2.472 Z-0.831
X1.66 Y-2.833 Z-0.818
X1.695 Y-3.178 Z-0.799
X1.734 Y-3.494 Z-0.774
X1.775 Y-3.789 Z-0.743
X1.818 Y-4.057 Z-0.708
X1.862 Y-4.298 Z-0.667
X1.906 Y-4.508 Z-0.622
X1.951 Y-4.697 Z-0.571
X1.984 Y-4.826 Z-0.525
X2.017 Y-4.936 Z-0.475
X2.028 Y-4.971 Z-0.453
X2.031 Y-5 Z-0.432
X2.03 Y-5.031 Z-0.406
X2.031 Y-5.072 Z-0.368
X2.03 Y-5.031 Z-0.406
X2.031 Y-5 Z-0.432
X2.028 Y-4.971 Z-0.453
X2.017 Y-4.936 Z-0.475
X1.984 Y-4.826 Z-0.525
X1.951 Y-4.697 Z-0.571
X1.906 Y-4.508 Z-0.622
X1.862 Y-4.298 Z-0.667
X1.818 Y-4.057 Z-0.708
X1.775 Y-3.789 Z-0.743
X1.734 Y-3.494 Z-0.774
X1.695 Y-3.178 Z-0.799
X1.66 Y-2.833 Z-0.818
X1.63 Y-2.472 Z-0.831
X1.604 Y-2.083 Z-0.838
X1.526 Y-0.696 Z-0.85
X1.522 Y-0.65
X1.512 Y-0.558 Z-0.856
X1.495 Y-0.447 Z-0.872
X1.484 Y-0.38 Z-0.887
X1.472 Y-0.311 Z-0.908
X1.461 Y-0.24 Z-0.935
X1.448 Y-0.165 Z-0.968
X1.435 Y-0.086 Z-1.008
X1.421 Y0 Z-1.056
X1.405 Y0.093 Z-1.114
X1.466 Y0.166 Z-1.103
X1.517 Y0.228 Z-1.1
X1.57 Y0.293 Z-1.103
X1.626 Y0.361 Z-1.113
X1.687 Y0.434 Z-1.132
X1.755 Y0.517 Z-1.162
X1.765 Y0.529 Z-1.167
X1.857 Y0.511 Z-1.102
X1.927 Y0.498 Z-1.055
X2.061 Y0.479 Z-0.968
X2.295 Y0.453 Z-0.824
X2.369 Y0.449 Z-0.781
X2.612 Y0.44 Z-0.646
X2.822 Y0.442 Z-0.536
X2.968 Y0.446 Z-0.458
X3.087 Y0.45 Z-0.391
X3.187 Y0.453 Z-0.33
X3.266 Y0.456 Z-0.276
X3.325 Y0.458 Z-0.232
X3.381 Y0.46 Z-0.181
X3.325 Y0.458 Z-0.232
X3.266 Y0.456 Z-0.276
X3.187 Y0.453 Z-0.33
X3.087 Y0.45 Z-0.391
X2.968 Y0.446 Z-0.458
X2.822 Y0.442 Z-0.536
X2.612 Y0.44 Z-0.646
X2.369 Y0.449 Z-0.781
X2.295 Y0.453 Z-0.824
X2.061 Y0.479 Z-0.968
X1.927 Y0.498 Z-1.055
X1.857 Y0.511 Z-1.102
X1.765 Y0.529 Z-1.167
X1.749 Y0.64 Z-1.119
X1.73 Y0.754 Z-1.076
X1.71 Y0.875 Z-1.043
X1.679 Y1.086 Z-0.997
X1.672 Y1.173 Z-0.983
X1.66 Y1.368 Z-0.955
X1.658 Y1.425 Z-0.951
X1.657 Y1.652 Z-0.933
X1.666 Y1.942 Z-0.921
X1.673 Y2.056 Z-0.919
X1.686 Y2.241 Z-0.918
X1.724 Y2.687 Z-0.923
X1.78 Y3.268 Z-0.936
X1.837 Y3.802 Z-0.95
X1.892 Y4.269 Z-0.963
X1.918 Y4.471 Z-0.967
X1.963 Y4.77 Z-0.97
X1.994 Y4.933 Z-0.965
X1.996 Y4.943 Z-0.964
X1.897 Y5.005 Z-0.851
X1.728 Y5.104 Z-0.656
X1.897 Y5.005 Z-0.851
X1.996 Y4.943 Z-0.964
X1.997 Y4.944
X2.01 Y4.962 Z-0.954
X2.047 Y5.007 Z-0.925
X2.105 Y5.072 Z-0.879
X2.226 Y5.194 Z-0.781
X2.269 Y5.235 Z-0.746
X2.366 Y5.324 Z-0.666
X2.469 Y5.41 Z-0.581
X2.573 Y5.491 Z-0.495
X2.696 Y5.578 Z-0.391
X2.767 Y5.623 Z-0.331
X2.847 Y5.667 Z-0.262
X2.914 Y5.696 Z-0.204
X2.951 Y5.71 Z-0.167
X3.118 Y5.743 Z-0.001
Z5
X4.819 Y5.924
Z-0.001 F333.3
X5.565 Y5.459 Z-0.46 F1000
X5.873 Y5.274 Z-0.644
X6.179 Y5.097 Z-0.818
X6.429 Y4.96 Z-0.954
X6.516 Y4.915 Z-0.999
X6.646 Y4.849 Z-1.062
X6.814 Y4.758 Z-1.153
X6.911 Y4.703 Z-1.208
X7.008 Y4.642 Z-1.268
X7.125 Y4.715 Z-1.194
X7.242 Y4.781 Z-1.128
X7.3 Y4.81 Z-1.097
X7.359 Y4.838 Z-1.069
X7.417 Y4.863 Z-1.042
X7.476 Y4.889 Z-1.018
X7.534 Y4.91 Z-0.995
X7.593 Y4.931 Z-0.975
X7.651 Y4.948 Z-0.956
X7.71 Y4.965 Z-0.94
X7.768 Y4.979 Z-0.924
X7.827 Y4.992 Z-0.912
X7.885 Y5.002 Z-0.901
X7.943 Y5.011 Z-0.893
X8.002 Y5.017 Z-0.885
X8.06 Y5.023 Z-0.881
X8.118 Y5.024 Z-0.876
X8.177 Y5.026
X9.444 Y5.021 Z-0.871
X9.696 Y5.024 Z-0.867
X9.934 Y5.031 Z-0.856
X10.369 Y5.052 Z-0.829
X10.929 Y5.094 Z-0.774
X11.378 Y5.136 Z-0.715
X11.613 Y5.161 Z-0.677
X11.841 Y5.187 Z-0.635
X12.056 Y5.212 Z-0.588
X12.108 Y5.219 Z-0.576
X12.255 Y5.234 Z-0.537
X12.347 Y5.244 Z-0.508
X12.436 Y5.25 Z-0.477
X12.487 Y5.254 Z-0.456
X12.63 Y5.255 Z-0.388
X12.773 Y5.254 Z-0.308
X12.895 Y5.258 Z-0.231
X12.977 Y5.261 Z-0.17
X13.009 Z-0.144
X13.021 Y5.263 Z-0.132
X13.156 Y5.256 Z-0.001
X13.021 Y5.263 Z-0.132
X13.009 Y5.261 Z-0.144
X12.977 Z-0.17
X12.895 Y5.258 Z-0.231
X12.773 Y5.254 Z-0.308
X12.63 Y5.255 Z-0.388
X12.487 Y5.254 Z-0.456
X12.436 Y5.25 Z-0.477
X12.347 Y5.244 Z-0.508
X12.255 Y5.234 Z-0.537
X12.108 Y5.219 Z-0.576
X12.056 Y5.212 Z-0.588
X11.841 Y5.187 Z-0.635
X11.613 Y5.161 Z-0.677
X11.378 Y5.136 Z-0.715
X10.929 Y5.094 Z-0.774
X10.369 Y5.052 Z-0.829
X9.934 Y5.031 Z-0.856
X9.696 Y5.024 Z-0.867
X9.444 Y5.021 Z-0.871
X8.177 Y5.026 Z-0.876
X8.118 Y5.024
X8.06 Y5.023 Z-0.881
X8.002 Y5.017 Z-0.885
X7.943 Y5.011 Z-0.893
X7.885 Y5.002 Z-0.901
X7.827 Y4.992 Z-0.912
X7.768 Y4.979 Z-0.924
X7.71 Y4.965 Z-0.94
X7.651 Y4.948 Z-0.956
X7.593 Y4.931 Z-0.975
X7.534 Y4.91 Z-0.995
X7.476 Y4.889 Z-1.018
X7.417 Y4.863 Z-1.042
X7.359 Y4.838 Z-1.069
X7.3 Y4.81 Z-1.097
X7.242 Y4.781 Z-1.128
X7.125 Y4.715 Z-1.194
X7.008 Y4.642 Z-1.268
X7.009 Y4.536 Z-1.23
X7.013 Y4.461 Z-1.205
X7.018 Y4.389 Z-1.184
X7.022 Y4.317 Z-1.167
X7.032 Y4.15 Z-1.131
X7.036 Y4.055 Z-1.113
X7.039 Y3.802 Z-1.071
X7.036 Y3.55 Z-1.037
X7.025 Y3.275 Z-1.009
X6.993 Y2.79 Z-0.975
X6.969 Y2.54 Z-0.966
X6.94 Y2.292 Z-0.963
X6.903 Y2.045 Z-0.968
X6.864 Y1.837 Z-0.979
X6.855 Y1.789 Z-0.984
X6.803 Y1.573 Z-1.008
X6.769 Y1.443 Z-1.034
X6.751 Y1.366 Z-1.055
X6.517 Y1.383 Z-0.847
X6.343 Y1.402 Z-0.697
X6.253 Y1.413 Z-0.622
X6.083 Y1.439 Z-0.487
X6.015 Y1.453 Z-0.433
X5.933 Y1.476 Z-0.372
X5.846 Y1.505 Z-0.307
X5.773 Y1.538 Z-0.255
X5.706 Y1.576 Z-0.208
X5.666 Y1.603 Z-0.178
X5.628 Y1.633 Z-0.146
X5.604 Y1.647 Z-0.125
X5.589 Y1.66 Z-0.108
X5.49 Y1.712 Z-0.001
X5.589 Y1.66 Z-0.108
X5.531 Y1.753 Z-0.001
X5.589 Y1.66 Z-0.108
X5.604 Y1.647 Z-0.125
X5.628 Y1.633 Z-0.146
X5.666 Y1.603 Z-0.178
X5.706 Y1.576 Z-0.208
X5.773 Y1.538 Z-0.255
X5.846 Y1.505 Z-0.307
X5.933 Y1.476 Z-0.372
X6.015 Y1.453 Z-0.433
X6.083 Y1.439 Z-0.487
X6.253 Y1.413 Z-0.622
X6.343 Y1.402 Z-0.697
X6.517 Y1.383 Z-0.847
X6.751 Y1.366 Z-1.055
X6.764 Y1.306 Z-1.048
X6.783 Y1.229 Z-1.043
X6.808 Y1.142 Z-1.04
X6.845 Y1.025 Z-1.046
X6.877 Y0.935 Z-1.058
X6.918 Y0.83 Z-1.078
X6.951 Y0.753 Z-1.098
X6.987 Y0.677 Z-1.121
X7.085 Y0.667 Z-1.059
X7.175 Y0.657 Z-1.008
X7.259 Y0.649 Z-0.965
X7.338 Y0.64 Z-0.93
X7.413 Y0.632 Z-0.902
X7.485 Y0.625 Z-0.88
X7.556 Y0.617 Z-0.864
X7.669 Y0.607 Z-0.85
X7.758 Y0.602 Z-0.845
X7.803 Y0.601
X9.162
X9.522 Y0.604 Z-0.842
X9.848 Y0.612 Z-0.834
X10.144 Y0.625 Z-0.819
X10.462 Y0.646 Z-0.795
X10.661 Y0.663 Z-0.774
X10.853 Y0.683 Z-0.746
X11.024 Y0.704 Z-0.712
X11.159 Y0.724 Z-0.675
X11.161
X11.22 Y0.733 Z-0.653
X11.239 Y0.762 Z-0.621
X11.269 Y0.815 Z-0.561
X11.332 Y0.917 Z-0.443
X11.269 Y0.815 Z-0.561
X11.239 Y0.762 Z-0.621
X11.22 Y0.733 Z-0.653
X11.274 Y0.722 Z-0.616
X11.368 Y0.705 Z-0.544
X11.463 Y0.688 Z-0.457
X11.368 Y0.705 Z-0.544
X11.274 Y0.722 Z-0.616
X11.22 Y0.733 Z-0.653
X11.161 Y0.724 Z-0.675
X11.159
X11.024 Y0.704 Z-0.712
X10.853 Y0.683 Z-0.746
X10.661 Y0.663 Z-0.774
X10.462 Y0.646 Z-0.795
X10.144 Y0.625 Z-0.819
X9.848 Y0.612 Z-0.834
X9.522 Y0.604 Z-0.842
X9.162 Y0.601 Z-0.845
X7.803
X7.758 Y0.602
X7.669 Y0.607 Z-0.85
X7.556 Y0.617 Z-0.864
X7.485 Y0.625 Z-0.88
X7.413 Y0.632 Z-0.902
X7.338 Y0.64 Z-0.93
X7.259 Y0.649 Z-0.965
X7.175 Y0.657 Z-1.008
X7.085 Y0.667 Z-1.059
X6.987 Y0.677 Z-1.121
X6.963 Y0.617 Z-1.086
X6.91 Y0.479 Z-1.017
X6.882 Y0.394 Z-0.979
X6.858 Y0.309 Z-0.945
X6.849 Y0.273 Z-0.932
X6.828 Y0.181 Z-0.904
X6.811 Y0.091 Z-0.88
X6.8 Y0 Z-0.861
X6.79 Y-0.109 Z-0.846
X6.788 Y-0.191 Z-0.839
X6.789 Y-0.272 Z-0.836
X6.809 Y-0.984 Z-0.84
X6.821 Y-1.27 Z-0.838
X6.836 Y-1.522 Z-0.831
X6.855 Y-1.744 Z-0.819
X6.878 Y-1.941 Z-0.803
X6.904 Y-2.121 Z-0.783
X6.935 Y-2.291 Z-0.758
X6.974 Y-2.472 Z-0.725
X7.16 Y-3.268 Z-0.566
X7.167 Y-3.304 Z-0.558
X7.179 Y-3.376 Z-0.549
X7.186 Y-3.448 Z-0.544
X7.189 Y-3.518
X7.187 Y-3.586 Z-0.548
X7.18 Y-3.654 Z-0.557
X7.166 Y-3.756 Z-0.58
X7.155 Y-3.824 Z-0.604
X7.144 Y-3.895 Z-0.636
X7.133 Y-3.97 Z-0.676
X7.121 Y-4.05 Z-0.726
X7.107 Y-4.137 Z-0.786
X7.093 Y-4.232 Z-0.857
X7.076 Y-4.338 Z-0.941
X7.044 Y-4.345 Z-0.933
X6.978 Y-4.357 Z-0.918
X6.913 Y-4.365 Z-0.904
X6.814 Y-4.373 Z-0.887
X6.704 Y-4.37 Z-0.87
X6.677 Y-4.362 Z-0.861
X6.617 Y-4.339 Z-0.838
X6.535 Y-4.3 Z-0.806
X6.443 Y-4.251 Z-0.769
X6.211 Y-4.119 Z-0.67
X5.968 Y-3.972 Z-0.557
X5.727 Y-3.817 Z-0.436
X5.618 Y-3.746 Z-0.376
X5.514 Y-3.678 Z-0.315
X5.42 Y-3.616 Z-0.256
X5.332 Y-3.558 Z-0.194
X5.266 Y-3.517 Z-0.141
X5.222 Y-3.491 Z-0.101
X5.214 Y-3.488 Z-0.093
X5.132 Y-3.439 Z-0.001
X5.214 Y-3.488 Z-0.093
X5.222 Y-3.491 Z-0.101
X5.266 Y-3.517 Z-0.141
X5.332 Y-3.558 Z-0.194
X5.42 Y-3.616 Z-0.256
X5.514 Y-3.678 Z-0.315
X5.618 Y-3.746 Z-0.376
X5.727 Y-3.817 Z-0.436
X5.968 Y-3.972 Z-0.557
X6.211 Y-4.119 Z-0.67
X6.443 Y-4.251 Z-0.769
X6.535 Y-4.3 Z-0.806
X6.617 Y-4.339 Z-0.838
X6.677 Y-4.362 Z-0.861
X6.704 Y-4.37 Z-0.87
X6.814 Y-4.373 Z-0.887
X6.913 Y-4.365 Z-0.904
X6.978 Y-4.357 Z-0.918
X7.044 Y-4.345 Z-0.933
X7.076 Y-4.338 Z-0.941
X7.14 Y-4.364 Z-0.917
X7.204 Y-4.388 Z-0.896
X7.302 Y-4.418 Z-0.867
X7.351 Y-4.43 Z-0.854
X7.4 Y-4.443 Z-0.844
X7.477 Y-4.457 Z-0.829
X7.555 Y-4.467 Z-0.819
X7.632 Y-4.474 Z-0.812
X7.692 Y-4.477 Z-0.808
X7.784 Y-4.476
X8.209 Y-4.459 Z-0.815
X8.948 Y-4.427 Z-0.824
X9.9 Y-4.38 Z-0.832
X10.579 Y-4.34 Z-0.836
X10.971 Y-4.312 Z-0.838
X11.318 Y-4.284
X11.519 Y-4.265 Z-0.836
X11.817 Y-4.232 Z-0.832
X12.07 Y-4.197 Z-0.825
X12.187 Y-4.179 Z-0.821
X12.363 Y-4.143 Z-0.811
X12.44 Y-4.126 Z-0.804
X12.465 Y-4.08 Z-0.76
X12.536 Y-3.93 Z-0.616
X12.596 Y-3.806 Z-0.491
X12.623 Y-3.749 Z-0.429
X12.596 Y-3.806 Z-0.491
X12.536 Y-3.93 Z-0.616
X12.465 Y-4.08 Z-0.76
X12.44 Y-4.126 Z-0.804
X12.457 Y-4.133 Z-0.792
X12.561 Y-4.17 Z-0.716
X12.639 Y-4.199 Z-0.652
X12.721 Y-4.221 Z-0.582
X12.736 Y-4.225 Z-0.568
X12.809 Y-4.24 Z-0.499
X12.908 Y-4.257 Z-0.402
X12.987 Y-4.276 Z-0.323
Z5
X14.573 Y5.162
Z-0.122 F333.3
X14.625 Y5.156 Z-0.168 F1000
X14.67 Y5.147 Z-0.206
X14.688 Y5.142 Z-0.221
X14.773 Y5.122 Z-0.282
X14.857 Y5.105 Z-0.337
X14.944 Y5.088 Z-0.386
X15.03 Y5.075 Z-0.431
X15.138 Y5.059 Z-0.479
X15.229 Y5.049 Z-0.516
X15.361 Y5.035 Z-0.564
X15.456 Y5.028 Z-0.596
X15.604 Y5.016 Z-0.639
X15.888 Y5.002 Z-0.708
X16.183 Y4.996 Z-0.762
X16.509 Y4.997 Z-0.805
X16.937 Y5.001 Z-0.847
X17.286 Y4.999 Z-0.877
X17.546 Y4.995 Z-0.896
X17.596 Y4.993 Z-0.9
X17.646 Y4.99 Z-0.907
X17.744 Y4.98 Z-0.921
X17.843 Y4.964 Z-0.941
X17.941 Y4.942 Z-0.966
X17.935 Y4.775 Z-0.821
X17.928 Y4.652 Z-0.719
X17.922 Y4.552 Z-0.641
X17.916 Y4.464 Z-0.579
X17.911 Y4.383 Z-0.528
X17.904 Y4.285 Z-0.476
X17.899 Y4.229 Z-0.452
X17.895 Y4.181 Z-0.438
X17.889 Y4.117 Z-0.425
X17.883 Y4.057 Z-0.421
X17.877 Y4.006 Z-0.424
X17.863 Y3.934 Z-0.432
X17.847 Y3.877 Z-0.443
X17.833 Y3.841 Z-0.451
X17.82 Y3.805 Z-0.463
X17.803 Y3.769 Z-0.474
X17.786 Y3.734 Z-0.489
X17.754 Y3.677 Z-0.514
X17.369 Y3.043 Z-0.822
X17.242 Y2.825 Z-0.92
X17.15 Y2.648 Z-0.99
X17.133 Y2.615 Z-1.002
X16.981 Y2.686 Z-0.844
X16.71 Y2.805 Z-0.559
X16.58 Y2.861 Z-0.421
X16.47 Y2.9 Z-0.305
X16.58 Y2.861 Z-0.421
X16.71 Y2.805 Z-0.559
X16.981 Y2.686 Z-0.844
X17.133 Y2.615 Z-1.002
X17.11 Y2.411 Z-0.999
X17.072 Y2.05 Z-0.989
X17.027 Y1.601 Z-0.973
X16.968 Y0.995 Z-0.944
X16.933 Y0.634 Z-0.924
X16.923 Y0.469 Z-0.92
X16.922 Y0.405 Z-0.921
X16.925 Y0.257 Z-0.93
X16.93 Y0.174 Z-0.937
X16.941 Y0.075 Z-0.951
X16.957 Y-0.025 Z-0.97
X16.978 Y-0.125 Z-0.994
X17.007 Y-0.237 Z-1.027
X17.021 Y-0.288 Z-1.043
X16.992 Y-0.342 Z-1.014
X16.962 Y-0.397 Z-0.988
X16.92 Y-0.489 Z-0.947
X16.882 Y-0.58 Z-0.912
X16.85 Y-0.672 Z-0.883
X16.825 Y-0.759 Z-0.859
X16.804 Y-0.846 Z-0.841
X16.788 Y-0.933 Z-0.827
X16.781 Y-0.986 Z-0.82
X16.774 Y-1.04 Z-0.816
X16.771 Y-1.094 Z-0.813
X16.768 Y-1.178
Y-1.216 Z-0.814
X16.783 Y-2.003 Z-0.846
X16.796 Y-2.474 Z-0.861
X16.805 Y-2.723 Z-0.867
X16.815 Y-2.933 Z-0.869
X16.827 Y-3.114 Z-0.868
X16.838 Y-3.234 Z-0.864
X16.85 Y-3.341 Z-0.858
X16.864 Y-3.432 Z-0.85
X16.878 Y-3.511 Z-0.84
X16.932 Y-3.748 Z-0.799
X17.01 Y-4.059 Z-0.735
X17.072 Y-4.306 Z-0.681
X17.106 Y-4.446 Z-0.647
X17.133 Y-4.557 Z-0.617
X17.151 Y-4.635 Z-0.593
X17.135 Y-4.695 Z-0.547
X17.107 Y-4.799 Z-0.465
X17.085 Y-4.881 Z-0.396
X17.06 Y-4.972 Z-0.313
X17.054 Y-4.996 Z-0.289
X17.06 Y-4.972 Z-0.313
X17.085 Y-4.881 Z-0.396
X17.107 Y-4.799 Z-0.465
X17.135 Y-4.695 Z-0.547
X17.151 Y-4.635 Z-0.593
X17.215 Y-4.68 Z-0.523
X17.255 Y-4.707 Z-0.48
X17.33 Y-4.759 Z-0.395
X17.417 Y-4.813 Z-0.295
X17.33 Y-4.759 Z-0.395
X17.255 Y-4.707 Z-0.48
X17.215 Y-4.68 Z-0.523
X17.151 Y-4.635 Z-0.593
X17.133 Y-4.557 Z-0.617
X17.106 Y-4.446 Z-0.647
X17.072 Y-4.306 Z-0.681
X17.01 Y-4.059 Z-0.735
X16.932 Y-3.748 Z-0.799
X16.878 Y-3.511 Z-0.84
X16.864 Y-3.432 Z-0.85
X16.85 Y-3.341 Z-0.858
X16.838 Y-3.234 Z-0.864
X16.827 Y-3.114 Z-0.868
X16.815 Y-2.933 Z-0.869
X16.805 Y-2.723 Z-0.867
X16.796 Y-2.474 Z-0.861
X16.783 Y-2.003 Z-0.846
X16.768 Y-1.216 Z-0.814
Y-1.178 Z-0.813
X16.771 Y-1.094
X16.774 Y-1.04 Z-0.816
X16.781 Y-0.986 Z-0.82
X16.788 Y-0.933 Z-0.827
X16.804 Y-0.846 Z-0.841
X16.825 Y-0.759 Z-0.859
X16.85 Y-0.672 Z-0.883
X16.882 Y-0.58 Z-0.912
X16.92 Y-0.489 Z-0.947
X16.962 Y-0.397 Z-0.988
X16.992 Y-0.342 Z-1.014
X17.021 Y-0.288 Z-1.043
X17.107 Y-0.306 Z-0.983
X17.187 Y-0.322 Z-0.933
X17.261 Y-0.337 Z-0.89
X17.33 Y-0.351 Z-0.854
X17.395 Y-0.365 Z-0.824
X17.457 Y-0.378 Z-0.8
X17.518 Y-0.39 Z-0.78
X17.578 Y-0.402 Z-0.765
X17.64 Y-0.417 Z-0.753
X17.716 Y-0.434 Z-0.742
X17.789 Y-0.446 Z-0.736
X17.905 Y-0.459 Z-0.732
X17.99 Y-0.465 Z-0.733
X18.094 Y-0.468 Z-0.739
X18.189 Y-0.467 Z-0.746
X18.373 Y-0.462 Z-0.766
X18.63 Y-0.449 Z-0.8
X18.832 Y-0.433 Z-0.831
X19.049 Y-0.413 Z-0.869
X19.252 Y-0.392 Z-0.905
X19.364 Y-0.384 Z-0.929
X19.423 Y-0.381 Z-0.946
X19.484 Z-0.963
X19.544 Y-0.382 Z-0.983
X19.605 Y-0.386 Z-1.004
X19.667 Y-0.39 Z-1.028
X19.729 Y-0.397 Z-1.053
X19.831 Y-0.41 Z-1.098
X19.945 Y-0.43 Z-1.155
X19.967 Y-0.524 Z-1.101
X19.992 Y-0.635 Z-1.047
X20.016 Y-0.738 Z-1.002
X20.044 Y-0.84 Z-0.963
X20.059 Y-0.891 Z-0.947
X20.093 Y-0.988 Z-0.917
X20.132 Y-1.082 Z-0.892
X20.19 Y-1.206 Z-0.865
X20.226 Y-1.274 Z-0.853
X20.303 Y-1.408 Z-0.835
X20.385 Y-1.543 Z-0.822
X20.479 Y-1.689 Z-0.81
X20.586 Y-1.85 Z-0.8
X20.831 Y-2.21 Z-0.783
X20.978 Y-2.421 Z-0.776
X21.288 Y-2.857 Z-0.765
X21.494 Y-3.138 Z-0.759
X21.648 Y-3.345 Z-0.754
X21.926 Y-3.706 Z-0.745
X22.051 Y-3.862 Z-0.74
X22.274 Y-4.13 Z-0.727
X22.372 Y-4.243 Z-0.719
X22.477 Y-4.36 Z-0.708
X22.544 Y-4.432 Z-0.699
X22.623 Y-4.515 Z-0.686
X22.757 Y-4.647 Z-0.656
X22.878 Y-4.758 Z-0.619
X22.993 Y-4.859 Z-0.577
X23.101 Y-4.956 Z-0.53
X23.143 Y-4.993 Z-0.508
X23.195 Y-5.041 Z-0.478
X23.232 Y-5.077 Z-0.452
X23.299 Y-5.096 Z-0.387
X23.232 Y-5.077 Z-0.452
X23.238 Y-5.093 Z-0.437
X23.278 Y-5.205 Z-0.325
X23.238 Y-5.093 Z-0.437
X23.232 Y-5.077 Z-0.452
X23.195 Y-5.041 Z-0.478
X23.143 Y-4.993 Z-0.508
X23.101 Y-4.956 Z-0.53
X22.993 Y-4.859 Z-0.577
X22.878 Y-4.758 Z-0.619
X22.757 Y-4.647 Z-0.656
X22.623 Y-4.515 Z-0.686
X22.544 Y-4.432 Z-0.699
X22.477 Y-4.36 Z-0.708
X22.372 Y-4.243 Z-0.719
X22.274 Y-4.13 Z-0.727
X22.051 Y-3.862 Z-0.74
X21.926 Y-3.706 Z-0.745
X21.648 Y-3.345 Z-0.754
X21.494 Y-3.138 Z-0.759
X21.288 Y-2.857 Z-0.765
X20.978 Y-2.421 Z-0.776
X20.831 Y-2.21 Z-0.783
X20.586 Y-1.85 Z-0.8
X20.479 Y-1.689 Z-0.81
X20.385 Y-1.543 Z-0.822
X20.303 Y-1.408 Z-0.835
X20.226 Y-1.274 Z-0.853
X20.19 Y-1.206 Z-0.865
X20.132 Y-1.082 Z-0.892
X20.093 Y-0.988 Z-0.917
X20.059 Y-0.891 Z-0.947
X20.044 Y-0.84 Z-0.963
X20.016 Y-0.738 Z-1.002
X19.992 Y-0.635 Z-1.047
X19.967 Y-0.524 Z-1.101
X19.945 Y-0.43 Z-1.155
X19.991 Y-0.388 Z-1.13
X20.038 Y-0.346 Z-1.107
X20.085 Y-0.308 Z-1.085
X20.163 Y-0.246 Z-1.054
X20.268 Y-0.17 Z-1.018
X20.374 Y-0.099 Z-0.991
X20.427 Y-0.067 Z-0.979
X20.53 Y-0.007 Z-0.964
X20.586 Y0.024 Z-0.957
X20.741 Y0.102 Z-0.947
X20.815 Y0.139 Z-0.945
X20.973 Y0.208 Z-0.951
X21.105 Y0.271 Z-0.957
X21.193 Y0.321 Z-0.954
X21.25 Y0.357 Z-0.953
X21.396 Y0.454 Z-0.944
X21.466 Y0.504 Z-0.941
X21.585 Y0.596 Z-0.933
X21.712 Y0.7 Z-0.927
X21.764 Y0.746 Z-0.925
X21.908 Y0.881 Z-0.921
X22.043 Y1.026 Z-0.919
X22.1 Y1.091 Z-0.921
X22.189 Y1.203 Z-0.922
X22.233 Y1.265 Z-0.923
X22.302 Y1.374
X22.308 Y1.383
X22.348 Y1.461 Z-0.92
X22.378 Y1.53 Z-0.917
X22.415 Y1.629 Z-0.907
X22.447 Y1.723 Z-0.904
X22.477 Y1.848 Z-0.891
X22.492 Y1.917 Z-0.887
X22.512 Y2.069 Z-0.871
X22.518 Y2.13 Z-0.868
X22.522 Y2.248 Z-0.855
Y2.359 Z-0.846
X22.507 Y2.543 Z-0.827
X22.5 Y2.602 Z-0.822
X22.477 Y2.732 Z-0.807
X22.451 Y2.857 Z-0.798
X22.423 Y2.956 Z-0.787
X22.41 Y3.001 Z-0.784
X22.366 Y3.131 Z-0.776
X22.348 Y3.176 Z-0.772
X22.329 Y3.22 Z-0.77
X22.258 Y3.377 Z-0.765
X22.23 Y3.427 Z-0.763
X22.144 Y3.574 Z-0.76
X22.109 Y3.629 Z-0.761
X21.985 Y3.8 Z-0.762
X21.93 Y3.871 Z-0.765
X21.844 Y3.97 Z-0.766
X21.714 Y4.111 Z-0.773
X21.689 Y4.136
X21.485 Y4.327 Z-0.78
X21.299 Y4.474 Z-0.786
X21.251 Y4.51 Z-0.791
X21.063 Y4.631 Z-0.802
X20.98 Y4.679 Z-0.812
X20.802 Y4.766 Z-0.827
X20.683 Y4.817 Z-0.845
X20.501 Y4.884 Z-0.866
X20.358 Y4.923 Z-0.88
X20.21 Y4.953 Z-0.889
X20.161 Y4.961 Z-0.891
X20.055 Y4.975 Z-0.893
X19.891 Y4.99 Z-0.894
X19.715 Y5.003
X19.519 Y5.013 Z-0.893
X19.226 Y5.023 Z-0.89
X18.967 Y5.027 Z-0.889
X18.7 Y5.024 Z-0.893
X18.493 Y5.017 Z-0.9
X18.305 Y5.002 Z-0.912
X18.251 Y4.996 Z-0.918
X18.083 Y4.973 Z-0.939
X18.016 Y4.96 Z-0.951
X17.941 Y4.942 Z-0.966
Z15
M9
G28 G91 Z0
G90
G28 G91 X0 Y0
G90
M5
M30
